%
O08715 (Thermocyler_Block_4X4_5)
(Using high feed G1 F500. instead of G0.)
(T8 D=0.125 CR=0. - ZMIN=-0.748 - flat end mill)
N10 G90 G94 G17
N15 G20
N20 G53 G0 Z0.

(Ramp1)
N30 T8 M6
N35 S4000 M3
N40 G54
N45 M8
N60 G0 X3.9076 Y4.2486
N65 G43 Z0.5906 H8
N70 G0 Z0.0761
N75 G1 Z0. F8.
N80 G3 X3.8984 Y4.2274 I-0.0002 J-0.0125
N85 G1 X3.9019 Y4.2237 Z-0.0002
N90 X3.9024 Y4.2232
N95 X3.9074 Y4.2193 Z-0.0004
N100 X3.9097 Y4.2177 Z-0.0005
N105 X3.9129 Y4.2157 Z-0.0007
N110 X3.9157 Y4.2142 Z-0.0008
N115 X3.9184 Y4.2129 Z-0.0009
N120 X3.9205 Y4.2121
N125 X3.9239 Y4.2108 Z-0.0011
N130 X3.9295 Y4.2093 Z-0.0013
N135 X3.935 Y4.2083 Z-0.0015
N140 X3.9405 Y4.2078 Z-0.0017
N145 X3.946 Y4.2077 Z-0.0019
N150 X3.9515 Y4.2082 Z-0.002
N155 X3.9542 Y4.2087 Z-0.0021
N160 X3.957 Y4.2092 Z-0.0022
N165 X3.9625 Y4.2108 Z-0.0024
N170 X3.966 Y4.2121 Z-0.0026
N175 X3.968 Y4.2129 Z-0.0027
N180 X3.9735 Y4.2157 Z-0.0029
N185 X3.9767 Y4.2177 Z-0.003
N190 X3.979 Y4.2192 Z-0.0031
N195 X3.9839 Y4.2232 Z-0.0033
N200 X3.9845 Y4.2237
N205 X3.9871 Y4.2263 Z-0.0035
N210 X3.9895 Y4.2288 Z-0.0036
N215 X3.99 Y4.2295
N220 X3.9937 Y4.2344 Z-0.0038
N225 X3.9955 Y4.2371 Z-0.004
N230 X3.9971 Y4.24 Z-0.0041
N235 X3.9985 Y4.2428 Z-0.0042
N240 X3.9998 Y4.2456 Z-0.0043
N245 X4.001 Y4.2488 Z-0.0044
N250 X4.0018 Y4.2512 Z-0.0045
N255 X4.0031 Y4.2567 Z-0.0047
N260 X4.004 Y4.2623 Z-0.0049
N265 X4.0044 Y4.2679 Z-0.0051
N270 X4.0042 Y4.2735 Z-0.0053
N275 X4.0039 Y4.2763 Z-0.0054
N280 X4.0035 Y4.2791 Z-0.0055
N285 X4.0023 Y4.2846 Z-0.0057
N290 X4.001 Y4.2889 Z-0.0058
N295 X4.0005 Y4.2902 Z-0.0059
N300 X3.9981 Y4.2958 Z-0.0061
N305 X3.9955 Y4.3006 Z-0.0063
N310 X3.995 Y4.3014
N315 X3.991 Y4.307 Z-0.0066
N320 X3.99 Y4.3082
N325 X3.9881 Y4.3104 Z-0.0067
N330 X3.986 Y4.3126 Z-0.0068
N335 X3.9845 Y4.314 Z-0.0069
N340 X3.9794 Y4.3181 Z-0.0071
N345 X3.979 Y4.3185
N350 X3.9762 Y4.3203 Z-0.0073
N355 X3.9735 Y4.322 Z-0.0074
N360 X3.9703 Y4.3237 Z-0.0075
N365 X3.968 Y4.3248 Z-0.0076
N370 X3.9625 Y4.3269 Z-0.0078
N375 X3.957 Y4.3285 Z-0.008
N380 X3.9526 Y4.3293 Z-0.0081
N385 X3.9515 Y4.3295 Z-0.0082
N390 X3.946 Y4.33 Z-0.0084
N395 X3.9405 Y4.3299 Z-0.0086
N400 X3.935 Y4.3294 Z-0.0088
N405 X3.934 Y4.3293
N410 X3.9295 Y4.3284 Z-0.009
N415 X3.9239 Y4.3269 Z-0.0092
N420 X3.9184 Y4.3248 Z-0.0094
N425 X3.9162 Y4.3237
N430 X3.9129 Y4.322 Z-0.0096
N435 X3.9074 Y4.3184 Z-0.0098
N440 X3.907 Y4.3181
N445 X3.9045 Y4.3162 Z-0.0099
N450 X3.9019 Y4.314 Z-0.0101
N455 X3.9004 Y4.3126
N460 X3.8964 Y4.3082 Z-0.0103
N465 X3.8953 Y4.307 Z-0.0104
N470 X3.8914 Y4.3014 Z-0.0106
N475 X3.8909 Y4.3006 Z-0.0107
N480 X3.8883 Y4.2958 Z-0.0108
N485 X3.887 Y4.293 Z-0.011
N490 X3.8859 Y4.2902 Z-0.0111
N495 X3.8854 Y4.2889
N500 X3.8841 Y4.2846 Z-0.0113
N505 X3.8829 Y4.2791 Z-0.0115
N510 X3.8822 Y4.2735 Z-0.0117
N515 X3.8821 Y4.2679 Z-0.0119
N520 X3.8824 Y4.2623 Z-0.0121
N525 X3.8828 Y4.2595 Z-0.0122
N530 X3.8832 Y4.2567
N535 X3.8847 Y4.2512 Z-0.0125
N540 X3.8854 Y4.2488
N545 X3.8867 Y4.2456 Z-0.0127
N550 X3.8893 Y4.24 Z-0.0129
N555 X3.8909 Y4.2371 Z-0.013
N560 X3.8926 Y4.2344 Z-0.0131
N565 X3.8964 Y4.2295 Z-0.0133
N570 X3.897 Y4.2288
N575 X3.9019 Y4.2237 Z-0.0136
N580 X3.9024 Y4.2232
N585 X3.9074 Y4.2193 Z-0.0138
N590 X3.9097 Y4.2177 Z-0.0139
N595 X3.9129 Y4.2157 Z-0.0141
N600 X3.9157 Y4.2142 Z-0.0142
N605 X3.9184 Y4.2129 Z-0.0143
N610 X3.9205 Y4.2121 Z-0.0144
N615 X3.9239 Y4.2108 Z-0.0145
N620 X3.9295 Y4.2093 Z-0.0147
N625 X3.935 Y4.2083 Z-0.0149
N630 X3.9405 Y4.2078 Z-0.0151
N635 X3.946 Y4.2077 Z-0.0153
N640 X3.9515 Y4.2082 Z-0.0155
N645 X3.9542 Y4.2087 Z-0.0156
N650 X3.957 Y4.2092 Z-0.0157
N655 X3.9625 Y4.2108 Z-0.0159
N660 X3.966 Y4.2121 Z-0.016
N665 X3.968 Y4.2129 Z-0.0161
N670 X3.9735 Y4.2157 Z-0.0163
N675 X3.9767 Y4.2177 Z-0.0164
N680 X3.979 Y4.2192 Z-0.0165
N685 X3.9839 Y4.2232 Z-0.0167
N690 X3.9845 Y4.2237 Z-0.0168
N695 X3.9871 Y4.2263 Z-0.0169
N700 X3.9895 Y4.2288 Z-0.017
N705 X3.99 Y4.2295
N710 X3.9937 Y4.2344 Z-0.0173
N715 X3.9955 Y4.2371 Z-0.0174
N720 X3.9971 Y4.24 Z-0.0175
N725 X3.9985 Y4.2428 Z-0.0176
N730 X3.9998 Y4.2456 Z-0.0177
N735 X4.001 Y4.2488 Z-0.0178
N740 X4.0018 Y4.2512 Z-0.0179
N745 X4.0031 Y4.2567 Z-0.0181
N750 X4.004 Y4.2623 Z-0.0183
N755 X4.0044 Y4.2679 Z-0.0185
N760 X4.0042 Y4.2735 Z-0.0187
N765 X4.0039 Y4.2763 Z-0.0188
N770 X4.0035 Y4.2791 Z-0.0189
N775 X4.0023 Y4.2846 Z-0.0191
N780 X4.001 Y4.2889 Z-0.0192
N785 X4.0005 Y4.2902 Z-0.0193
N790 X3.9981 Y4.2958 Z-0.0195
N795 X3.9955 Y4.3006 Z-0.0197
N800 X3.995 Y4.3014
N805 X3.991 Y4.307 Z-0.02
N810 X3.99 Y4.3082
N815 X3.9881 Y4.3104 Z-0.0201
N820 X3.986 Y4.3126 Z-0.0202
N825 X3.9845 Y4.314 Z-0.0203
N830 X3.9794 Y4.3181 Z-0.0205
N835 X3.979 Y4.3185 Z-0.0206
N840 X3.9762 Y4.3203 Z-0.0207
N845 X3.9735 Y4.322 Z-0.0208
N850 X3.9703 Y4.3237 Z-0.0209
N855 X3.968 Y4.3248 Z-0.021
N860 X3.9625 Y4.3269 Z-0.0212
N865 X3.957 Y4.3285 Z-0.0214
N870 X3.9526 Y4.3293 Z-0.0216
N875 X3.9515 Y4.3295
N880 X3.946 Y4.33 Z-0.0218
N885 X3.9405 Y4.3299 Z-0.022
N890 X3.935 Y4.3294 Z-0.0222
N895 X3.934 Y4.3293
N900 X3.9295 Y4.3284 Z-0.0224
N905 X3.9239 Y4.3269 Z-0.0226
N910 X3.9184 Y4.3248 Z-0.0228
N915 X3.9162 Y4.3237 Z-0.0229
N920 X3.9129 Y4.322 Z-0.023
N925 X3.9074 Y4.3184 Z-0.0232
N930 X3.907 Y4.3181
N935 X3.9045 Y4.3162 Z-0.0234
N940 X3.9019 Y4.314 Z-0.0235
N945 X3.9004 Y4.3126
N950 X3.8964 Y4.3082 Z-0.0237
N955 X3.8953 Y4.307 Z-0.0238
N960 X3.8914 Y4.3014 Z-0.024
N965 X3.8909 Y4.3006 Z-0.0241
N970 X3.8883 Y4.2958 Z-0.0243
N975 X3.887 Y4.293 Z-0.0244
N980 X3.8859 Y4.2902 Z-0.0245
N985 X3.8854 Y4.2889
N990 X3.8841 Y4.2846 Z-0.0247
N995 X3.8829 Y4.2791 Z-0.0249
N1000 X3.8822 Y4.2735 Z-0.0251
N1005 X3.8821 Y4.2679 Z-0.0253
N1010 X3.8824 Y4.2623 Z-0.0255
N1015 X3.8828 Y4.2595 Z-0.0256
N1020 X3.8832 Y4.2567 Z-0.0257
N1025 X3.8847 Y4.2512 Z-0.0259
N1030 X3.8854 Y4.2488 Z-0.026
N1035 X3.8867 Y4.2456 Z-0.0261
N1040 X3.8893 Y4.24 Z-0.0263
N1045 X3.8909 Y4.2371 Z-0.0264
N1050 X3.8926 Y4.2344 Z-0.0265
N1055 X3.8964 Y4.2295 Z-0.0267
N1060 X3.897 Y4.2288 Z-0.0268
N1065 X3.9019 Y4.2237 Z-0.027
N1070 X3.9024 Y4.2232
N1075 X3.9074 Y4.2193 Z-0.0273
N1080 X3.9097 Y4.2177 Z-0.0274
N1085 X3.9129 Y4.2157 Z-0.0275
N1090 X3.9157 Y4.2142 Z-0.0276
N1095 X3.9184 Y4.2129 Z-0.0277
N1100 X3.9205 Y4.2121 Z-0.0278
N1105 X3.9239 Y4.2108 Z-0.0279
N1110 X3.9295 Y4.2093 Z-0.0281
N1115 X3.935 Y4.2083 Z-0.0283
N1120 X3.9405 Y4.2078 Z-0.0285
N1125 X3.946 Y4.2077 Z-0.0287
N1130 X3.9515 Y4.2082 Z-0.0289
N1135 X3.9542 Y4.2087 Z-0.029
N1140 X3.957 Y4.2092 Z-0.0291
N1145 X3.9625 Y4.2108 Z-0.0293
N1150 X3.966 Y4.2121 Z-0.0294
N1155 X3.968 Y4.2129 Z-0.0295
N1160 X3.9735 Y4.2157 Z-0.0297
N1165 X3.9767 Y4.2177 Z-0.0298
N1170 X3.979 Y4.2192 Z-0.0299
N1175 X3.9839 Y4.2232 Z-0.0302
N1180 X3.9845 Y4.2237
N1185 X3.9871 Y4.2263 Z-0.0303
N1190 X3.9895 Y4.2288 Z-0.0304
N1195 X3.99 Y4.2295 Z-0.0305
N1200 X3.9937 Y4.2344 Z-0.0307
N1205 X3.9955 Y4.2371 Z-0.0308
N1210 X3.9971 Y4.24 Z-0.0309
N1215 X3.9985 Y4.2428 Z-0.031
N1220 X3.9998 Y4.2456 Z-0.0311
N1225 X4.001 Y4.2488 Z-0.0312
N1230 X4.0018 Y4.2512 Z-0.0313
N1235 X4.0031 Y4.2567 Z-0.0315
N1240 X4.004 Y4.2623 Z-0.0317
N1245 X4.0044 Y4.2679 Z-0.0319
N1250 X4.0042 Y4.2735 Z-0.0321
N1255 X4.0039 Y4.2763 Z-0.0322
N1260 X4.0035 Y4.2791 Z-0.0323
N1265 X4.0023 Y4.2846 Z-0.0325
N1270 X4.001 Y4.2889 Z-0.0327
N1275 X4.0005 Y4.2902
N1280 X3.9981 Y4.2958 Z-0.0329
N1285 X3.9955 Y4.3006 Z-0.0331
N1290 X3.995 Y4.3014
N1295 X3.991 Y4.307 Z-0.0334
N1300 X3.99 Y4.3082
N1305 X3.9881 Y4.3104 Z-0.0335
N1310 X3.986 Y4.3126 Z-0.0336
N1315 X3.9845 Y4.314 Z-0.0337
N1320 X3.9794 Y4.3181 Z-0.034
N1325 X3.979 Y4.3185
N1330 X3.9762 Y4.3203 Z-0.0341
N1335 X3.9735 Y4.322 Z-0.0342
N1340 X3.9703 Y4.3237 Z-0.0343
N1345 X3.968 Y4.3248 Z-0.0344
N1350 X3.9625 Y4.3269 Z-0.0346
N1355 X3.957 Y4.3285 Z-0.0348
N1360 X3.9526 Y4.3293 Z-0.035
N1365 X3.9515 Y4.3295
N1370 X3.946 Y4.33 Z-0.0352
N1375 X3.9405 Y4.3299 Z-0.0354
N1380 X3.935 Y4.3294 Z-0.0356
N1385 X3.934 Y4.3293
N1390 X3.9295 Y4.3284 Z-0.0358
N1395 X3.9239 Y4.3269 Z-0.036
N1400 X3.9184 Y4.3248 Z-0.0362
N1405 X3.9162 Y4.3237 Z-0.0363
N1410 X3.9129 Y4.322 Z-0.0364
N1415 X3.9074 Y4.3184 Z-0.0366
N1420 X3.907 Y4.3181 Z-0.0367
N1425 X3.9045 Y4.3162 Z-0.0368
N1430 X3.9019 Y4.314 Z-0.0369
N1435 X3.9004 Y4.3126 Z-0.037
N1440 X3.8964 Y4.3082 Z-0.0372
N1445 X3.8953 Y4.307
N1450 X3.8914 Y4.3014 Z-0.0375
N1455 X3.8909 Y4.3006
N1460 X3.8883 Y4.2958 Z-0.0377
N1465 X3.887 Y4.293 Z-0.0378
N1470 X3.8859 Y4.2902 Z-0.0379
N1475 X3.8854 Y4.2889
N1480 X3.8841 Y4.2846 Z-0.0381
N1485 X3.8829 Y4.2791 Z-0.0383
N1490 X3.8822 Y4.2735 Z-0.0385
N1495 X3.8821 Y4.2679 Z-0.0387
N1500 X3.8824 Y4.2623 Z-0.0389
N1505 X3.8828 Y4.2595 Z-0.039
N1510 X3.8832 Y4.2567 Z-0.0391
N1515 X3.8847 Y4.2512 Z-0.0393
N1520 X3.8854 Y4.2488 Z-0.0394
N1525 X3.8858 Y4.2477
N1530 X3.8863 Y4.2465 Z-0.0395
N1535 X3.8872 Y4.2443
N1540 X3.8894 Y4.2398 Z-0.0397
N1545 X3.8919 Y4.2356 Z-0.0399
N1550 X3.8947 Y4.2316 Z-0.0401
N1555 X3.8979 Y4.2278 Z-0.0402
N1560 X3.9013 Y4.2243 Z-0.0404
N1565 X3.9051 Y4.221 Z-0.0406
N1570 X3.909 Y4.2181 Z-0.0407
N1575 X3.9132 Y4.2155 Z-0.0409
N1580 X3.9176 Y4.2133 Z-0.0411
N1585 X3.9221 Y4.2114 Z-0.0413
N1590 X3.9268 Y4.2099 Z-0.0414
N1595 X3.9316 Y4.2088 Z-0.0416
N1600 X3.9365 Y4.208 Z-0.0418
N1605 X3.9414 Y4.2077 Z-0.0419
N1610 X3.9463 Z-0.0421
N1615 X3.9513 Y4.2082 Z-0.0423
N1620 X3.9561 Y4.209 Z-0.0425
N1625 X3.9609 Y4.2103 Z-0.0426
N1630 X3.9655 Y4.2119 Z-0.0428
N1635 X3.97 Y4.2139 Z-0.043
N1640 X3.9744 Y4.2162 Z-0.0432
N1645 X3.9785 Y4.2189 Z-0.0433
N1650 X3.9824 Y4.2219 Z-0.0435
N1655 X3.9843 Y4.2235 Z-0.0436
N1660 X3.9861 Y4.2252 Z-0.0437
N1665 X3.9895 Y4.2288 Z-0.0438
N1670 X3.9925 Y4.2326 Z-0.044
N1675 X3.9953 Y4.2367 Z-0.0442
N1680 X3.9977 Y4.241 Z-0.0444
N1685 X3.9998 Y4.2455 Z-0.0445
N1690 X4.0015 Y4.2501 Z-0.0447
N1695 X4.0028 Y4.2549 Z-0.0449
N1700 X4.0037 Y4.2597 Z-0.045
N1705 X4.0042 Y4.2646 Z-0.0452
N1710 X4.0044 Y4.2695 Z-0.0454
N1715 X4.0041 Y4.2744 Z-0.0456
N1720 X4.0035 Y4.2793 Z-0.0457
N1725 X4.0024 Y4.2841 Z-0.0459
N1730 X4.001 Y4.2889 Z-0.0461
N1735 X3.9992 Y4.2934 Z-0.0462
N1740 X3.9971 Y4.2979 Z-0.0464
N1745 X3.9945 Y4.3021 Z-0.0466
N1750 X3.9917 Y4.3061 Z-0.0468
N1755 X3.9885 Y4.3099 Z-0.0469
N1760 X3.9851 Y4.3134 Z-0.0471
N1765 X3.9814 Y4.3166 Z-0.0473
N1770 X3.9774 Y4.3196 Z-0.0474
N1775 X3.9732 Y4.3221 Z-0.0476
N1780 X3.9688 Y4.3244 Z-0.0478
N1785 X3.9643 Y4.3263 Z-0.048
N1790 X3.9596 Y4.3278 Z-0.0481
N1795 X3.9548 Y4.3289 Z-0.0483
N1800 X3.9499 Y4.3296 Z-0.0485
N1805 X3.945 Y4.33 Z-0.0487
N1810 X3.9401 Y4.3299 Z-0.0488
N1815 X3.9352 Y4.3295 Z-0.049
N1820 X3.9303 Y4.3286 Z-0.0492
N1825 X3.9256 Y4.3274 Z-0.0493
N1830 X3.9209 Y4.3258 Z-0.0495
N1835 X3.9164 Y4.3238 Z-0.0497
N1840 X3.9121 Y4.3215 Z-0.0499
N1845 X3.9079 Y4.3188 Z-0.05
N1850 X3.904 Y4.3158 Z-0.0502
N1855 X3.9004 Y4.3125 Z-0.0504
N1860 X3.897 Y4.3089 Z-0.0505
N1865 X3.8939 Y4.305 Z-0.0507
N1870 X3.8912 Y4.301 Z-0.0509
N1875 X3.8888 Y4.2967 Z-0.0511
N1880 X3.8867 Y4.2922 Z-0.0512
N1885 X3.885 Y4.2876 Z-0.0514
N1890 X3.8837 Y4.2828 Z-0.0516
N1895 X3.8827 Y4.278 Z-0.0517
N1900 X3.8822 Y4.2731 Z-0.0519
N1905 X3.8821 Y4.2682 Z-0.0521
N1910 X3.8823 Y4.2633 Z-0.0523
N1915 X3.883 Y4.2584 Z-0.0524
N1920 X3.884 Y4.2536 Z-0.0526
N1925 X3.8854 Y4.2488 Z-0.0528
N1930 X3.8872 Y4.2443 Z-0.0529
N1935 X3.8894 Y4.2398 Z-0.0531
N1940 X3.8919 Y4.2356 Z-0.0533
N1945 X3.8947 Y4.2316 Z-0.0535
N1950 X3.8979 Y4.2278 Z-0.0536
N1955 X3.9013 Y4.2243 Z-0.0538
N1960 X3.9051 Y4.221 Z-0.054
N1965 X3.909 Y4.2181 Z-0.0542
N1970 X3.9132 Y4.2155 Z-0.0543
N1975 X3.9176 Y4.2133 Z-0.0545
N1980 X3.9221 Y4.2114 Z-0.0547
N1985 X3.9268 Y4.2099 Z-0.0548
N1990 X3.9316 Y4.2088 Z-0.055
N1995 X3.9365 Y4.208 Z-0.0552
N2000 X3.9414 Y4.2077 Z-0.0554
N2005 X3.9463 Z-0.0555
N2010 X3.9513 Y4.2082 Z-0.0557
N2015 X3.9561 Y4.209 Z-0.0559
N2020 X3.9609 Y4.2103 Z-0.056
N2025 X3.9655 Y4.2119 Z-0.0562
N2030 X3.97 Y4.2139 Z-0.0564
N2035 X3.9744 Y4.2162 Z-0.0566
N2040 X3.9785 Y4.2189 Z-0.0567
N2045 X3.9824 Y4.2219 Z-0.0569
N2050 X3.9843 Y4.2235 Z-0.057
N2055 X3.9861 Y4.2252 Z-0.0571
N2060 X3.9895 Y4.2288 Z-0.0572
N2065 X3.9925 Y4.2326 Z-0.0574
N2070 X3.9953 Y4.2367 Z-0.0576
N2075 X3.9977 Y4.241 Z-0.0578
N2080 X3.9998 Y4.2455 Z-0.0579
N2085 X4.0015 Y4.2501 Z-0.0581
N2090 X4.0028 Y4.2549 Z-0.0583
N2095 X4.0037 Y4.2597 Z-0.0584
N2100 X4.0042 Y4.2646 Z-0.0586
N2105 X4.0044 Y4.2695 Z-0.0588
N2110 X4.0041 Y4.2744 Z-0.059
N2115 X4.0035 Y4.2793 Z-0.0591
N2120 X4.0024 Y4.2841 Z-0.0593
N2125 X4.001 Y4.2889 Z-0.0595
N2130 X3.9992 Y4.2934 Z-0.0597
N2135 X3.9971 Y4.2979 Z-0.0598
N2140 X3.9945 Y4.3021 Z-0.06
N2145 X3.9917 Y4.3061 Z-0.0602
N2150 X3.9885 Y4.3099 Z-0.0603
N2155 X3.9851 Y4.3134 Z-0.0605
N2160 X3.9814 Y4.3166 Z-0.0607
N2165 X3.9774 Y4.3196 Z-0.0609
N2170 X3.9732 Y4.3221 Z-0.061
N2175 X3.9688 Y4.3244 Z-0.0612
N2180 X3.9643 Y4.3263 Z-0.0614
N2185 X3.9596 Y4.3278 Z-0.0615
N2190 X3.9548 Y4.3289 Z-0.0617
N2195 X3.9499 Y4.3296 Z-0.0619
N2200 X3.945 Y4.33 Z-0.0621
N2205 X3.9401 Y4.3299 Z-0.0622
N2210 X3.9352 Y4.3295 Z-0.0624
N2215 X3.9303 Y4.3286 Z-0.0626
N2220 X3.9256 Y4.3274 Z-0.0627
N2225 X3.9209 Y4.3258 Z-0.0629
N2230 X3.9164 Y4.3238 Z-0.0631
N2235 X3.9121 Y4.3215 Z-0.0633
N2240 X3.9079 Y4.3188 Z-0.0634
N2245 X3.904 Y4.3158 Z-0.0636
N2250 X3.9004 Y4.3125 Z-0.0638
N2255 X3.897 Y4.3089 Z-0.0639
N2260 X3.8939 Y4.305 Z-0.0641
N2265 X3.8912 Y4.301 Z-0.0643
N2270 X3.8888 Y4.2967 Z-0.0645
N2275 X3.8867 Y4.2922 Z-0.0646
N2280 X3.885 Y4.2876 Z-0.0648
N2285 X3.8837 Y4.2828 Z-0.065
N2290 X3.8827 Y4.278 Z-0.0652
N2295 X3.8822 Y4.2731 Z-0.0653
N2300 X3.8821 Y4.2682 Z-0.0655
N2305 X3.8823 Y4.2633 Z-0.0657
N2310 X3.883 Y4.2584 Z-0.0658
N2315 X3.884 Y4.2536 Z-0.066
N2320 X3.8854 Y4.2488 Z-0.0662
N2325 X3.8872 Y4.2443 Z-0.0664
N2330 X3.8894 Y4.2398 Z-0.0665
N2335 X3.8919 Y4.2356 Z-0.0667
N2340 X3.8947 Y4.2316 Z-0.0669
N2345 X3.8979 Y4.2278 Z-0.067
N2350 X3.9013 Y4.2243 Z-0.0672
N2355 X3.9051 Y4.221 Z-0.0674
N2360 X3.909 Y4.2181 Z-0.0676
N2365 X3.9132 Y4.2155 Z-0.0677
N2370 X3.9176 Y4.2133 Z-0.0679
N2375 X3.9221 Y4.2114 Z-0.0681
N2380 X3.9268 Y4.2099 Z-0.0682
N2385 X3.9316 Y4.2088 Z-0.0684
N2390 X3.9365 Y4.208 Z-0.0686
N2395 X3.9414 Y4.2077 Z-0.0688
N2400 X3.9463 Z-0.0689
N2405 X3.9513 Y4.2082 Z-0.0691
N2410 X3.9561 Y4.209 Z-0.0693
N2415 X3.9609 Y4.2103 Z-0.0694
N2420 X3.9655 Y4.2119 Z-0.0696
N2425 X3.97 Y4.2139 Z-0.0698
N2430 X3.9744 Y4.2162 Z-0.07
N2435 X3.9785 Y4.2189 Z-0.0701
N2440 X3.9824 Y4.2219 Z-0.0703
N2445 X3.9843 Y4.2235 Z-0.0704
N2450 X3.9861 Y4.2252 Z-0.0705
N2455 X3.9895 Y4.2288 Z-0.0707
N2460 X3.9925 Y4.2326 Z-0.0708
N2465 X3.9953 Y4.2367 Z-0.071
N2470 X3.9977 Y4.241 Z-0.0712
N2475 X3.9998 Y4.2455 Z-0.0713
N2480 X4.0015 Y4.2501 Z-0.0715
N2485 X4.0028 Y4.2549 Z-0.0717
N2490 X4.0037 Y4.2597 Z-0.0719
N2495 X4.0042 Y4.2646 Z-0.072
N2500 X4.0044 Y4.2695 Z-0.0722
N2505 X4.0041 Y4.2744 Z-0.0724
N2510 X4.0035 Y4.2793 Z-0.0725
N2515 X4.0024 Y4.2841 Z-0.0727
N2520 X4.001 Y4.2889 Z-0.0729
N2525 X3.9992 Y4.2934 Z-0.0731
N2530 X3.9971 Y4.2979 Z-0.0732
N2535 X3.9945 Y4.3021 Z-0.0734
N2540 X3.9917 Y4.3061 Z-0.0736
N2545 X3.9885 Y4.3099 Z-0.0737
N2550 X3.9851 Y4.3134 Z-0.0739
N2555 X3.9814 Y4.3166 Z-0.0741
N2560 X3.9774 Y4.3196 Z-0.0743
N2565 X3.9732 Y4.3221 Z-0.0744
N2570 X3.9688 Y4.3244 Z-0.0746
N2575 X3.9643 Y4.3263 Z-0.0748
N2580 X3.9596 Y4.3278 Z-0.0749
N2585 X3.9548 Y4.3289 Z-0.0751
N2590 X3.9499 Y4.3296 Z-0.0753
N2595 X3.945 Y4.33 Z-0.0755
N2600 X3.9401 Y4.3299 Z-0.0756
N2605 X3.9352 Y4.3295 Z-0.0758
N2610 X3.9303 Y4.3286 Z-0.076
N2615 X3.9256 Y4.3274 Z-0.0762
N2620 X3.9209 Y4.3258 Z-0.0763
N2625 X3.9164 Y4.3238 Z-0.0765
N2630 X3.9121 Y4.3215 Z-0.0767
N2635 X3.9079 Y4.3188 Z-0.0768
N2640 X3.904 Y4.3158 Z-0.077
N2645 X3.9004 Y4.3125 Z-0.0772
N2650 X3.897 Y4.3089 Z-0.0774
N2655 X3.8939 Y4.305 Z-0.0775
N2660 X3.8912 Y4.301 Z-0.0777
N2665 X3.8888 Y4.2967 Z-0.0779
N2670 X3.8867 Y4.2922 Z-0.078
N2675 X3.885 Y4.2876 Z-0.0782
N2680 X3.8837 Y4.2828 Z-0.0784
N2685 X3.8827 Y4.278 Z-0.0786
N2690 X3.8822 Y4.2728 Z-0.0787
N2695 Y4.2726
N2700 X3.8821 Y4.2714 Z-0.0788
N2705 Y4.2701
N2710 Y4.2677 Z-0.0789
N2715 X3.8823 Y4.2628 Z-0.0791
N2720 X3.883 Y4.2579 Z-0.0793
N2725 X3.8841 Y4.2531 Z-0.0794
N2730 X3.8856 Y4.2484 Z-0.0796
N2735 X3.8874 Y4.2438 Z-0.0798
N2740 X3.8896 Y4.2394 Z-0.0799
N2745 X3.8921 Y4.2352 Z-0.0801
N2750 X3.895 Y4.2312 Z-0.0803
N2755 X3.8982 Y4.2274 Z-0.0805
N2760 X3.9017 Y4.2239 Z-0.0806
N2765 X3.9054 Y4.2207 Z-0.0808
N2770 X3.9094 Y4.2178 Z-0.081
N2775 X3.9136 Y4.2153 Z-0.0811
N2780 X3.9181 Y4.2131 Z-0.0813
N2785 X3.9226 Y4.2112 Z-0.0815
N2790 X3.9273 Y4.2098 Z-0.0817
N2795 X3.9321 Y4.2087 Z-0.0818
N2800 X3.937 Y4.208 Z-0.082
N2805 X3.9419 Y4.2077 Z-0.0822
N2810 X3.9469 Y4.2078 Z-0.0823
N2815 X3.9493 Y4.208 Z-0.0824
N2820 X3.9518 Y4.2083 Z-0.0825
N2825 X3.9566 Y4.2091 Z-0.0827
N2830 X3.9614 Y4.2104 Z-0.0829
N2835 X3.966 Y4.2121 Z-0.083
N2840 X3.9705 Y4.2141 Z-0.0832
N2845 X3.9748 Y4.2165 Z-0.0834
N2850 X3.9789 Y4.2192 Z-0.0836
N2855 X3.9828 Y4.2222 Z-0.0837
N2860 X3.9864 Y4.2255 Z-0.0839
N2865 X3.9898 Y4.2292 Z-0.0841
N2870 X3.9928 Y4.233 Z-0.0842
N2875 X3.9955 Y4.2371 Z-0.0844
N2880 X3.9979 Y4.2415 Z-0.0846
N2885 X3.9999 Y4.246 Z-0.0848
N2890 X4.0016 Y4.2506 Z-0.0849
N2895 X4.0029 Y4.2554 Z-0.0851
N2900 X4.0038 Y4.2602 Z-0.0853
N2905 X4.0043 Y4.2651 Z-0.0854
N2910 X4.0044 Y4.27 Z-0.0856
N2915 X4.0041 Y4.2749 Z-0.0858
N2920 X4.0034 Y4.2798 Z-0.086
N2925 X4.0029 Y4.2822
N2930 X4.0023 Y4.2846 Z-0.0861
N2935 X4.0008 Y4.2893 Z-0.0863
N2940 X3.999 Y4.2939 Z-0.0865
N2945 X3.9968 Y4.2983 Z-0.0866
N2950 X3.9956 Y4.3005 Z-0.0867
N2955 X3.9943 Y4.3025 Z-0.0868
N2960 X3.9914 Y4.3065 Z-0.087
N2965 X3.9882 Y4.3103 Z-0.0872
N2970 X3.9847 Y4.3138 Z-0.0873
N2975 X3.981 Y4.317 Z-0.0875
N2980 X3.977 Y4.3198 Z-0.0877
N2985 X3.9728 Y4.3224 Z-0.0878
N2990 X3.9683 Y4.3246 Z-0.088
N2995 X3.9638 Y4.3264 Z-0.0882
N3000 X3.9591 Y4.3279 Z-0.0884
N3005 X3.9543 Y4.329 Z-0.0885
N3010 X3.9494 Y4.3297 Z-0.0887
N3015 X3.9445 Y4.33 Z-0.0889
N3020 X3.9396 Y4.3299 Z-0.0891
N3025 X3.9347 Y4.3294 Z-0.0892
N3030 X3.9298 Y4.3285 Z-0.0894
N3035 X3.9251 Y4.3272 Z-0.0896
N3040 X3.9204 Y4.3256 Z-0.0897
N3045 X3.9159 Y4.3236 Z-0.0899
N3050 X3.9116 Y4.3212 Z-0.0901
N3055 X3.9075 Y4.3185 Z-0.0903
N3060 X3.9036 Y4.3155 Z-0.0904
N3065 X3.9 Y4.3121 Z-0.0906
N3070 X3.8967 Y4.3085 Z-0.0908
N3075 X3.8936 Y4.3046 Z-0.0909
N3080 X3.8909 Y4.3005 Z-0.0911
N3085 X3.8885 Y4.2962 Z-0.0913
N3090 X3.8875 Y4.294 Z-0.0914
N3095 X3.8865 Y4.2917 Z-0.0915
N3100 X3.8856 Y4.2894
N3105 X3.8848 Y4.2871 Z-0.0916
N3110 X3.8842 Y4.2847 Z-0.0917
N3115 X3.8836 Y4.2823 Z-0.0918
N3120 X3.8827 Y4.2775 Z-0.092
N3125 X3.8824 Y4.275 Z-0.0921
N3130 X3.8822 Y4.2726
N3135 X3.8821 Y4.2701 Z-0.0922
N3140 Y4.2677 Z-0.0923
N3145 X3.8822 Y4.2652 Z-0.0924
N3150 X3.8824 Y4.2628 Z-0.0925
N3155 X3.8827 Y4.2603 Z-0.0926
N3160 X3.883 Y4.2579 Z-0.0927
N3165 X3.8841 Y4.2531 Z-0.0928
N3170 X3.8848 Y4.2507 Z-0.0929
N3175 X3.8856 Y4.2484 Z-0.093
N3180 X3.8865 Y4.2461 Z-0.0931
N3185 X3.8874 Y4.2438 Z-0.0932
N3190 X3.8885 Y4.2416 Z-0.0933
N3195 X3.8896 Y4.2394
N3200 X3.8909 Y4.2373 Z-0.0934
N3205 X3.8922 Y4.2352 Z-0.0935
N3210 X3.8951 Y4.2312 Z-0.0937
N3215 X3.8966 Y4.2293 Z-0.0938
N3220 X3.8982 Y4.2274 Z-0.0939
N3225 X3.9 Y4.2257
N3230 X3.9017 Y4.224 Z-0.094
N3235 X3.9036 Y4.2223 Z-0.0941
N3240 X3.9055 Y4.2208 Z-0.0942
N3245 X3.9095 Y4.2179 Z-0.0944
N3250 X3.9115 Y4.2166 Z-0.0945
N3255 X3.9137 Y4.2153
N3260 X3.9159 Y4.2142 Z-0.0946
N3265 X3.9181 Y4.2131 Z-0.0947
N3270 X3.9203 Y4.2122 Z-0.0948
N3275 X3.9226 Y4.2113 Z-0.0949
N3280 X3.925 Y4.2105 Z-0.095
N3285 X3.9273 Y4.2098 Z-0.0951
N3290 X3.9321 Y4.2087 Z-0.0952
N3295 X3.9346 Y4.2084 Z-0.0953
N3300 X3.937 Y4.2081 Z-0.0954
N3305 X3.9395 Y4.2079 Z-0.0955
N3310 X3.9419 Y4.2078 Z-0.0956
N3315 X3.9444 Z-0.0957
N3320 X3.9468 Y4.2079
N3325 X3.9493 Y4.2081 Z-0.0958
N3330 X3.9517 Y4.2084 Z-0.0959
N3335 X3.9566 Y4.2092 Z-0.0961
N3340 X3.959 Y4.2098 Z-0.0962
N3345 X3.9613 Y4.2105 Z-0.0963
N3350 X3.9637 Y4.2113
N3355 X3.966 Y4.2122 Z-0.0964
N3360 X3.9682 Y4.2131 Z-0.0965
N3365 X3.9704 Y4.2142 Z-0.0966
N3370 X3.9726 Y4.2153 Z-0.0967
N3375 X3.9748 Y4.2165 Z-0.0968
N3380 X3.9789 Y4.2193 Z-0.0969
N3385 X3.9808 Y4.2207 Z-0.097
N3390 X3.9827 Y4.2223 Z-0.0971
N3395 X3.9846 Y4.2239 Z-0.0972
N3400 X3.9863 Y4.2256 Z-0.0973
N3405 X3.988 Y4.2274 Z-0.0974
N3410 X3.9897 Y4.2292 Z-0.0975
N3415 X3.9912 Y4.2311
N3420 X3.9927 Y4.2331 Z-0.0976
N3425 X3.9954 Y4.2372 Z-0.0978
N3430 X3.9967 Y4.2393 Z-0.0979
N3435 X3.9978 Y4.2415 Z-0.098
N3440 X3.9989 Y4.2437 Z-0.0981
N3445 X3.9998 Y4.246
N3450 X4.0007 Y4.2483 Z-0.0982
N3455 X4.0015 Y4.2506 Z-0.0983
N3460 X4.0022 Y4.253 Z-0.0984
N3465 X4.0028 Y4.2554 Z-0.0985
N3470 X4.0036 Y4.2602 Z-0.0987
N3475 X4.0039 Y4.2627
N3480 X4.0041 Y4.2651 Z-0.0988
N3485 X4.0042 Y4.2676 Z-0.0989
N3490 Y4.27 Z-0.099
N3495 X4.0039 Y4.2749 Z-0.0992
N3500 X4.0032 Y4.2798 Z-0.0993
N3505 X4.0022 Y4.2846 Z-0.0995
N3510 X4.0014 Y4.2869 Z-0.0996
N3515 X4.0007 Y4.2893 Z-0.0997
N3520 X3.9988 Y4.2938 Z-0.0999
N3525 X3.9966 Y4.2982 Z-0.1
N3530 X3.9955 Y4.3004 Z-0.1001
N3535 X3.9941 Y4.3025 Z-0.1002
N3540 X3.9913 Y4.3064 Z-0.1004
N3545 X3.9897 Y4.3083 Z-0.1005
N3550 X3.9881 Y4.3102
N3555 X3.9864 Y4.312 Z-0.1006
N3560 X3.9846 Y4.3137 Z-0.1007
N3565 X3.9828 Y4.3153 Z-0.1008
N3570 X3.9809 Y4.3168 Z-0.1009
N3575 X3.9789 Y4.3183 Z-0.101
N3580 X3.9769 Y4.3197 Z-0.1011
N3585 X3.9727 Y4.3223 Z-0.1012
N3590 X3.9705 Y4.3234 Z-0.1013
N3595 X3.9683 Y4.3245 Z-0.1014
N3600 X3.966 Y4.3254 Z-0.1015
N3605 X3.9637 Y4.3263 Z-0.1016
N3610 X3.9614 Y4.3271 Z-0.1017
N3615 X3.959 Y4.3278
N3620 X3.9542 Y4.3288 Z-0.1019
N3625 X3.9518 Y4.3292 Z-0.102
N3630 X3.9494 Y4.3295 Z-0.1021
N3635 X3.9469 Y4.3297 Z-0.1022
N3640 X3.9445 Y4.3298 Z-0.1023
N3645 X3.942
N3650 X3.9396 Y4.3297 Z-0.1024
N3655 X3.9371 Y4.3295 Z-0.1025
N3660 X3.9347 Y4.3292 Z-0.1026
N3665 X3.9299 Y4.3284 Z-0.1028
N3670 X3.9275 Y4.3278 Z-0.1029
N3675 X3.9251 Y4.3271
N3680 X3.9228 Y4.3263 Z-0.103
N3685 X3.9205 Y4.3254 Z-0.1031
N3690 X3.9182 Y4.3245 Z-0.1032
N3695 X3.916 Y4.3234 Z-0.1033
N3700 X3.9138 Y4.3223 Z-0.1034
N3705 X3.9117 Y4.321 Z-0.1035
N3710 X3.9076 Y4.3183 Z-0.1036
N3715 X3.9057 Y4.3169 Z-0.1037
N3720 X3.9038 Y4.3153 Z-0.1038
N3725 X3.9019 Y4.3137 Z-0.1039
N3730 X3.9001 Y4.312 Z-0.104
N3735 X3.8984 Y4.3102 Z-0.1041
N3740 X3.8968 Y4.3084
N3745 X3.8953 Y4.3065 Z-0.1042
N3750 X3.8938 Y4.3045 Z-0.1043
N3755 X3.8911 Y4.3004 Z-0.1045
N3760 X3.8899 Y4.2983 Z-0.1046
N3765 X3.8887 Y4.2961 Z-0.1047
N3770 X3.8877 Y4.2939
N3775 X3.8867 Y4.2916 Z-0.1048
N3780 X3.8858 Y4.2894 Z-0.1049
N3785 X3.8851 Y4.287 Z-0.105
N3790 X3.8844 Y4.2847 Z-0.1051
N3795 X3.8838 Y4.2823 Z-0.1052
N3800 X3.8829 Y4.2775 Z-0.1053
N3805 X3.8826 Y4.275 Z-0.1054
N3810 X3.8824 Y4.2726 Z-0.1055
N3815 X3.8823 Y4.2701 Z-0.1056
N3820 Y4.2677 Z-0.1057
N3825 X3.8824 Y4.2652 Z-0.1058
N3830 X3.8826 Y4.2628
N3835 X3.8829 Y4.2603 Z-0.1059
N3840 X3.8833 Y4.2579 Z-0.106
N3845 X3.8844 Y4.2531 Z-0.1062
N3850 X3.885 Y4.2508 Z-0.1063
N3855 X3.8858 Y4.2485 Z-0.1064
N3860 X3.8867 Y4.2462
N3865 X3.8877 Y4.2439 Z-0.1065
N3870 X3.8887 Y4.2417 Z-0.1066
N3875 X3.8898 Y4.2395 Z-0.1067
N3880 X3.8911 Y4.2374 Z-0.1068
N3885 X3.8924 Y4.2353 Z-0.1069
N3890 X3.8952 Y4.2313 Z-0.107
N3895 X3.8968 Y4.2294 Z-0.1071
N3900 X3.8984 Y4.2276 Z-0.1072
N3905 X3.9001 Y4.2258 Z-0.1073
N3910 X3.9019 Y4.2241 Z-0.1074
N3915 X3.9037 Y4.2225 Z-0.1075
N3920 X3.9056 Y4.221 Z-0.1076
N3925 X3.9096 Y4.2181 Z-0.1077
N3930 X3.9117 Y4.2168 Z-0.1078
N3935 X3.9138 Y4.2155 Z-0.1079
N3940 X3.916 Y4.2144 Z-0.108
N3945 X3.9182 Y4.2134 Z-0.1081
N3950 X3.9204 Y4.2124 Z-0.1082
N3955 X3.9227 Y4.2115
N3960 X3.925 Y4.2107 Z-0.1083
N3965 X3.9274 Y4.2101 Z-0.1084
N3970 X3.9322 Y4.209 Z-0.1086
N3975 X3.9346 Y4.2086 Z-0.1087
N3980 X3.937 Y4.2083 Z-0.1088
N3985 X3.9395 Y4.2081
N3990 X3.9419 Y4.208 Z-0.1089
N3995 X3.9444 Z-0.109
N4000 X3.9468 Y4.2081 Z-0.1091
N4005 X3.9493 Y4.2083 Z-0.1092
N4010 X3.9517 Y4.2086 Z-0.1093
N4015 X3.9565 Y4.2095 Z-0.1094
N4020 X3.9589 Y4.2101 Z-0.1095
N4025 X3.9613 Y4.2107 Z-0.1096
N4030 X3.9636 Y4.2115 Z-0.1097
N4035 X3.9659 Y4.2124 Z-0.1098
N4040 X3.9681 Y4.2133 Z-0.1099
N4045 X3.9703 Y4.2144 Z-0.11
N4050 X3.9725 Y4.2155
N4055 X3.9746 Y4.2167 Z-0.1101
N4060 X3.9787 Y4.2194 Z-0.1103
N4065 X3.9807 Y4.2209 Z-0.1104
N4070 X3.9826 Y4.2225 Z-0.1105
N4075 X3.9844 Y4.2241 Z-0.1106
N4080 X3.9862 Y4.2258
N4085 X3.9879 Y4.2276 Z-0.1107
N4090 X3.9895 Y4.2294 Z-0.1108
N4095 X3.9911 Y4.2313 Z-0.1109
N4100 X3.9925 Y4.2332 Z-0.111
N4105 X3.9952 Y4.2373 Z-0.1112
N4110 X3.9965 Y4.2395
N4115 X3.9976 Y4.2416 Z-0.1113
N4120 X3.9986 Y4.2438 Z-0.1114
N4125 X3.9996 Y4.2461 Z-0.1115
N4130 X4.0005 Y4.2484 Z-0.1116
N4135 X4.0013 Y4.2507 Z-0.1117
N4140 X4.0019 Y4.253
N4145 X4.0025 Y4.2554 Z-0.1118
N4150 X4.0034 Y4.2602 Z-0.112
N4155 X4.0037 Y4.2627 Z-0.1121
N4160 X4.0039 Y4.2651 Z-0.1122
N4165 X4.004 Y4.2676 Z-0.1123
N4170 Y4.27
N4175 X4.0037 Y4.2749 Z-0.1125
N4180 X4.003 Y4.2798 Z-0.1127
N4185 X4.0019 Y4.2845 Z-0.1129
N4190 X4.0012 Y4.2869
N4195 X4.0005 Y4.2892 Z-0.113
N4200 X3.9986 Y4.2937 Z-0.1132
N4205 X3.9964 Y4.2981 Z-0.1134
N4210 X3.9953 Y4.3003 Z-0.1135
N4215 X3.9939 Y4.3023
N4220 X3.9911 Y4.3063 Z-0.1137
N4225 X3.9895 Y4.3082 Z-0.1138
N4230 X3.9879 Y4.31 Z-0.1139
N4235 X3.9862 Y4.3118 Z-0.114
N4240 X3.9844 Y4.3135 Z-0.1141
N4245 X3.9826 Y4.3151
N4250 X3.9807 Y4.3167 Z-0.1142
N4255 X3.9788 Y4.3181 Z-0.1143
N4260 X3.9768 Y4.3195 Z-0.1144
N4265 X3.9726 Y4.3221 Z-0.1146
N4270 X3.9704 Y4.3232 Z-0.1147
N4275 X3.9682 Y4.3242
N4280 X3.9659 Y4.3252 Z-0.1148
N4285 X3.9636 Y4.3261 Z-0.1149
N4290 X3.9613 Y4.3268 Z-0.115
N4295 X3.959 Y4.3275 Z-0.1151
N4300 X3.9542 Y4.3286 Z-0.1153
N4305 X3.9518 Y4.329
N4310 X3.9494 Y4.3293 Z-0.1154
N4315 X3.9469 Y4.3295 Z-0.1155
N4320 X3.9445 Y4.3296 Z-0.1156
N4325 X3.942 Z-0.1157
N4330 X3.9396 Y4.3295 Z-0.1158
N4335 X3.9372 Y4.3293
N4340 X3.9347 Y4.329 Z-0.1159
N4345 X3.9299 Y4.3281 Z-0.1161
N4350 X3.9275 Y4.3275 Z-0.1162
N4355 X3.9252 Y4.3269 Z-0.1163
N4360 X3.9229 Y4.3261 Z-0.1164
N4365 X3.9206 Y4.3252
N4370 X3.9183 Y4.3242 Z-0.1165
N4375 X3.9161 Y4.3232 Z-0.1166
N4380 X3.914 Y4.3221 Z-0.1167
N4385 X3.9118 Y4.3208 Z-0.1168
N4390 X3.9078 Y4.3182 Z-0.117
N4395 X3.9058 Y4.3167
N4400 X3.9039 Y4.3151 Z-0.1171
N4405 X3.9021 Y4.3135 Z-0.1172
N4410 X3.9003 Y4.3118 Z-0.1173
N4415 X3.8986 Y4.3101 Z-0.1174
N4420 X3.897 Y4.3082 Z-0.1175
N4425 X3.8954 Y4.3063 Z-0.1176
N4430 X3.894 Y4.3044
N4435 X3.8913 Y4.3003 Z-0.1178
N4440 X3.8902 Y4.2985 Z-0.1179
N4445 X3.8892 Y4.2966 Z-0.118
N4450 X3.8883 Y4.2947
N4455 X3.8874 Y4.2928 Z-0.1181
N4460 X3.8873 Y4.2926
N4465 X3.8864 Y4.2902 Z-0.1182
N4470 X3.8856 Y4.2879 Z-0.1183
N4475 X3.8848 Y4.2855 Z-0.1184
N4480 X3.8842 Y4.2831 Z-0.1185
N4485 X3.8837 Y4.2806
N4490 X3.8832 Y4.2781 Z-0.1186
N4495 X3.8829 Y4.2756 Z-0.1187
N4500 X3.8827 Y4.2731 Z-0.1188
N4505 X3.8825 Y4.2706 Z-0.1189
N4510 Y4.2681 Z-0.119
N4515 X3.8826 Y4.2656 Z-0.1191
N4520 X3.8828 Y4.2631 Z-0.1192
N4525 X3.8835 Y4.2582 Z-0.1193
N4530 X3.884 Y4.2557 Z-0.1194
N4535 X3.8846 Y4.2533 Z-0.1195
N4540 X3.8853 Y4.2509 Z-0.1196
N4545 X3.8861 Y4.2485 Z-0.1197
N4550 X3.8869 Y4.2461 Z-0.1198
N4555 X3.8879 Y4.2438 Z-0.1199
N4560 X3.889 Y4.2416
N4565 X3.8902 Y4.2394 Z-0.12
N4570 X3.8915 Y4.2372 Z-0.1201
N4575 X3.8928 Y4.2351 Z-0.1202
N4580 X3.8942 Y4.233 Z-0.1203
N4585 X3.8958 Y4.231 Z-0.1204
N4590 X3.8991 Y4.2272 Z-0.1206
N4595 X3.9008 Y4.2255
N4600 X3.9026 Y4.2238 Z-0.1207
N4605 X3.9045 Y4.2221 Z-0.1208
N4610 X3.9065 Y4.2206 Z-0.1209
N4615 X3.9085 Y4.2191 Z-0.121
N4620 X3.9106 Y4.2177 Z-0.1211
N4625 X3.9128 Y4.2164 Z-0.1212
N4630 X3.915 Y4.2152 Z-0.1213
N4635 X3.9172 Y4.2141
N4640 X3.9195 Y4.213 Z-0.1214
N4645 X3.9242 Y4.2113 Z-0.1216
N4650 X3.9266 Y4.2105 Z-0.1217
N4655 X3.929 Y4.2099 Z-0.1218
N4660 X3.9315 Y4.2094 Z-0.1219
N4665 X3.9339 Y4.2089 Z-0.122
N4670 X3.9364 Y4.2086
N4675 X3.9389 Y4.2084 Z-0.1221
N4680 X3.9414 Y4.2082 Z-0.1222
N4685 X3.9439 Z-0.1223
N4690 X3.9464 Y4.2083 Z-0.1224
N4695 X3.9489 Y4.2085 Z-0.1225
N4700 X3.9539 Y4.2092 Z-0.1227
N4705 X3.9563 Y4.2097
N4710 X3.9588 Y4.2103 Z-0.1228
N4715 X3.9612 Y4.211 Z-0.1229
N4720 X3.9636 Y4.2118 Z-0.123
N4725 X3.9659 Y4.2126 Z-0.1231
N4730 X3.9682 Y4.2136 Z-0.1232
N4735 X3.9705 Y4.2147 Z-0.1233
N4740 X3.9727 Y4.2159 Z-0.1234
N4745 X3.9748 Y4.2171
N4750 X3.9769 Y4.2185 Z-0.1235
N4755 X3.979 Y4.2199 Z-0.1236
N4760 X3.981 Y4.2215 Z-0.1237
N4765 X3.9848 Y4.2247 Z-0.1239
N4770 X3.9866 Y4.2265 Z-0.124
N4775 X3.9883 Y4.2283 Z-0.1241
N4780 X3.9899 Y4.2302
N4785 X3.9915 Y4.2322 Z-0.1242
N4790 X3.9929 Y4.2342 Z-0.1243
N4795 X3.9943 Y4.2363 Z-0.1244
N4800 X3.9956 Y4.2384 Z-0.1245
N4805 X3.9968 Y4.2406 Z-0.1246
N4810 X3.9979 Y4.2429 Z-0.1247
N4815 X3.999 Y4.2451 Z-0.1248
N4820 X4.0007 Y4.2498 Z-0.1249
N4825 X4.0015 Y4.2522 Z-0.125
N4830 X4.0021 Y4.2547 Z-0.1251
N4835 X4.0026 Y4.2571 Z-0.1252
N4840 X4.0031 Y4.2596 Z-0.1253
N4845 X4.0034 Y4.2621 Z-0.1254
N4850 X4.0036 Y4.2645 Z-0.1255
N4855 X4.0038 Y4.267
N4860 Y4.2696 Z-0.1256
N4865 X4.0035 Y4.2746 Z-0.1258
N4870 X4.0028 Y4.2795 Z-0.126
N4875 X4.0017 Y4.2844 Z-0.1262
N4880 X4.001 Y4.2868
N4885 X4.0002 Y4.2892 Z-0.1263
N4890 X3.9983 Y4.2938 Z-0.1265
N4895 X3.9961 Y4.2983 Z-0.1267
N4900 X3.9949 Y4.3005 Z-0.1268
N4905 X3.9935 Y4.3026 Z-0.1269
N4910 X3.9921 Y4.3046
N4915 X3.9905 Y4.3066 Z-0.127
N4920 X3.9873 Y4.3104 Z-0.1272
N4925 X3.9855 Y4.3122 Z-0.1273
N4930 X3.9837 Y4.3139 Z-0.1274
N4935 X3.9818 Y4.3155 Z-0.1275
N4940 X3.9798 Y4.3171
N4945 X3.9778 Y4.3185 Z-0.1276
N4950 X3.9757 Y4.3199 Z-0.1277
N4955 X3.9736 Y4.3212 Z-0.1278
N4960 X3.9714 Y4.3224 Z-0.1279
N4965 X3.9692 Y4.3235 Z-0.128
N4970 X3.9669 Y4.3246 Z-0.1281
N4975 X3.9622 Y4.3263 Z-0.1282
N4980 X3.9598 Y4.3271 Z-0.1283
N4985 X3.9574 Y4.3277 Z-0.1284
N4990 X3.9549 Y4.3282 Z-0.1285
N4995 X3.9525 Y4.3287 Z-0.1286
N5000 X3.95 Y4.329 Z-0.1287
N5005 X3.9475 Y4.3292 Z-0.1288
N5010 X3.945 Y4.3293 Z-0.1289
N5015 X3.9425 Y4.3294
N5020 X3.94 Y4.3293 Z-0.129
N5025 X3.9375 Y4.3291 Z-0.1291
N5030 X3.9326 Y4.3284 Z-0.1293
N5035 X3.9301 Y4.3279 Z-0.1294
N5040 X3.9277 Y4.3273 Z-0.1295
N5045 X3.9253 Y4.3266 Z-0.1296
N5050 X3.9229 Y4.3258
N5055 X3.9206 Y4.3249 Z-0.1297
N5060 X3.9183 Y4.324 Z-0.1298
N5065 X3.916 Y4.3229 Z-0.1299
N5070 X3.9138 Y4.3217 Z-0.13
N5075 X3.9116 Y4.3205 Z-0.1301
N5080 X3.9095 Y4.3191 Z-0.1302
N5085 X3.9075 Y4.3177 Z-0.1303
N5090 X3.9055 Y4.3162
N5095 X3.9017 Y4.3129 Z-0.1305
N5100 X3.8999 Y4.3111 Z-0.1306
N5105 X3.8982 Y4.3093 Z-0.1307
N5110 X3.8966 Y4.3074 Z-0.1308
N5115 X3.895 Y4.3054 Z-0.1309
N5120 X3.8936 Y4.3034 Z-0.131
N5125 X3.8922 Y4.3013
N5130 X3.8909 Y4.2992 Z-0.1311
N5135 X3.8897 Y4.297 Z-0.1312
N5140 X3.8886 Y4.2948 Z-0.1313
N5145 X3.8875 Y4.2925 Z-0.1314
N5150 X3.8858 Y4.2878 Z-0.1316
N5155 X3.8851 Y4.2854 Z-0.1317
N5160 X3.8844 Y4.283
N5165 X3.8839 Y4.2806 Z-0.1318
N5170 X3.8835 Y4.2781 Z-0.1319
N5175 X3.8831 Y4.2756 Z-0.132
N5180 X3.8829 Y4.2731 Z-0.1321
N5185 X3.8828 Y4.2706 Z-0.1322
N5190 Y4.2681 Z-0.1323
N5195 Y4.2656
N5200 X3.883 Y4.2632 Z-0.1324
N5205 X3.8837 Y4.2582 Z-0.1326
N5210 X3.8842 Y4.2558 Z-0.1327
N5215 X3.8848 Y4.2533 Z-0.1328
N5220 X3.8855 Y4.2509 Z-0.1329
N5225 X3.8863 Y4.2486 Z-0.133
N5230 X3.8872 Y4.2462
N5235 X3.8882 Y4.2439 Z-0.1331
N5240 X3.8892 Y4.2417 Z-0.1332
N5245 X3.8904 Y4.2395 Z-0.1333
N5250 X3.8917 Y4.2373 Z-0.1334
N5255 X3.893 Y4.2352 Z-0.1335
N5260 X3.8944 Y4.2332 Z-0.1336
N5265 X3.896 Y4.2312 Z-0.1337
N5270 X3.8992 Y4.2274 Z-0.1338
N5275 X3.901 Y4.2256 Z-0.1339
N5280 X3.9028 Y4.2239 Z-0.134
N5285 X3.9047 Y4.2223 Z-0.1341
N5290 X3.9067 Y4.2207 Z-0.1342
N5295 X3.9087 Y4.2193 Z-0.1343
N5300 X3.9108 Y4.2179 Z-0.1344
N5305 X3.9129 Y4.2166
N5310 X3.9151 Y4.2154 Z-0.1345
N5315 X3.9173 Y4.2143 Z-0.1346
N5320 X3.9196 Y4.2132 Z-0.1347
N5325 X3.9243 Y4.2115 Z-0.1349
N5330 X3.9267 Y4.2107 Z-0.135
N5335 X3.9291 Y4.2101
N5340 X3.9315 Y4.2096 Z-0.1351
N5345 X3.934 Y4.2092 Z-0.1352
N5350 X3.9364 Y4.2088 Z-0.1353
N5355 X3.9389 Y4.2086 Z-0.1354
N5360 X3.9414 Y4.2085 Z-0.1355
N5365 X3.9439 Z-0.1356
N5370 X3.9464 Z-0.1357
N5375 X3.9489 Y4.2087
N5380 X3.9538 Y4.2094 Z-0.1359
N5385 X3.9563 Y4.2099 Z-0.136
N5390 X3.9587 Y4.2105 Z-0.1361
N5395 X3.9611 Y4.2112 Z-0.1362
N5400 X3.9635 Y4.212 Z-0.1363
N5405 X3.9658 Y4.2129 Z-0.1364
N5410 X3.9681 Y4.2138
N5415 X3.9704 Y4.2149 Z-0.1365
N5420 X3.9726 Y4.2161 Z-0.1366
N5425 X3.9747 Y4.2173 Z-0.1367
N5430 X3.9768 Y4.2187 Z-0.1368
N5435 X3.9789 Y4.2201 Z-0.1369
N5440 X3.9809 Y4.2216 Z-0.137
N5445 X3.9846 Y4.2249 Z-0.1371
N5450 X3.9864 Y4.2267 Z-0.1372
N5455 X3.9881 Y4.2285 Z-0.1373
N5460 X3.9897 Y4.2304 Z-0.1374
N5465 X3.9913 Y4.2323 Z-0.1375
N5470 X3.9927 Y4.2343 Z-0.1376
N5475 X3.9941 Y4.2364 Z-0.1377
N5480 X3.9954 Y4.2386
N5485 X3.9966 Y4.2407 Z-0.1378
N5490 X3.9977 Y4.243 Z-0.1379
N5495 X3.9988 Y4.2452 Z-0.138
N5500 X4.0005 Y4.2499 Z-0.1382
N5505 X4.0013 Y4.2523 Z-0.1383
N5510 X4.0019 Y4.2547 Z-0.1384
N5515 X4.0024 Y4.2572
N5520 X4.0028 Y4.2596 Z-0.1385
N5525 X4.0032 Y4.2621 Z-0.1386
N5530 X4.0034 Y4.2646 Z-0.1387
N5535 X4.0035 Y4.2671 Z-0.1388
N5540 Y4.2696 Z-0.1389
N5545 X4.0032 Y4.2745 Z-0.1391
N5550 X4.0026 Y4.2795 Z-0.1392
N5555 X4.0015 Y4.2843 Z-0.1394
N5560 X4.0008 Y4.2867 Z-0.1395
N5565 X4. Y4.2891 Z-0.1396
N5570 X3.9981 Y4.2937 Z-0.1397
N5575 X3.9959 Y4.2982 Z-0.1399
N5580 X3.9946 Y4.3003 Z-0.14
N5585 X3.9933 Y4.3024 Z-0.1401
N5590 X3.9919 Y4.3045 Z-0.1402
N5595 X3.9904 Y4.3065 Z-0.1403
N5600 X3.9871 Y4.3102 Z-0.1404
N5605 X3.9853 Y4.312 Z-0.1405
N5610 X3.9835 Y4.3137 Z-0.1406
N5615 X3.9816 Y4.3153 Z-0.1407
N5620 X3.9797 Y4.3169 Z-0.1408
N5625 X3.9777 Y4.3183 Z-0.1409
N5630 X3.9756 Y4.3197 Z-0.141
N5635 X3.9735 Y4.321
N5640 X3.9713 Y4.3222 Z-0.1411
N5645 X3.969 Y4.3233 Z-0.1412
N5650 X3.9668 Y4.3243 Z-0.1413
N5655 X3.9621 Y4.3261 Z-0.1415
N5660 X3.9597 Y4.3268 Z-0.1416
N5665 X3.9573 Y4.3274 Z-0.1417
N5670 X3.9549 Y4.328
N5675 X3.9524 Y4.3284 Z-0.1418
N5680 X3.95 Y4.3287 Z-0.1419
N5685 X3.9475 Y4.329 Z-0.142
N5690 X3.945 Y4.3291 Z-0.1421
N5695 X3.9425 Z-0.1422
N5700 X3.94 Y4.329 Z-0.1423
N5705 X3.9375 Y4.3288 Z-0.1424
N5710 X3.9326 Y4.3282 Z-0.1425
N5715 X3.9302 Y4.3277 Z-0.1426
N5720 X3.9277 Y4.3271 Z-0.1427
N5725 X3.9253 Y4.3264 Z-0.1428
N5730 X3.923 Y4.3256 Z-0.1429
N5735 X3.9207 Y4.3247 Z-0.143
N5740 X3.9184 Y4.3237
N5745 X3.9161 Y4.3226 Z-0.1431
N5750 X3.9139 Y4.3215 Z-0.1432
N5755 X3.9118 Y4.3202 Z-0.1433
N5760 X3.9097 Y4.3189 Z-0.1434
N5765 X3.9076 Y4.3174 Z-0.1435
N5770 X3.9057 Y4.3159 Z-0.1436
N5775 X3.9019 Y4.3127 Z-0.1437
N5780 X3.9001 Y4.3109 Z-0.1438
N5785 X3.8984 Y4.3091 Z-0.1439
N5790 X3.8968 Y4.3072 Z-0.144
N5795 X3.8953 Y4.3053 Z-0.1441
N5800 X3.8938 Y4.3032 Z-0.1442
N5805 X3.8924 Y4.3012 Z-0.1443
N5810 X3.8911 Y4.299
N5815 X3.8899 Y4.2969 Z-0.1444
N5820 X3.8888 Y4.2946 Z-0.1445
N5825 X3.8878 Y4.2924 Z-0.1446
N5830 X3.8861 Y4.2877 Z-0.1448
N5835 X3.8853 Y4.2853 Z-0.1449
N5840 X3.8847 Y4.2829 Z-0.145
N5845 X3.8842 Y4.2805
N5850 X3.8838 Y4.2781 Z-0.1451
N5855 X3.8834 Y4.2756 Z-0.1452
N5860 X3.8832 Y4.2731 Z-0.1453
N5865 X3.8831 Y4.2706 Z-0.1454
N5870 Y4.2681 Z-0.1455
N5875 Y4.2657 Z-0.1456
N5880 X3.8833 Y4.2632
N5885 X3.884 Y4.2583 Z-0.1458
N5890 X3.8845 Y4.2558 Z-0.1459
N5895 X3.8851 Y4.2534 Z-0.146
N5900 X3.8858 Y4.251 Z-0.1461
N5905 X3.8866 Y4.2487 Z-0.1462
N5910 X3.8875 Y4.2463 Z-0.1463
N5915 X3.8884 Y4.2441
N5920 X3.8895 Y4.2418 Z-0.1464
N5925 X3.8907 Y4.2396 Z-0.1465
N5930 X3.8919 Y4.2375 Z-0.1466
N5935 X3.8933 Y4.2354 Z-0.1467
N5940 X3.8947 Y4.2333 Z-0.1468
N5945 X3.8962 Y4.2314 Z-0.1469
N5950 X3.8995 Y4.2276 Z-0.147
N5955 X3.9012 Y4.2259 Z-0.1471
N5960 X3.903 Y4.2242 Z-0.1472
N5965 X3.9049 Y4.2225 Z-0.1473
N5970 X3.9069 Y4.221 Z-0.1474
N5975 X3.9089 Y4.2195 Z-0.1475
N5980 X3.9109 Y4.2182 Z-0.1476
N5985 X3.9131 Y4.2169
N5990 X3.9152 Y4.2157 Z-0.1477
N5995 X3.9175 Y4.2146 Z-0.1478
N6000 X3.9197 Y4.2135 Z-0.1479
N6005 X3.9244 Y4.2118 Z-0.1481
N6010 X3.9267 Y4.2111 Z-0.1482
N6015 X3.9291 Y4.2104
N6020 X3.9316 Y4.2099 Z-0.1483
N6025 X3.934 Y4.2095 Z-0.1484
N6030 X3.9365 Y4.2092 Z-0.1485
N6035 X3.939 Y4.2089 Z-0.1486
N6040 X3.9414 Y4.2088 Z-0.1487
N6045 X3.9439 Z-0.1488
N6050 X3.9464 Y4.2089 Z-0.1489
N6055 X3.9489 Y4.2091
N6060 X3.9538 Y4.2097 Z-0.1491
N6065 X3.9562 Y4.2102 Z-0.1492
N6070 X3.9586 Y4.2108 Z-0.1493
N6075 X3.961 Y4.2115 Z-0.1494
N6080 X3.9634 Y4.2123 Z-0.1495
N6085 X3.9657 Y4.2132
N6090 X3.968 Y4.2142 Z-0.1496
N6095 X3.9702 Y4.2152 Z-0.1497
N6100 X3.9724 Y4.2164 Z-0.1498
N6105 X3.9745 Y4.2176 Z-0.1499
N6110 X3.9766 Y4.219 Z-0.15
N6115 X3.9787 Y4.2204 Z-0.1501
N6120 X3.9806 Y4.2219 Z-0.1502
N6125 X3.9844 Y4.2252 Z-0.1503
N6130 X3.9861 Y4.2269 Z-0.1504
N6135 X3.9878 Y4.2287 Z-0.1505
N6140 X3.9894 Y4.2306 Z-0.1506
N6145 X3.991 Y4.2325 Z-0.1507
N6150 X3.9924 Y4.2346 Z-0.1508
N6155 X3.9938 Y4.2366
N6160 X3.9951 Y4.2387 Z-0.1509
N6165 X3.9963 Y4.2409 Z-0.151
N6170 X3.9974 Y4.2431 Z-0.1511
N6175 X3.9984 Y4.2454 Z-0.1512
N6180 X4.0002 Y4.25 Z-0.1514
N6185 X4.0009 Y4.2524 Z-0.1515
N6190 X4.0015 Y4.2548
N6195 X4.0021 Y4.2572 Z-0.1516
N6200 X4.0025 Y4.2597 Z-0.1517
N6205 X4.0028 Y4.2621 Z-0.1518
N6210 X4.003 Y4.2646 Z-0.1519
N6215 X4.0032 Y4.2671 Z-0.152
N6220 X4.0031 Y4.2695 Z-0.1521
N6225 X4.0029 Y4.2745 Z-0.1522
N6230 X4.0022 Y4.2794 Z-0.1524
N6235 X4.0011 Y4.2842 Z-0.1526
N6240 X4.0004 Y4.2866 Z-0.1527
N6245 X3.9997 Y4.289
N6250 X3.9978 Y4.2936 Z-0.1529
N6255 X3.9955 Y4.298 Z-0.1531
N6260 X3.9943 Y4.3001 Z-0.1532
N6265 X3.993 Y4.3022 Z-0.1533
N6270 X3.9916 Y4.3043 Z-0.1534
N6275 X3.9901 Y4.3062
N6280 X3.9868 Y4.31 Z-0.1536
N6285 X3.9851 Y4.3117 Z-0.1537
N6290 X3.9833 Y4.3134 Z-0.1538
N6295 X3.9814 Y4.315 Z-0.1539
N6300 X3.9794 Y4.3166 Z-0.154
N6305 X3.9774 Y4.318
N6310 X3.9754 Y4.3194 Z-0.1541
N6315 X3.9733 Y4.3207 Z-0.1542
N6320 X3.9711 Y4.3219 Z-0.1543
N6325 X3.9689 Y4.323 Z-0.1544
N6330 X3.9666 Y4.324 Z-0.1545
N6335 X3.962 Y4.3257 Z-0.1546
N6340 X3.9596 Y4.3265 Z-0.1547
N6345 X3.9572 Y4.3271 Z-0.1548
N6350 X3.9548 Y4.3276 Z-0.1549
N6355 X3.9524 Y4.328 Z-0.155
N6360 X3.9499 Y4.3284 Z-0.1551
N6365 X3.9474 Y4.3286 Z-0.1552
N6370 X3.945 Y4.3287 Z-0.1553
N6375 X3.9425
N6380 X3.94 Y4.3286 Z-0.1554
N6385 X3.9376 Y4.3285 Z-0.1555
N6390 X3.9327 Y4.3278 Z-0.1557
N6395 X3.9302 Y4.3273 Z-0.1558
N6400 X3.9278 Y4.3267 Z-0.1559
N6405 X3.9255 Y4.326
N6410 X3.9231 Y4.3252 Z-0.156
N6415 X3.9208 Y4.3243 Z-0.1561
N6420 X3.9185 Y4.3234 Z-0.1562
N6425 X3.9163 Y4.3223 Z-0.1563
N6430 X3.9141 Y4.3211 Z-0.1564
N6435 X3.912 Y4.3199 Z-0.1565
N6440 X3.9099 Y4.3186
N6445 X3.9079 Y4.3171 Z-0.1566
N6450 X3.9059 Y4.3156 Z-0.1567
N6455 X3.9022 Y4.3124 Z-0.1569
N6460 X3.9004 Y4.3107 Z-0.157
N6465 X3.8987 Y4.3088 Z-0.1571
N6470 X3.8971 Y4.307 Z-0.1572
N6475 X3.8956 Y4.305
N6480 X3.8941 Y4.303 Z-0.1573
N6485 X3.8928 Y4.301 Z-0.1574
N6490 X3.892 Y4.2997 Z-0.1575
N6495 X3.8918 Y4.2995
N6500 X3.8917 Y4.2993
N6505 X3.8911 Y4.2982
N6510 X3.8905 Y4.2971 Z-0.1576
N6515 X3.8894 Y4.2949 Z-0.1577
N6520 X3.8883 Y4.2926
N6525 X3.8874 Y4.2903 Z-0.1578
N6530 X3.8866 Y4.288 Z-0.1579
N6535 X3.8858 Y4.2857 Z-0.158
N6540 X3.8852 Y4.2833 Z-0.1581
N6545 X3.8846 Y4.2809 Z-0.1582
N6550 X3.8842 Y4.2785 Z-0.1583
N6555 X3.8839 Y4.276
N6560 X3.8836 Y4.2736 Z-0.1584
N6565 X3.8835 Y4.2711 Z-0.1585
N6570 X3.8834 Y4.2686 Z-0.1586
N6575 X3.8835 Y4.2661 Z-0.1587
N6580 X3.8839 Y4.2612 Z-0.1589
N6585 X3.8843 Y4.2588
N6590 X3.8848 Y4.2564 Z-0.159
N6595 X3.8853 Y4.254 Z-0.1591
N6600 X3.886 Y4.2516 Z-0.1592
N6605 X3.8868 Y4.2492 Z-0.1593
N6610 X3.8876 Y4.2469 Z-0.1594
N6615 X3.8886 Y4.2446 Z-0.1595
N6620 X3.8896 Y4.2424
N6625 X3.8908 Y4.2402 Z-0.1596
N6630 X3.892 Y4.2381 Z-0.1597
N6635 X3.8947 Y4.234 Z-0.1599
N6640 X3.8962 Y4.232 Z-0.16
N6645 X3.8978 Y4.2301 Z-0.1601
N6650 X3.8994 Y4.2282 Z-0.1602
N6655 X3.9012 Y4.2264
N6660 X3.9029 Y4.2247 Z-0.1603
N6665 X3.9048 Y4.2231 Z-0.1604
N6670 X3.9067 Y4.2216 Z-0.1605
N6675 X3.9087 Y4.2201 Z-0.1606
N6680 X3.9107 Y4.2187 Z-0.1607
N6685 X3.9128 Y4.2174 Z-0.1608
N6690 X3.9172 Y4.2151 Z-0.1609
N6695 X3.9194 Y4.2141 Z-0.161
N6700 X3.9217 Y4.2131 Z-0.1611
N6705 X3.9241 Y4.2123 Z-0.1612
N6710 X3.9264 Y4.2116 Z-0.1613
N6715 X3.9288 Y4.2109 Z-0.1614
N6720 X3.9312 Y4.2104
N6725 X3.9336 Y4.2099 Z-0.1615
N6730 X3.9361 Y4.2096 Z-0.1616
N6735 X3.9385 Y4.2093 Z-0.1617
N6740 X3.941 Y4.2092 Z-0.1618
N6745 X3.9434 Z-0.1619
N6750 X3.9459 Z-0.162
N6755 X3.9508 Y4.2097 Z-0.1621
N6760 X3.9533 Y4.21 Z-0.1622
N6765 X3.9557 Y4.2105 Z-0.1623
N6770 X3.9581 Y4.2111 Z-0.1624
N6775 X3.9604 Y4.2117 Z-0.1625
N6780 X3.9628 Y4.2125 Z-0.1626
N6785 X3.9651 Y4.2133
N6790 X3.9674 Y4.2143 Z-0.1627
N6795 X3.9696 Y4.2153 Z-0.1628
N6800 X3.9718 Y4.2165 Z-0.1629
N6805 X3.9739 Y4.2177 Z-0.163
N6810 X3.9781 Y4.2204 Z-0.1632
N6815 X3.98 Y4.2219 Z-0.1633
N6820 X3.9819 Y4.2235
N6825 X3.9838 Y4.2251 Z-0.1634
N6830 X3.9855 Y4.2268 Z-0.1635
N6835 X3.9872 Y4.2286 Z-0.1636
N6840 X3.9888 Y4.2305 Z-0.1637
N6845 X3.9904 Y4.2324 Z-0.1638
N6850 X3.9919 Y4.2344 Z-0.1639
N6855 X3.9932 Y4.2364
N6860 X3.9945 Y4.2385 Z-0.164
N6865 X3.9969 Y4.2429 Z-0.1642
N6870 X3.9979 Y4.2451 Z-0.1643
N6875 X3.9988 Y4.2474 Z-0.1644
N6880 X3.9997 Y4.2497 Z-0.1645
N6885 X4.0004 Y4.2521
N6890 X4.0011 Y4.2545 Z-0.1646
N6895 X4.0016 Y4.2569 Z-0.1647
N6900 X4.002 Y4.2593 Z-0.1648
N6905 X4.0024 Y4.2617 Z-0.1649
N6910 X4.0026 Y4.2642 Z-0.165
N6915 X4.0028 Y4.2666 Z-0.1651
N6920 X4.0027 Y4.2715 Z-0.1652
N6925 X4.0023 Y4.2764 Z-0.1654
N6930 X4.0019 Y4.2789 Z-0.1655
N6935 X4.0014 Y4.2813 Z-0.1656
N6940 X4.0002 Y4.2861 Z-0.1657
N6945 X3.9986 Y4.2907 Z-0.1659
N6950 X3.9966 Y4.2952 Z-0.1661
N6955 X3.9943 Y4.2995 Z-0.1663
N6960 X3.9936 Y4.3006
N6965 X3.993 Y4.3016
N6970 X3.9915 Y4.3037 Z-0.1664
N6975 X3.9901 Y4.3056 Z-0.1665
N6980 X3.9885 Y4.3075 Z-0.1666
N6985 X3.9868 Y4.3094 Z-0.1667
N6990 X3.9851 Y4.3111 Z-0.1668
N6995 X3.9833 Y4.3128 Z-0.1669
N7000 X3.9815 Y4.3144
N7005 X3.9796 Y4.316 Z-0.167
N7010 X3.9776 Y4.3174 Z-0.1671
N7015 X3.9756 Y4.3188 Z-0.1672
N7020 X3.9735 Y4.3201 Z-0.1673
N7025 X3.9691 Y4.3224 Z-0.1675
N7030 X3.9669 Y4.3235
N7035 X3.9646 Y4.3244 Z-0.1676
N7040 X3.9623 Y4.3252 Z-0.1677
N7045 X3.9599 Y4.326 Z-0.1678
N7050 X3.9576 Y4.3266 Z-0.1679
N7055 X3.9552 Y4.3271 Z-0.168
N7060 X3.9528 Y4.3276 Z-0.1681
N7065 X3.9503 Y4.3279
N7070 X3.9479 Y4.3282 Z-0.1682
N7075 X3.9454 Y4.3283 Z-0.1683
N7080 X3.943 Y4.3284 Z-0.1684
N7085 X3.9405 Y4.3283 Z-0.1685
N7090 X3.9356 Y4.3279 Z-0.1687
N7095 X3.9332 Y4.3275
N7100 X3.9308 Y4.327 Z-0.1688
N7105 X3.9284 Y4.3265 Z-0.1689
N7110 X3.926 Y4.3258 Z-0.169
N7115 X3.9237 Y4.325 Z-0.1691
N7120 X3.9213 Y4.3242 Z-0.1692
N7125 X3.9191 Y4.3232 Z-0.1693
N7130 X3.9169 Y4.3222
N7135 X3.9147 Y4.321 Z-0.1694
N7140 X3.9126 Y4.3198 Z-0.1695
N7145 X3.9085 Y4.3171 Z-0.1697
N7150 X3.9065 Y4.3156 Z-0.1698
N7155 X3.9046 Y4.3141 Z-0.1699
N7160 X3.9028 Y4.3124
N7165 X3.901 Y4.3107 Z-0.17
N7170 X3.8993 Y4.3089 Z-0.1701
N7175 X3.8977 Y4.3071 Z-0.1702
N7180 X3.8961 Y4.3052 Z-0.1703
N7185 X3.8947 Y4.3032 Z-0.1704
N7190 X3.8933 Y4.3012 Z-0.1705
N7195 X3.892 Y4.2991
N7200 X3.8897 Y4.2947 Z-0.1707
N7205 X3.8887 Y4.2925 Z-0.1708
N7210 X3.8878 Y4.2902 Z-0.1709
N7215 X3.8869 Y4.2879 Z-0.171
N7220 X3.8862 Y4.2856 Z-0.1711
N7225 X3.8855 Y4.2832
N7230 X3.885 Y4.2808 Z-0.1712
N7235 X3.8846 Y4.2784 Z-0.1713
N7240 X3.8842 Y4.276 Z-0.1714
N7245 X3.884 Y4.2735 Z-0.1715
N7250 X3.8838 Y4.2711 Z-0.1716
N7255 Y4.2686 Z-0.1717
N7260 X3.8839 Y4.2662
N7265 X3.8843 Y4.2613 Z-0.1719
N7270 X3.8847 Y4.2588 Z-0.172
N7275 X3.8851 Y4.2564 Z-0.1721
N7280 X3.8857 Y4.254 Z-0.1722
N7285 X3.8864 Y4.2517 Z-0.1723
N7290 X3.8871 Y4.2494
N7295 X3.888 Y4.2471 Z-0.1724
N7300 X3.8889 Y4.2448 Z-0.1725
N7305 X3.89 Y4.2426 Z-0.1726
N7310 X3.8911 Y4.2404 Z-0.1727
N7315 X3.8923 Y4.2383 Z-0.1728
N7320 X3.895 Y4.2342 Z-0.1729
N7325 X3.8965 Y4.2322 Z-0.173
N7330 X3.8981 Y4.2303 Z-0.1731
N7335 X3.8997 Y4.2285 Z-0.1732
N7340 X3.9014 Y4.2267 Z-0.1733
N7345 X3.9032 Y4.225 Z-0.1734
N7350 X3.905 Y4.2234 Z-0.1735
N7355 X3.9069 Y4.2219
N7360 X3.9089 Y4.2204 Z-0.1736
N7365 X3.9109 Y4.219 Z-0.1737
N7370 X3.913 Y4.2177 Z-0.1738
N7375 X3.9173 Y4.2154 Z-0.174
N7380 X3.9196 Y4.2144 Z-0.1741
N7385 X3.9219 Y4.2135
N7390 X3.9242 Y4.2127 Z-0.1742
N7395 X3.9265 Y4.2119 Z-0.1743
N7400 X3.9289 Y4.2113 Z-0.1744
N7405 X3.9313 Y4.2107 Z-0.1745
N7410 X3.9337 Y4.2103 Z-0.1746
N7415 X3.9361 Y4.21 Z-0.1747
N7420 X3.9385 Y4.2097
N7425 X3.941 Y4.2096 Z-0.1748
N7430 X3.9434 Y4.2095 Z-0.1749
N7435 X3.9459 Y4.2096 Z-0.175
N7440 X3.9508 Y4.21 Z-0.1752
N7445 X3.9532 Y4.2104 Z-0.1753
N7450 X3.9556 Y4.2109
N7455 X3.958 Y4.2114 Z-0.1754
N7460 X3.9603 Y4.2121 Z-0.1755
N7465 X3.9627 Y4.2128 Z-0.1756
N7470 X3.965 Y4.2137 Z-0.1757
N7475 X3.9672 Y4.2146 Z-0.1758
N7480 X3.9694 Y4.2157 Z-0.1759
N7485 X3.9716 Y4.2168
N7490 X3.9737 Y4.218 Z-0.176
N7495 X3.9778 Y4.2207 Z-0.1762
N7500 X3.9798 Y4.2222 Z-0.1763
N7505 X3.9817 Y4.2238 Z-0.1764
N7510 X3.9835 Y4.2254 Z-0.1765
N7515 X3.9853 Y4.2271
N7520 X3.987 Y4.2289 Z-0.1766
N7525 X3.9886 Y4.2307 Z-0.1767
N7530 X3.9901 Y4.2326 Z-0.1768
N7535 X3.9916 Y4.2346 Z-0.1769
N7540 X3.9929 Y4.2366 Z-0.177
N7545 X3.9942 Y4.2387 Z-0.1771
N7550 X3.9965 Y4.243 Z-0.1772
N7555 X3.9976 Y4.2453 Z-0.1773
N7560 X3.9985 Y4.2475 Z-0.1774
N7565 X3.9993 Y4.2498 Z-0.1775
N7570 X4.0001 Y4.2522 Z-0.1776
N7575 X4.0007 Y4.2545
N7580 X4.0012 Y4.2569 Z-0.1777
N7585 X4.0017 Y4.2593 Z-0.1778
N7590 X4.002 Y4.2618 Z-0.1779
N7595 X4.0023 Y4.2642 Z-0.178
N7600 X4.0024 Y4.2666 Z-0.1781
N7605 X4.0023 Y4.2715 Z-0.1782
N7610 X4.0019 Y4.2764 Z-0.1784
N7615 X4.0015 Y4.2788 Z-0.1785
N7620 X4.0011 Y4.2812 Z-0.1786
N7625 X3.9998 Y4.286 Z-0.1788
N7630 X3.9982 Y4.2906 Z-0.1789
N7635 X3.9963 Y4.295 Z-0.1791
N7640 X3.9939 Y4.2993 Z-0.1793
N7645 X3.9933 Y4.3004
N7650 X3.9926 Y4.3014 Z-0.1794
N7655 X3.9912 Y4.3034
N7660 X3.9898 Y4.3054 Z-0.1795
N7665 X3.9882 Y4.3073 Z-0.1796
N7670 X3.9866 Y4.3091 Z-0.1797
N7675 X3.9849 Y4.3109 Z-0.1798
N7680 X3.9831 Y4.3126 Z-0.1799
N7685 X3.9813 Y4.3142 Z-0.18
N7690 X3.9794 Y4.3157
N7695 X3.9774 Y4.3171 Z-0.1801
N7700 X3.9754 Y4.3185 Z-0.1802
N7705 X3.9733 Y4.3198 Z-0.1803
N7710 X3.969 Y4.3221 Z-0.1805
N7715 X3.9668 Y4.3231 Z-0.1806
N7720 X3.9645 Y4.324
N7725 X3.9622 Y4.3249 Z-0.1807
N7730 X3.9598 Y4.3256 Z-0.1808
N7735 X3.9575 Y4.3262 Z-0.1809
N7740 X3.9551 Y4.3268 Z-0.181
N7745 X3.9527 Y4.3272 Z-0.1811
N7750 X3.9503 Y4.3276
N7755 X3.9479 Y4.3278 Z-0.1812
N7760 X3.9454 Y4.3279 Z-0.1813
N7765 X3.943 Y4.328 Z-0.1814
N7770 X3.9405 Y4.3279 Z-0.1815
N7775 X3.9357 Y4.3275 Z-0.1817
N7780 X3.9332 Y4.3271
N7785 X3.9308 Y4.3267 Z-0.1818
N7790 X3.9285 Y4.3261 Z-0.1819
N7795 X3.9261 Y4.3254 Z-0.182
N7800 X3.9238 Y4.3247 Z-0.1821
N7805 X3.9215 Y4.3238 Z-0.1822
N7810 X3.9192 Y4.3229 Z-0.1823
N7815 X3.917 Y4.3218
N7820 X3.9149 Y4.3207 Z-0.1824
N7825 X3.9128 Y4.3195 Z-0.1825
N7830 X3.9087 Y4.3168 Z-0.1827
N7835 X3.9067 Y4.3153 Z-0.1828
N7840 X3.9048 Y4.3138 Z-0.1829
N7845 X3.903 Y4.3122
N7850 X3.9013 Y4.3105 Z-0.183
N7855 X3.8996 Y4.3087 Z-0.1831
N7860 X3.898 Y4.3068 Z-0.1832
N7865 X3.8964 Y4.3049 Z-0.1833
N7870 X3.895 Y4.303 Z-0.1834
N7875 X3.8936 Y4.301
N7880 X3.8923 Y4.2989 Z-0.1835
N7885 X3.89 Y4.2946 Z-0.1837
N7890 X3.889 Y4.2924 Z-0.1838
N7895 X3.8881 Y4.2901 Z-0.1839
N7900 X3.8873 Y4.2878 Z-0.184
N7905 X3.8865 Y4.2855
N7910 X3.8859 Y4.2831 Z-0.1841
N7915 X3.8854 Y4.2807 Z-0.1842
N7920 X3.8849 Y4.2783 Z-0.1843
N7925 X3.8846 Y4.2759 Z-0.1844
N7930 X3.8844 Y4.2735 Z-0.1845
N7935 X3.8842 Y4.2711 Z-0.1846
N7940 Y4.2686
N7945 Y4.2662 Z-0.1847
N7950 X3.8847 Y4.2613 Z-0.1849
N7955 X3.885 Y4.2589 Z-0.185
N7960 X3.8855 Y4.2565 Z-0.1851
N7965 X3.8861 Y4.2541 Z-0.1852
N7970 X3.8867 Y4.2518
N7975 X3.8875 Y4.2495 Z-0.1853
N7980 X3.8883 Y4.2472 Z-0.1854
N7985 X3.8893 Y4.2449 Z-0.1855
N7990 X3.8903 Y4.2427 Z-0.1856
N7995 X3.8914 Y4.2406 Z-0.1857
N8000 X3.8926 Y4.2385
N8005 X3.8953 Y4.2344 Z-0.1859
N8010 X3.8968 Y4.2324 Z-0.186
N8015 X3.8983 Y4.2305 Z-0.1861
N8020 X3.9 Y4.2287 Z-0.1862
N8025 X3.9017 Y4.227 Z-0.1863
N8030 X3.9034 Y4.2253
N8035 X3.9053 Y4.2237 Z-0.1864
N8040 X3.9072 Y4.2222 Z-0.1865
N8045 X3.9091 Y4.2207 Z-0.1866
N8050 X3.9111 Y4.2194 Z-0.1867
N8055 X3.9132 Y4.2181 Z-0.1868
N8060 X3.9175 Y4.2158 Z-0.1869
N8065 X3.9197 Y4.2148 Z-0.187
N8070 X3.922 Y4.2138 Z-0.1871
N8075 X3.9243 Y4.213 Z-0.1872
N8080 X3.9266 Y4.2123 Z-0.1873
N8085 X3.929 Y4.2117 Z-0.1874
N8090 X3.9313 Y4.2111
N8095 X3.9337 Y4.2107 Z-0.1875
N8100 X3.9362 Y4.2103 Z-0.1876
N8105 X3.9386 Y4.2101 Z-0.1877
N8110 X3.941 Y4.21 Z-0.1878
N8115 X3.9434 Y4.2099 Z-0.1879
N8120 X3.9459 Y4.21 Z-0.188
N8125 X3.9507 Y4.2104 Z-0.1881
N8130 X3.9531 Y4.2108 Z-0.1882
N8135 X3.9555 Y4.2113 Z-0.1883
N8140 X3.9579 Y4.2118 Z-0.1884
N8145 X3.9602 Y4.2125 Z-0.1885
N8150 X3.9625 Y4.2132 Z-0.1886
N8155 X3.9648 Y4.2141
N8160 X3.9671 Y4.215 Z-0.1887
N8165 X3.9693 Y4.216 Z-0.1888
N8170 X3.9714 Y4.2172 Z-0.1889
N8175 X3.9735 Y4.2184 Z-0.189
N8180 X3.9776 Y4.2211 Z-0.1891
N8185 X3.9795 Y4.2225 Z-0.1892
N8190 X3.9814 Y4.2241 Z-0.1893
N8195 X3.9832 Y4.2257 Z-0.1894
N8200 X3.985 Y4.2274 Z-0.1895
N8205 X3.9867 Y4.2292 Z-0.1896
N8210 X3.9883 Y4.231 Z-0.1897
N8215 X3.9898 Y4.2329
N8220 X3.9912 Y4.2348 Z-0.1898
N8225 X3.9926 Y4.2369 Z-0.1899
N8230 X3.9939 Y4.2389 Z-0.19
N8235 X3.9962 Y4.2432 Z-0.1902
N8240 X3.9972 Y4.2454
N8245 X3.9981 Y4.2477 Z-0.1903
N8250 X3.9989 Y4.25 Z-0.1904
N8255 X3.9996 Y4.2523 Z-0.1905
N8260 X4.0003 Y4.2546 Z-0.1906
N8265 X4.0008 Y4.257 Z-0.1907
N8270 X4.0012 Y4.2594 Z-0.1908
N8275 X4.0016 Y4.2618
N8280 X4.0018 Y4.2642 Z-0.1909
N8285 X4.002 Y4.2666 Z-0.191
N8290 X4.0019 Y4.2715 Z-0.1912
N8295 X4.0015 Y4.2763 Z-0.1914
N8300 X4.0011 Y4.2787
N8305 X4.0007 Y4.2811 Z-0.1915
N8310 X3.9994 Y4.2858 Z-0.1917
N8315 X3.9978 Y4.2904 Z-0.1919
N8320 X3.9959 Y4.2949 Z-0.192
N8325 X3.9936 Y4.2991 Z-0.1922
N8330 X3.9929 Y4.3002
N8335 X3.9923 Y4.3012 Z-0.1923
N8340 X3.9909 Y4.3032 Z-0.1924
N8345 X3.9894 Y4.3051 Z-0.1925
N8350 X3.9879 Y4.307
N8355 X3.9863 Y4.3088 Z-0.1926
N8360 X3.9846 Y4.3106 Z-0.1927
N8365 X3.9828 Y4.3122 Z-0.1928
N8370 X3.981 Y4.3138 Z-0.1929
N8375 X3.9791 Y4.3153 Z-0.193
N8380 X3.9771 Y4.3168
N8385 X3.9751 Y4.3181 Z-0.1931
N8390 X3.9731 Y4.3194 Z-0.1932
N8395 X3.9709 Y4.3206 Z-0.1933
N8400 X3.9688 Y4.3217 Z-0.1934
N8405 X3.9643 Y4.3236 Z-0.1936
N8410 X3.962 Y4.3244
N8415 X3.9597 Y4.3252 Z-0.1937
N8420 X3.9574 Y4.3258 Z-0.1938
N8425 X3.955 Y4.3263 Z-0.1939
N8430 X3.9526 Y4.3268 Z-0.194
N8435 X3.9502 Y4.3271 Z-0.1941
N8440 X3.9478 Y4.3273
N8445 X3.9454 Y4.3275 Z-0.1942
N8450 X3.943 Z-0.1943
N8455 X3.9405 Z-0.1944
N8460 X3.9357 Y4.327 Z-0.1946
N8465 X3.9333 Y4.3267 Z-0.1947
N8470 X3.9309 Y4.3262
N8475 X3.9286 Y4.3256 Z-0.1948
N8480 X3.9263 Y4.325 Z-0.1949
N8485 X3.9239 Y4.3242 Z-0.195
N8490 X3.9217 Y4.3234 Z-0.1951
N8495 X3.9194 Y4.3224 Z-0.1952
N8500 X3.9172 Y4.3214
N8505 X3.9151 Y4.3203 Z-0.1953
N8510 X3.913 Y4.3191 Z-0.1954
N8515 X3.909 Y4.3164 Z-0.1956
N8520 X3.907 Y4.315 Z-0.1957
N8525 X3.9052 Y4.3134 Z-0.1958
N8530 X3.9033 Y4.3118
N8535 X3.9016 Y4.3101 Z-0.1959
N8540 X3.8999 Y4.3084 Z-0.196
N8545 X3.8983 Y4.3065 Z-0.1961
N8550 X3.8968 Y4.3047 Z-0.1962
N8555 X3.8954 Y4.3027 Z-0.1963
N8560 X3.894 Y4.3007
N8565 X3.8928 Y4.2986 Z-0.1964
N8570 X3.8905 Y4.2944 Z-0.1966
N8575 X3.8895 Y4.2922 Z-0.1967
N8580 X3.8886 Y4.2899 Z-0.1968
N8585 X3.8878 Y4.2877
N8590 X3.8877 Y4.2875 Z-0.1969
N8595 X3.8876 Y4.2872
N8600 X3.8875 Y4.2869
N8605 X3.887 Y4.2851
N8610 X3.8863 Y4.2827 Z-0.197
N8615 X3.8858 Y4.2803 Z-0.1971
N8620 X3.8854 Y4.2779 Z-0.1972
N8625 X3.885 Y4.2754 Z-0.1973
N8630 X3.8848 Y4.2729 Z-0.1974
N8635 X3.8847 Y4.2705 Z-0.1975
N8640 Y4.268
N8645 X3.8848 Y4.2655 Z-0.1976
N8650 X3.885 Y4.263 Z-0.1977
N8655 X3.8853 Y4.2605 Z-0.1978
N8660 X3.8857 Y4.2581 Z-0.1979
N8665 X3.8862 Y4.2556 Z-0.198
N8670 X3.8868 Y4.2532 Z-0.1981
N8675 X3.8883 Y4.2485 Z-0.1982
N8680 X3.8893 Y4.2462 Z-0.1983
N8685 X3.8903 Y4.244 Z-0.1984
N8690 X3.8914 Y4.2417 Z-0.1985
N8695 X3.8926 Y4.2396 Z-0.1986
N8700 X3.8939 Y4.2374 Z-0.1987
N8705 X3.8952 Y4.2354 Z-0.1988
N8710 X3.8967 Y4.2334
N8715 X3.8983 Y4.2314 Z-0.1989
N8720 X3.8999 Y4.2296 Z-0.199
N8725 X3.9016 Y4.2278 Z-0.1991
N8730 X3.9034 Y4.226 Z-0.1992
N8735 X3.9053 Y4.2244 Z-0.1993
N8740 X3.9072 Y4.2228 Z-0.1994
N8745 X3.9092 Y4.2213
N8750 X3.9112 Y4.2199 Z-0.1995
N8755 X3.9133 Y4.2186 Z-0.1996
N8760 X3.9177 Y4.2163 Z-0.1998
N8765 X3.92 Y4.2152 Z-0.1999
N8770 X3.9223 Y4.2143 Z-0.2
N8775 X3.9246 Y4.2135 Z-0.2001
N8780 X3.9269 Y4.2127
N8785 X3.9293 Y4.2121 Z-0.2002
N8790 X3.9317 Y4.2116 Z-0.2003
N8795 X3.9342 Y4.2111 Z-0.2004
N8800 X3.9367 Y4.2108 Z-0.2005
N8805 X3.9391 Y4.2106 Z-0.2006
N8810 X3.9416 Y4.2105 Z-0.2007
N8815 X3.9441
N8820 X3.9466 Z-0.2008
N8825 X3.949 Y4.2107 Z-0.2009
N8830 X3.9515 Y4.211 Z-0.201
N8835 X3.9539 Y4.2114 Z-0.2011
N8840 X3.9564 Y4.212 Z-0.2012
N8845 X3.9612 Y4.2133 Z-0.2014
N8850 X3.9635 Y4.2141
N8855 X3.9658 Y4.215 Z-0.2015
N8860 X3.9681 Y4.216 Z-0.2016
N8865 X3.9703 Y4.2171 Z-0.2017
N8870 X3.9725 Y4.2183 Z-0.2018
N8875 X3.9746 Y4.2196 Z-0.2019
N8880 X3.9766 Y4.221 Z-0.202
N8885 X3.9786 Y4.2225
N8890 X3.9806 Y4.224 Z-0.2021
N8895 X3.9824 Y4.2257 Z-0.2022
N8900 X3.9842 Y4.2274 Z-0.2023
N8905 X3.986 Y4.2292 Z-0.2024
N8910 X3.9876 Y4.231 Z-0.2025
N8915 X3.9892 Y4.2329 Z-0.2026
N8920 X3.9906 Y4.2349
N8925 X3.992 Y4.2369 Z-0.2027
N8930 X3.9946 Y4.2412 Z-0.2029
N8935 X3.9957 Y4.2434 Z-0.203
N8940 X3.9967 Y4.2456 Z-0.2031
N8945 X3.9976 Y4.2479 Z-0.2032
N8950 X3.9985 Y4.2503 Z-0.2033
N8955 X3.9992 Y4.2526
N8960 X3.9998 Y4.255 Z-0.2034
N8965 X4.0004 Y4.2574 Z-0.2035
N8970 X4.0008 Y4.2599 Z-0.2036
N8975 X4.0011 Y4.2623 Z-0.2037
N8980 X4.0014 Y4.2648 Z-0.2038
N8985 X4.0015 Y4.2673 Z-0.2039
N8990 Y4.2697
N8995 X4.0011 Y4.2747 Z-0.2041
N9000 X4.0004 Y4.2796 Z-0.2043
N9005 X3.9999 Y4.282 Z-0.2044
N9010 X3.9994 Y4.2844 Z-0.2045
N9015 X3.9978 Y4.2891 Z-0.2046
N9020 X3.9959 Y4.2937 Z-0.2048
N9025 X3.9936 Y4.2981 Z-0.205
N9030 X3.9923 Y4.3002 Z-0.2051
N9035 X3.9909 Y4.3022 Z-0.2052
N9040 X3.9895 Y4.3042
N9045 X3.9879 Y4.3061 Z-0.2053
N9050 X3.9863 Y4.308 Z-0.2054
N9055 X3.9846 Y4.3098 Z-0.2055
N9060 X3.9828 Y4.3115 Z-0.2056
N9065 X3.981 Y4.3131 Z-0.2057
N9070 X3.9791 Y4.3147 Z-0.2058
N9075 X3.9771 Y4.3162
N9080 X3.9751 Y4.3176 Z-0.2059
N9085 X3.973 Y4.3189 Z-0.206
N9090 X3.9686 Y4.3212 Z-0.2062
N9095 X3.9664 Y4.3222 Z-0.2063
N9100 X3.9641 Y4.3232 Z-0.2064
N9105 X3.9618 Y4.324
N9110 X3.9594 Y4.3247 Z-0.2065
N9115 X3.957 Y4.3254 Z-0.2066
N9120 X3.9546 Y4.3259 Z-0.2067
N9125 X3.9522 Y4.3263 Z-0.2068
N9130 X3.9497 Y4.3266 Z-0.2069
N9135 X3.9472 Y4.3269 Z-0.207
N9140 X3.9448 Y4.327
N9145 X3.9423 Z-0.2071
N9150 X3.9398 Y4.3269 Z-0.2072
N9155 X3.9374 Y4.3267 Z-0.2073
N9160 X3.9349 Y4.3264 Z-0.2074
N9165 X3.9325 Y4.326 Z-0.2075
N9170 X3.9301 Y4.3255 Z-0.2076
N9175 X3.9277 Y4.3249
N9180 X3.9253 Y4.3242 Z-0.2077
N9185 X3.9207 Y4.3224 Z-0.2079
N9190 X3.9184 Y4.3214 Z-0.208
N9195 X3.9162 Y4.3203 Z-0.2081
N9200 X3.9141 Y4.3191 Z-0.2082
N9205 X3.912 Y4.3178 Z-0.2083
N9210 X3.9099 Y4.3165
N9215 X3.9079 Y4.315 Z-0.2084
N9220 X3.906 Y4.3135 Z-0.2085
N9225 X3.9042 Y4.3119 Z-0.2086
N9230 X3.9024 Y4.3102 Z-0.2087
N9235 X3.9006 Y4.3084 Z-0.2088
N9240 X3.899 Y4.3065 Z-0.2089
N9245 X3.8974 Y4.3046
N9250 X3.896 Y4.3026 Z-0.209
N9255 X3.8946 Y4.3006 Z-0.2091
N9260 X3.8933 Y4.2985 Z-0.2092
N9265 X3.8921 Y4.2964 Z-0.2093
N9270 X3.8899 Y4.292 Z-0.2095
N9275 X3.889 Y4.2897
N9280 X3.8882 Y4.2873 Z-0.2096
N9285 X3.8874 Y4.285 Z-0.2097
N9290 X3.8868 Y4.2826 Z-0.2098
N9295 X3.8863 Y4.2802 Z-0.2099
N9300 X3.8859 Y4.2778 Z-0.21
N9305 X3.8855 Y4.2753 Z-0.2101
N9310 X3.8853 Y4.2729
N9315 X3.8852 Y4.2704 Z-0.2102
N9320 Y4.268 Z-0.2103
N9325 X3.8853 Y4.2655 Z-0.2104
N9330 X3.8855 Y4.263 Z-0.2105
N9335 X3.8858 Y4.2606 Z-0.2106
N9340 X3.8862 Y4.2582 Z-0.2107
N9345 X3.8867 Y4.2558
N9350 X3.8873 Y4.2534 Z-0.2108
N9355 X3.8888 Y4.2487 Z-0.211
N9360 X3.8897 Y4.2464 Z-0.2111
N9365 X3.8907 Y4.2442 Z-0.2112
N9370 X3.8918 Y4.242 Z-0.2113
N9375 X3.893 Y4.2398
N9380 X3.8943 Y4.2377 Z-0.2114
N9385 X3.8957 Y4.2357 Z-0.2115
N9390 X3.8971 Y4.2337 Z-0.2116
N9395 X3.8987 Y4.2318 Z-0.2117
N9400 X3.9003 Y4.2299 Z-0.2118
N9405 X3.902 Y4.2281 Z-0.2119
N9410 X3.9037 Y4.2264
N9415 X3.9056 Y4.2248 Z-0.212
N9420 X3.9075 Y4.2232 Z-0.2121
N9425 X3.9095 Y4.2217 Z-0.2122
N9430 X3.9115 Y4.2203 Z-0.2123
N9435 X3.9136 Y4.219 Z-0.2124
N9440 X3.9179 Y4.2167 Z-0.2125
N9445 X3.9202 Y4.2157 Z-0.2126
N9450 X3.9224 Y4.2148 Z-0.2127
N9455 X3.9247 Y4.2139 Z-0.2128
N9460 X3.9271 Y4.2132 Z-0.2129
N9465 X3.9295 Y4.2126 Z-0.213
N9470 X3.9319 Y4.2121 Z-0.2131
N9475 X3.9343 Y4.2116
N9480 X3.9367 Y4.2113 Z-0.2132
N9485 X3.9392 Y4.2111 Z-0.2133
N9490 X3.9416 Y4.211 Z-0.2134
N9495 X3.9441 Z-0.2135
N9500 X3.9465 Z-0.2136
N9505 X3.949 Y4.2112 Z-0.2137
N9510 X3.9514 Y4.2115
N9515 X3.9539 Y4.2119 Z-0.2138
N9520 X3.9563 Y4.2124 Z-0.2139
N9525 X3.961 Y4.2138 Z-0.2141
N9530 X3.9633 Y4.2146 Z-0.2142
N9535 X3.9656 Y4.2155 Z-0.2143
N9540 X3.9679 Y4.2165
N9545 X3.9701 Y4.2176 Z-0.2144
N9550 X3.9722 Y4.2188 Z-0.2145
N9555 X3.9743 Y4.2201 Z-0.2146
N9560 X3.9763 Y4.2214 Z-0.2147
N9565 X3.9783 Y4.2229 Z-0.2148
N9570 X3.9802 Y4.2244 Z-0.2149
N9575 X3.9821 Y4.226
N9580 X3.9839 Y4.2277 Z-0.215
N9585 X3.9856 Y4.2295 Z-0.2151
N9590 X3.9872 Y4.2313 Z-0.2152
N9595 X3.9888 Y4.2332 Z-0.2153
N9600 X3.9902 Y4.2352 Z-0.2154
N9605 X3.9916 Y4.2372 Z-0.2155
N9610 X3.9941 Y4.2414 Z-0.2156
N9615 X3.9952 Y4.2436 Z-0.2157
N9620 X3.9962 Y4.2458 Z-0.2158
N9625 X3.9972 Y4.2481 Z-0.2159
N9630 X3.998 Y4.2504 Z-0.216
N9635 X3.9987 Y4.2528 Z-0.2161
N9640 X3.9994 Y4.2551
N9645 X3.9999 Y4.2575 Z-0.2162
N9650 X4.0003 Y4.2599 Z-0.2163
N9655 X4.0006 Y4.2624 Z-0.2164
N9660 X4.0009 Y4.2648 Z-0.2165
N9665 X4.001 Y4.2673 Z-0.2166
N9670 Y4.2697 Z-0.2167
N9675 X4.0006 Y4.2747 Z-0.2168
N9680 X4. Y4.2795 Z-0.217
N9685 X3.9994 Y4.2819 Z-0.2171
N9690 X3.9989 Y4.2842 Z-0.2172
N9695 X3.9973 Y4.2889 Z-0.2173
N9700 X3.9954 Y4.2934 Z-0.2175
N9705 X3.9931 Y4.2978 Z-0.2177
N9710 X3.9919 Y4.2999 Z-0.2178
N9715 X3.9905 Y4.3019 Z-0.2179
N9720 X3.9891 Y4.3039
N9725 X3.9875 Y4.3058 Z-0.218
N9730 X3.9859 Y4.3077 Z-0.2181
N9735 X3.9842 Y4.3094 Z-0.2182
N9740 X3.9825 Y4.3111 Z-0.2183
N9745 X3.9807 Y4.3128 Z-0.2184
N9750 X3.9788 Y4.3143 Z-0.2185
N9755 X3.9768 Y4.3158
N9760 X3.9748 Y4.3172 Z-0.2186
N9765 X3.9727 Y4.3184 Z-0.2187
N9770 X3.9684 Y4.3208 Z-0.2189
N9775 X3.9662 Y4.3218 Z-0.219
N9780 X3.9639 Y4.3227 Z-0.2191
N9785 X3.9616 Y4.3235
N9790 X3.9593 Y4.3243 Z-0.2192
N9795 X3.9569 Y4.3249 Z-0.2193
N9800 X3.9545 Y4.3254 Z-0.2194
N9805 X3.9521 Y4.3258 Z-0.2195
N9810 X3.9496 Y4.3261 Z-0.2196
N9815 X3.9472 Y4.3264
N9820 X3.9448 Y4.3265 Z-0.2197
N9825 X3.9423 Z-0.2198
N9830 X3.9399 Y4.3264 Z-0.2199
N9835 X3.9374 Y4.3262 Z-0.22
N9840 X3.935 Y4.3259 Z-0.2201
N9845 X3.9326 Y4.3255 Z-0.2202
N9850 X3.9302 Y4.325
N9855 X3.9278 Y4.3244 Z-0.2203
N9860 X3.9255 Y4.3237 Z-0.2204
N9865 X3.9209 Y4.322 Z-0.2206
N9870 X3.9187 Y4.321 Z-0.2207
N9875 X3.9165 Y4.3199 Z-0.2208
N9880 X3.9143 Y4.3187
N9885 X3.9122 Y4.3174 Z-0.2209
N9890 X3.9102 Y4.3161 Z-0.221
N9895 X3.9082 Y4.3146 Z-0.2211
N9900 X3.9063 Y4.3131 Z-0.2212
N9905 X3.9045 Y4.3115 Z-0.2213
N9910 X3.9027 Y4.3098 Z-0.2214
N9915 X3.901 Y4.308
N9920 X3.8994 Y4.3062 Z-0.2215
N9925 X3.8978 Y4.3043 Z-0.2216
N9930 X3.8964 Y4.3024 Z-0.2217
N9935 X3.895 Y4.3003 Z-0.2218
N9940 X3.8937 Y4.2983 Z-0.2219
N9945 X3.8925 Y4.2962 Z-0.222
N9950 X3.8904 Y4.2917 Z-0.2221
N9955 X3.8895 Y4.2895 Z-0.2222
N9960 X3.8886 Y4.2872 Z-0.2223
N9965 X3.8879 Y4.2848 Z-0.2224
N9970 X3.8873 Y4.2825 Z-0.2225
N9975 X3.8868 Y4.2801
N9980 X3.8864 Y4.2777 Z-0.2226
N9985 X3.886 Y4.2753 Z-0.2227
N9990 X3.8858 Y4.2728 Z-0.2228
N9995 X3.8857 Y4.2704 Z-0.2229
N10000 Y4.268 Z-0.223
N10005 X3.8858 Y4.2655 Z-0.2231
N10010 X3.886 Y4.2631
N10015 X3.8863 Y4.2607 Z-0.2232
N10020 X3.8867 Y4.2583 Z-0.2233
N10025 X3.8872 Y4.2559 Z-0.2234
N10030 X3.8878 Y4.2535 Z-0.2235
N10035 X3.8893 Y4.2489 Z-0.2237
N10040 X3.8902 Y4.2466
N10045 X3.8912 Y4.2444 Z-0.2238
N10050 X3.8923 Y4.2422 Z-0.2239
N10055 X3.8935 Y4.2401 Z-0.224
N10060 X3.8947 Y4.238 Z-0.2241
N10065 X3.8961 Y4.2359 Z-0.2242
N10070 X3.8975 Y4.234 Z-0.2243
N10075 X3.8991 Y4.2321
N10080 X3.9007 Y4.2302 Z-0.2244
N10085 X3.9023 Y4.2285 Z-0.2245
N10090 X3.9041 Y4.2268 Z-0.2246
N10095 X3.9059 Y4.2251 Z-0.2247
N10100 X3.9078 Y4.2236 Z-0.2248
N10105 X3.9098 Y4.2221
N10110 X3.9118 Y4.2208 Z-0.2249
N10115 X3.9138 Y4.2195 Z-0.225
N10120 X3.9181 Y4.2172 Z-0.2252
N10125 X3.9204 Y4.2162 Z-0.2253
N10130 X3.9226 Y4.2152 Z-0.2254
N10135 X3.9249 Y4.2144
N10140 X3.9272 Y4.2137 Z-0.2255
N10145 X3.9296 Y4.2131 Z-0.2256
N10150 X3.932 Y4.2125 Z-0.2257
N10155 X3.9344 Y4.2121 Z-0.2258
N10160 X3.9368 Y4.2118 Z-0.2259
N10165 X3.9392 Y4.2116 Z-0.226
N10170 X3.9417 Y4.2115
N10175 X3.9441 Z-0.2261
N10180 X3.9465 Z-0.2262
N10185 X3.9489 Y4.2117 Z-0.2263
N10190 X3.9514 Y4.212 Z-0.2264
N10195 X3.9538 Y4.2124 Z-0.2265
N10200 X3.9562 Y4.2129
N10205 X3.9609 Y4.2142 Z-0.2267
N10210 X3.9632 Y4.215 Z-0.2268
N10215 X3.9654 Y4.2159 Z-0.2269
N10220 X3.9676 Y4.2169 Z-0.227
N10225 X3.9698 Y4.218 Z-0.2271
N10230 X3.9719 Y4.2192
N10235 X3.974 Y4.2205 Z-0.2272
N10240 X3.9761 Y4.2218 Z-0.2273
N10245 X3.978 Y4.2233 Z-0.2274
N10250 X3.9799 Y4.2248 Z-0.2275
N10255 X3.9818 Y4.2264 Z-0.2276
N10260 X3.9835 Y4.2281 Z-0.2277
N10265 X3.9852 Y4.2298
N10270 X3.9868 Y4.2316 Z-0.2278
N10275 X3.9884 Y4.2335 Z-0.2279
N10280 X3.9898 Y4.2355 Z-0.228
N10285 X3.9912 Y4.2375 Z-0.2281
N10290 X3.9937 Y4.2417 Z-0.2282
N10295 X3.9948 Y4.2438 Z-0.2283
N10300 X3.9958 Y4.246 Z-0.2284
N10305 X3.9967 Y4.2483 Z-0.2285
N10310 X3.9975 Y4.2506 Z-0.2286
N10315 X3.9982 Y4.2529 Z-0.2287
N10320 X3.9989 Y4.2553 Z-0.2288
N10325 X3.9994 Y4.2576
N10330 X3.9998 Y4.26 Z-0.2289
N10335 X4.0001 Y4.2624 Z-0.229
N10340 X4.0004 Y4.2649 Z-0.2291
N10345 X4.0005 Y4.2673 Z-0.2292
N10350 Y4.2697 Z-0.2293
N10355 X4.0002 Y4.2746 Z-0.2294
N10360 X3.9995 Y4.2794 Z-0.2296
N10365 X3.999 Y4.2818 Z-0.2297
N10370 X3.9984 Y4.2841 Z-0.2298
N10375 X3.9969 Y4.2887 Z-0.2299
N10380 X3.995 Y4.2932 Z-0.2301
N10385 X3.9927 Y4.2975 Z-0.2303
N10390 X3.9915 Y4.2996 Z-0.2304
N10395 X3.9901 Y4.3016 Z-0.2305
N10400 X3.9887 Y4.3036
N10405 X3.9872 Y4.3055 Z-0.2306
N10410 X3.9856 Y4.3073 Z-0.2307
N10415 X3.9839 Y4.3091 Z-0.2308
N10420 X3.9821 Y4.3108 Z-0.2309
N10425 X3.9803 Y4.3124 Z-0.231
N10430 X3.9785 Y4.3139
N10435 X3.9765 Y4.3154 Z-0.2311
N10440 X3.9745 Y4.3167 Z-0.2312
N10445 X3.9724 Y4.318 Z-0.2313
N10450 X3.9682 Y4.3203 Z-0.2315
N10455 X3.966 Y4.3213 Z-0.2316
N10460 X3.9637 Y4.3222
N10465 X3.9614 Y4.3231 Z-0.2317
N10470 X3.9591 Y4.3238 Z-0.2318
N10475 X3.9568 Y4.3244 Z-0.2319
N10480 X3.9544 Y4.3249 Z-0.232
N10485 X3.952 Y4.3253 Z-0.2321
N10490 X3.9496 Y4.3257
N10495 X3.9472 Y4.3259 Z-0.2322
N10500 X3.9447 Y4.326 Z-0.2323
N10505 X3.9423 Z-0.2324
N10510 X3.9399 Y4.3259 Z-0.2325
N10515 X3.9375 Y4.3257 Z-0.2326
N10520 X3.9351 Y4.3254 Z-0.2327
N10525 X3.9327 Y4.325
N10530 X3.9303 Y4.3245 Z-0.2328
N10535 X3.928 Y4.3239 Z-0.2329
N10540 X3.9256 Y4.3232 Z-0.233
N10545 X3.9211 Y4.3215 Z-0.2332
N10550 X3.9189 Y4.3205
N10555 X3.9167 Y4.3194 Z-0.2333
N10560 X3.9146 Y4.3183 Z-0.2334
N10565 X3.9125 Y4.317 Z-0.2335
N10570 X3.9105 Y4.3156 Z-0.2336
N10575 X3.9086 Y4.3142 Z-0.2337
N10580 X3.9067 Y4.3127 Z-0.2338
N10585 X3.9048 Y4.3111
N10590 X3.9031 Y4.3094 Z-0.2339
N10595 X3.9014 Y4.3077 Z-0.234
N10600 X3.8998 Y4.3059 Z-0.2341
N10605 X3.8983 Y4.304 Z-0.2342
N10610 X3.8968 Y4.3021 Z-0.2343
N10615 X3.8955 Y4.3001
N10620 X3.8942 Y4.298 Z-0.2344
N10625 X3.893 Y4.2959 Z-0.2345
N10630 X3.8909 Y4.2915 Z-0.2347
N10635 X3.89 Y4.2893 Z-0.2348
N10640 X3.8892 Y4.287
N10645 X3.8884 Y4.2847 Z-0.2349
N10650 X3.8878 Y4.2824 Z-0.235
N10655 X3.8873 Y4.28 Z-0.2351
N10660 X3.8869 Y4.2776 Z-0.2352
N10665 X3.8866 Y4.2752 Z-0.2353
N10670 X3.8864 Y4.2728 Z-0.2354
N10675 X3.8862 Y4.2704
N10680 Y4.268 Z-0.2355
N10685 X3.8863 Y4.2656 Z-0.2356
N10690 X3.8865 Y4.2631 Z-0.2357
N10695 X3.8868 Y4.2607 Z-0.2358
N10700 X3.8872 Y4.2584 Z-0.2359
N10705 X3.8877 Y4.256
N10710 X3.8883 Y4.2536 Z-0.236
N10715 X3.8898 Y4.249 Z-0.2362
N10720 X3.89 Y4.2485
N10725 X3.8901 Y4.2483
N10730 X3.8906 Y4.2471 Z-0.2363
N10735 X3.8911 Y4.246
N10740 X3.8921 Y4.2436 Z-0.2364
N10745 X3.8933 Y4.2414 Z-0.2365
N10750 X3.8946 Y4.2392 Z-0.2366
N10755 X3.896 Y4.237 Z-0.2367
N10760 X3.8975 Y4.2349 Z-0.2368
N10765 X3.8991 Y4.2329
N10770 X3.9008 Y4.2309 Z-0.2369
N10775 X3.9025 Y4.2291 Z-0.237
N10780 X3.9043 Y4.2273 Z-0.2371
N10785 X3.9062 Y4.2256 Z-0.2372
N10790 X3.9082 Y4.224 Z-0.2373
N10795 X3.9102 Y4.2225 Z-0.2374
N10800 X3.9123 Y4.2211 Z-0.2375
N10805 X3.9145 Y4.2197 Z-0.2376
N10810 X3.9168 Y4.2185
N10815 X3.9191 Y4.2174 Z-0.2377
N10820 X3.9214 Y4.2163 Z-0.2378
N10825 X3.9238 Y4.2154 Z-0.2379
N10830 X3.9263 Y4.2146 Z-0.238
N10835 X3.9287 Y4.2139 Z-0.2381
N10840 X3.9312 Y4.2133 Z-0.2382
N10845 X3.9337 Y4.2128 Z-0.2383
N10850 X3.9362 Y4.2124 Z-0.2384
N10855 X3.9387 Y4.2122
N10860 X3.9413 Y4.212 Z-0.2385
N10865 X3.9438 Z-0.2386
N10870 X3.9464 Y4.2121 Z-0.2387
N10875 X3.9489 Y4.2123 Z-0.2388
N10880 X3.9514 Y4.2126 Z-0.2389
N10885 X3.9539 Y4.2131 Z-0.239
N10890 X3.9564 Y4.2136 Z-0.2391
N10895 X3.9589 Y4.2142 Z-0.2392
N10900 X3.9613 Y4.215
N10905 X3.9637 Y4.2159 Z-0.2393
N10910 X3.966 Y4.2169 Z-0.2394
N10915 X3.9684 Y4.2179 Z-0.2395
N10920 X3.9706 Y4.2191 Z-0.2396
N10925 X3.9729 Y4.2204 Z-0.2397
N10930 X3.975 Y4.2218 Z-0.2398
N10935 X3.9771 Y4.2233 Z-0.2399
N10940 X3.9791 Y4.2249 Z-0.24
N10945 X3.981 Y4.2265
N10950 X3.9829 Y4.2282 Z-0.2401
N10955 X3.9846 Y4.2301 Z-0.2402
N10960 X3.9863 Y4.232 Z-0.2403
N10965 X3.9879 Y4.2339 Z-0.2404
N10970 X3.9894 Y4.236 Z-0.2405
N10975 X3.9909 Y4.2381 Z-0.2406
N10980 X3.9922 Y4.2402 Z-0.2407
N10985 X3.9934 Y4.2425 Z-0.2408
N10990 X3.9945 Y4.2447
N10995 X3.9956 Y4.2471 Z-0.2409
N11000 X3.9965 Y4.2495 Z-0.241
N11005 X3.9973 Y4.2519 Z-0.2411
N11010 X3.998 Y4.2544 Z-0.2412
N11015 X3.9986 Y4.2568 Z-0.2413
N11020 X3.9991 Y4.2593 Z-0.2414
N11025 X3.9995 Y4.2618 Z-0.2415
N11030 X3.9997 Y4.2644 Z-0.2416
N11035 X3.9999 Y4.2669
N11040 Y4.2695 Z-0.2417
N11045 X3.9995 Y4.2746 Z-0.2419
N11050 X3.9988 Y4.2796 Z-0.2421
N11055 X3.9983 Y4.282 Z-0.2422
N11060 X3.9976 Y4.2845 Z-0.2423
N11065 X3.996 Y4.2893 Z-0.2424
N11070 X3.9939 Y4.294 Z-0.2426
N11075 X3.9927 Y4.2962 Z-0.2427
N11080 X3.9915 Y4.2984 Z-0.2428
N11085 X3.9901 Y4.3006 Z-0.2429
N11090 X3.9886 Y4.3026 Z-0.243
N11095 X3.9871 Y4.3046 Z-0.2431
N11100 X3.9854 Y4.3066 Z-0.2432
N11105 X3.9837 Y4.3084
N11110 X3.9819 Y4.3102 Z-0.2433
N11115 X3.98 Y4.3119 Z-0.2434
N11120 X3.978 Y4.3135 Z-0.2435
N11125 X3.9759 Y4.315 Z-0.2436
N11130 X3.9738 Y4.3164 Z-0.2437
N11135 X3.9717 Y4.3177 Z-0.2438
N11140 X3.9695 Y4.319 Z-0.2439
N11145 X3.9672 Y4.3201
N11150 X3.9649 Y4.3211 Z-0.244
N11155 X3.9625 Y4.322 Z-0.2441
N11160 X3.9601 Y4.3228 Z-0.2442
N11165 X3.9577 Y4.3235 Z-0.2443
N11170 X3.9552 Y4.3241 Z-0.2444
N11175 X3.9527 Y4.3246 Z-0.2445
N11180 X3.9502 Y4.3249 Z-0.2446
N11185 X3.9477 Y4.3252 Z-0.2447
N11190 X3.9451 Y4.3253
N11195 X3.9426 Y4.3254 Z-0.2448
N11200 X3.9401 Y4.3253 Z-0.2449
N11205 X3.9376 Y4.3251 Z-0.245
N11210 X3.9351 Y4.3248 Z-0.2451
N11215 X3.9326 Y4.3243 Z-0.2452
N11220 X3.9301 Y4.3238 Z-0.2453
N11225 X3.9276 Y4.3231 Z-0.2454
N11230 X3.9252 Y4.3224 Z-0.2455
N11235 X3.9228 Y4.3215
N11240 X3.9205 Y4.3205 Z-0.2456
N11245 X3.9182 Y4.3195 Z-0.2457
N11250 X3.9159 Y4.3183 Z-0.2458
N11255 X3.9138 Y4.317 Z-0.2459
N11260 X3.9116 Y4.3156 Z-0.246
N11265 X3.9096 Y4.3142 Z-0.2461
N11270 X3.9076 Y4.3126 Z-0.2462
N11275 X3.9056 Y4.311
N11280 X3.9038 Y4.3092 Z-0.2463
N11285 X3.902 Y4.3074 Z-0.2464
N11290 X3.9003 Y4.3055 Z-0.2465
N11295 X3.8987 Y4.3036 Z-0.2466
N11300 X3.8972 Y4.3015 Z-0.2467
N11305 X3.8958 Y4.2994 Z-0.2468
N11310 X3.8945 Y4.2973 Z-0.2469
N11315 X3.8933 Y4.2951 Z-0.247
N11320 X3.8921 Y4.2928
N11325 X3.8911 Y4.2905 Z-0.2471
N11330 X3.8902 Y4.2881 Z-0.2472
N11335 X3.8894 Y4.2857 Z-0.2473
N11340 X3.8887 Y4.2833 Z-0.2474
N11345 X3.8881 Y4.2808 Z-0.2475
N11350 X3.8876 Y4.2783 Z-0.2476
N11355 X3.8873 Y4.2758 Z-0.2477
N11360 X3.887 Y4.2733
N11365 X3.8869 Y4.2708 Z-0.2478
N11370 Y4.2683 Z-0.2479
N11375 Y4.2658 Z-0.248
N11380 X3.8871 Y4.2632 Z-0.2481
N11385 X3.8875 Y4.2607 Z-0.2482
N11390 X3.8879 Y4.2582 Z-0.2483
N11395 X3.8884 Y4.2557 Z-0.2484
N11400 X3.8891 Y4.2533 Z-0.2485
N11405 X3.8898 Y4.2509
N11410 X3.8907 Y4.2485 Z-0.2486
N11415 X3.8916 Y4.2462 Z-0.2487
N11420 X3.8927 Y4.2439 Z-0.2488
N11425 X3.8939 Y4.2417 Z-0.2489
N11430 X3.8952 Y4.2395 Z-0.249
N11435 X3.8965 Y4.2374 Z-0.2491
N11440 X3.898 Y4.2353 Z-0.2492
N11445 X3.8996 Y4.2333
N11450 X3.9012 Y4.2314 Z-0.2493
N11455 X3.9029 Y4.2295 Z-0.2494
N11460 X3.9047 Y4.2278 Z-0.2495
N11465 X3.9066 Y4.2261 Z-0.2496
N11470 X3.9086 Y4.2245 Z-0.2497
N11475 X3.9106 Y4.223 Z-0.2498
N11480 X3.9127 Y4.2216 Z-0.2499
N11485 X3.9148 Y4.2203 Z-0.25
N11490 X3.9171 Y4.219
N11495 X3.9193 Y4.2179 Z-0.2501
N11500 X3.9217 Y4.2169 Z-0.2502
N11505 X3.924 Y4.216 Z-0.2503
N11510 X3.9264 Y4.2152 Z-0.2504
N11515 X3.9288 Y4.2145 Z-0.2505
N11520 X3.9313 Y4.2139 Z-0.2506
N11525 X3.9338 Y4.2134 Z-0.2507
N11530 X3.9362 Y4.2131
N11535 X3.9388 Y4.2128 Z-0.2508
N11540 X3.9413 Y4.2127 Z-0.2509
N11545 X3.9438 Z-0.251
N11550 X3.9463 Z-0.2511
N11555 X3.9488 Y4.2129 Z-0.2512
N11560 X3.9513 Y4.2133 Z-0.2513
N11565 X3.9538 Y4.2137 Z-0.2514
N11570 X3.9563 Y4.2142
N11575 X3.9587 Y4.2149 Z-0.2515
N11580 X3.9611 Y4.2156 Z-0.2516
N11585 X3.9635 Y4.2165 Z-0.2517
N11590 X3.9658 Y4.2174 Z-0.2518
N11595 X3.9681 Y4.2185 Z-0.2519
N11600 X3.9703 Y4.2197 Z-0.252
N11605 X3.9725 Y4.221 Z-0.2521
N11610 X3.9747 Y4.2223 Z-0.2522
N11615 X3.9767 Y4.2238
N11620 X3.9787 Y4.2253 Z-0.2523
N11625 X3.9806 Y4.227 Z-0.2524
N11630 X3.9824 Y4.2287 Z-0.2525
N11635 X3.9842 Y4.2305 Z-0.2526
N11640 X3.9858 Y4.2324 Z-0.2527
N11645 X3.9874 Y4.2343 Z-0.2528
N11650 X3.9889 Y4.2363 Z-0.2529
N11655 X3.9903 Y4.2384
N11660 X3.9917 Y4.2406 Z-0.253
N11665 X3.9929 Y4.2428 Z-0.2531
N11670 X3.994 Y4.245 Z-0.2532
N11675 X3.995 Y4.2473 Z-0.2533
N11680 X3.9959 Y4.2497 Z-0.2534
N11685 X3.9967 Y4.2521 Z-0.2535
N11690 X3.9974 Y4.2545 Z-0.2536
N11695 X3.998 Y4.257
N11700 X3.9985 Y4.2594 Z-0.2537
N11705 X3.9988 Y4.2619 Z-0.2538
N11710 X3.9991 Y4.2644 Z-0.2539
N11715 X3.9992 Y4.2669 Z-0.254
N11720 Y4.2695 Z-0.2541
N11725 X3.9989 Y4.2745 Z-0.2543
N11730 X3.9982 Y4.2794 Z-0.2544
N11735 X3.9977 Y4.2819 Z-0.2545
N11740 X3.997 Y4.2843 Z-0.2546
N11745 X3.9954 Y4.2891 Z-0.2548
N11750 X3.9934 Y4.2937 Z-0.255
N11755 X3.9922 Y4.2959
N11760 X3.991 Y4.2981 Z-0.2551
N11765 X3.9896 Y4.3002 Z-0.2552
N11770 X3.9881 Y4.3023 Z-0.2553
N11775 X3.9866 Y4.3042 Z-0.2554
N11780 X3.985 Y4.3061 Z-0.2555
N11785 X3.9832 Y4.308 Z-0.2556
N11790 X3.9814 Y4.3097 Z-0.2557
N11795 X3.9796 Y4.3114
N11800 X3.9776 Y4.313 Z-0.2558
N11805 X3.9756 Y4.3145 Z-0.2559
N11810 X3.9735 Y4.3159 Z-0.256
N11815 X3.9714 Y4.3172 Z-0.2561
N11820 X3.9692 Y4.3184 Z-0.2562
N11825 X3.9669 Y4.3195 Z-0.2563
N11830 X3.9646 Y4.3205 Z-0.2564
N11835 X3.9623 Y4.3214
N11840 X3.9599 Y4.3222 Z-0.2565
N11845 X3.9575 Y4.3229 Z-0.2566
N11850 X3.9551 Y4.3235 Z-0.2567
N11855 X3.9526 Y4.324 Z-0.2568
N11860 X3.9501 Y4.3243 Z-0.2569
N11865 X3.9476 Y4.3246 Z-0.257
N11870 X3.9451 Y4.3247 Z-0.2571
N11875 X3.9426
N11880 X3.9401 Z-0.2572
N11885 X3.9376 Y4.3245 Z-0.2573
N11890 X3.9351 Y4.3241 Z-0.2574
N11895 X3.9327 Y4.3237 Z-0.2575
N11900 X3.9302 Y4.3232 Z-0.2576
N11905 X3.9278 Y4.3225 Z-0.2577
N11910 X3.9254 Y4.3218 Z-0.2578
N11915 X3.923 Y4.3209
N11920 X3.9207 Y4.32 Z-0.2579
N11925 X3.9185 Y4.3189 Z-0.258
N11930 X3.9162 Y4.3177 Z-0.2581
N11935 X3.9141 Y4.3165 Z-0.2582
N11940 X3.912 Y4.3151 Z-0.2583
N11945 X3.9099 Y4.3137 Z-0.2584
N11950 X3.9079 Y4.3121 Z-0.2585
N11955 X3.906 Y4.3105
N11960 X3.9042 Y4.3088 Z-0.2586
N11965 X3.9025 Y4.307 Z-0.2587
N11970 X3.9008 Y4.3051 Z-0.2588
N11975 X3.8992 Y4.3032 Z-0.2589
N11980 X3.8977 Y4.3012 Z-0.259
N11985 X3.8963 Y4.2991 Z-0.2591
N11990 X3.895 Y4.297 Z-0.2592
N11995 X3.8938 Y4.2948
N12000 X3.8927 Y4.2925 Z-0.2593
N12005 X3.8917 Y4.2902 Z-0.2594
N12010 X3.8908 Y4.2879 Z-0.2595
N12015 X3.89 Y4.2855 Z-0.2596
N12020 X3.8893 Y4.2831 Z-0.2597
N12025 X3.8887 Y4.2807 Z-0.2598
N12030 X3.8883 Y4.2782 Z-0.2599
N12035 X3.8879 Y4.2758
N12040 X3.8876 Y4.2733 Z-0.26
N12045 X3.8875 Y4.2708 Z-0.2601
N12050 Y4.2683 Z-0.2602
N12055 X3.8876 Y4.2658 Z-0.2603
N12060 X3.8878 Y4.2633 Z-0.2604
N12065 X3.8881 Y4.2608 Z-0.2605
N12070 X3.8885 Y4.2583 Z-0.2606
N12075 X3.889 Y4.2559
N12080 X3.8897 Y4.2535 Z-0.2607
N12085 X3.8904 Y4.2511 Z-0.2608
N12090 X3.8913 Y4.2487 Z-0.2609
N12095 X3.8922 Y4.2464 Z-0.261
N12100 X3.8933 Y4.2442 Z-0.2611
N12105 X3.8944 Y4.242 Z-0.2612
N12110 X3.8957 Y4.2398
N12115 X3.8971 Y4.2377 Z-0.2613
N12120 X3.8985 Y4.2357 Z-0.2614
N12125 X3.9001 Y4.2337 Z-0.2615
N12130 X3.9017 Y4.2318 Z-0.2616
N12135 X3.9034 Y4.23 Z-0.2617
N12140 X3.9052 Y4.2282 Z-0.2618
N12145 X3.907 Y4.2266 Z-0.2619
N12150 X3.909 Y4.225
N12155 X3.911 Y4.2235 Z-0.262
N12160 X3.913 Y4.2221 Z-0.2621
N12165 X3.9152 Y4.2208 Z-0.2622
N12170 X3.9174 Y4.2196 Z-0.2623
N12175 X3.9196 Y4.2185 Z-0.2624
N12180 X3.9219 Y4.2175 Z-0.2625
N12185 X3.9242 Y4.2166 Z-0.2626
N12190 X3.9266 Y4.2158
N12195 X3.929 Y4.2151 Z-0.2627
N12200 X3.9314 Y4.2145 Z-0.2628
N12205 X3.9339 Y4.214 Z-0.2629
N12210 X3.9363 Y4.2137 Z-0.263
N12215 X3.9388 Y4.2134 Z-0.2631
N12220 X3.9413 Y4.2133 Z-0.2632
N12225 X3.9438 Z-0.2633
N12230 X3.9463 Y4.2134
N12235 X3.9488 Y4.2136 Z-0.2634
N12240 X3.9512 Y4.2139 Z-0.2635
N12245 X3.9537 Y4.2143 Z-0.2636
N12250 X3.9561 Y4.2148 Z-0.2637
N12255 X3.9585 Y4.2155 Z-0.2638
N12260 X3.9609 Y4.2162 Z-0.2639
N12265 X3.9633 Y4.217
N12270 X3.9656 Y4.218 Z-0.264
N12275 X3.9678 Y4.2191 Z-0.2641
N12280 X3.97 Y4.2202 Z-0.2642
N12285 X3.9722 Y4.2215 Z-0.2643
N12290 X3.9743 Y4.2228 Z-0.2644
N12295 X3.9763 Y4.2243 Z-0.2645
N12300 X3.9783 Y4.2258 Z-0.2646
N12305 X3.9802 Y4.2274
N12310 X3.982 Y4.2291 Z-0.2647
N12315 X3.9837 Y4.2309 Z-0.2648
N12320 X3.9854 Y4.2328 Z-0.2649
N12325 X3.9869 Y4.2347 Z-0.265
N12330 X3.9884 Y4.2367 Z-0.2651
N12335 X3.9898 Y4.2388 Z-0.2652
N12340 X3.9911 Y4.2409 Z-0.2653
N12345 X3.9923 Y4.2431
N12350 X3.9934 Y4.2453 Z-0.2654
N12355 X3.9944 Y4.2476 Z-0.2655
N12360 X3.9953 Y4.2499 Z-0.2656
N12365 X3.9961 Y4.2523 Z-0.2657
N12370 X3.9968 Y4.2547 Z-0.2658
N12375 X3.9974 Y4.2571 Z-0.2659
N12380 X3.9979 Y4.2595
N12385 X3.9982 Y4.262 Z-0.266
N12390 X3.9985 Y4.2645 Z-0.2661
N12395 X3.9986 Y4.2669 Z-0.2662
N12400 Y4.2694 Z-0.2663
N12405 X3.9983 Y4.2744 Z-0.2665
N12410 X3.9976 Y4.2793 Z-0.2666
N12415 X3.9971 Y4.2817 Z-0.2667
N12420 X3.9964 Y4.2841 Z-0.2668
N12425 X3.9948 Y4.2888 Z-0.267
N12430 X3.9928 Y4.2934 Z-0.2672
N12435 X3.9917 Y4.2956
N12440 X3.9904 Y4.2978 Z-0.2673
N12445 X3.9891 Y4.2998 Z-0.2674
N12450 X3.9876 Y4.3019 Z-0.2675
N12455 X3.9861 Y4.3038 Z-0.2676
N12460 X3.9845 Y4.3057 Z-0.2677
N12465 X3.9828 Y4.3075 Z-0.2678
N12470 X3.981 Y4.3093 Z-0.2679
N12475 X3.9792 Y4.3109
N12480 X3.9772 Y4.3125 Z-0.268
N12485 X3.9752 Y4.314 Z-0.2681
N12490 X3.9732 Y4.3154 Z-0.2682
N12495 X3.9711 Y4.3166 Z-0.2683
N12500 X3.9689 Y4.3178 Z-0.2684
N12505 X3.9667 Y4.3189 Z-0.2685
N12510 X3.9644 Y4.3199
N12515 X3.9621 Y4.3208 Z-0.2686
N12520 X3.9597 Y4.3216 Z-0.2687
N12525 X3.9574 Y4.3223 Z-0.2688
N12530 X3.9549 Y4.3229 Z-0.2689
N12535 X3.9525 Y4.3234 Z-0.269
N12540 X3.9501 Y4.3237 Z-0.2691
N12545 X3.9476 Y4.324 Z-0.2692
N12550 X3.9451 Y4.3241
N12555 X3.9426 Z-0.2693
N12560 X3.9401 Y4.324 Z-0.2694
N12565 X3.9377 Y4.3238 Z-0.2695
N12570 X3.9352 Y4.3235 Z-0.2696
N12575 X3.9328 Y4.3231 Z-0.2697
N12580 X3.9303 Y4.3226 Z-0.2698
N12585 X3.928 Y4.3219
N12590 X3.9256 Y4.3212 Z-0.2699
N12595 X3.9233 Y4.3204 Z-0.27
N12600 X3.921 Y4.3194 Z-0.2701
N12605 X3.9187 Y4.3184 Z-0.2702
N12610 X3.9165 Y4.3172 Z-0.2703
N12615 X3.9144 Y4.316 Z-0.2704
N12620 X3.9123 Y4.3146
N12625 X3.9103 Y4.3132 Z-0.2705
N12630 X3.9083 Y4.3116 Z-0.2706
N12635 X3.9065 Y4.31 Z-0.2707
N12640 X3.9046 Y4.3083 Z-0.2708
N12645 X3.9029 Y4.3066 Z-0.2709
N12650 X3.9013 Y4.3047 Z-0.271
N12655 X3.8997 Y4.3028 Z-0.2711
N12660 X3.8982 Y4.3008
N12665 X3.8968 Y4.2988 Z-0.2712
N12670 X3.8956 Y4.2966 Z-0.2713
N12675 X3.8944 Y4.2945 Z-0.2714
N12680 X3.8933 Y4.2923 Z-0.2715
N12685 X3.8923 Y4.29 Z-0.2716
N12690 X3.8914 Y4.2877 Z-0.2717
N12695 X3.8906 Y4.2853
N12700 X3.8899 Y4.283 Z-0.2718
N12705 X3.8893 Y4.2806 Z-0.2719
N12710 X3.8889 Y4.2781 Z-0.272
N12715 X3.8885 Y4.2757 Z-0.2721
N12720 X3.8883 Y4.2732 Z-0.2722
N12725 X3.8881 Y4.2707 Z-0.2723
N12730 Y4.2683
N12735 X3.8882 Y4.2658 Z-0.2724
N12740 X3.8884 Y4.2633 Z-0.2725
N12745 X3.8887 Y4.2609 Z-0.2726
N12750 X3.8891 Y4.2584 Z-0.2727
N12755 X3.8896 Y4.256 Z-0.2728
N12760 X3.8903 Y4.2536 Z-0.2729
N12765 X3.891 Y4.2513
N12770 X3.8918 Y4.249 Z-0.273
N12775 X3.8928 Y4.2467 Z-0.2731
N12780 X3.8938 Y4.2444 Z-0.2732
N12785 X3.895 Y4.2423 Z-0.2733
N12790 X3.8962 Y4.2401 Z-0.2734
N12795 X3.8976 Y4.238 Z-0.2735
N12800 X3.899 Y4.236 Z-0.2736
N12805 X3.9005 Y4.2341
N12810 X3.9021 Y4.2322 Z-0.2737
N12815 X3.9038 Y4.2304 Z-0.2738
N12820 X3.9056 Y4.2287 Z-0.2739
N12825 X3.9074 Y4.227 Z-0.274
N12830 X3.9093 Y4.2255 Z-0.2741
N12835 X3.9113 Y4.224 Z-0.2742
N12840 X3.9134 Y4.2226
N12845 X3.9155 Y4.2213 Z-0.2743
N12850 X3.9176 Y4.2201 Z-0.2744
N12855 X3.9199 Y4.219 Z-0.2745
N12860 X3.9221 Y4.2181 Z-0.2746
N12865 X3.9244 Y4.2172 Z-0.2747
N12870 X3.9268 Y4.2164 Z-0.2748
N12875 X3.9291 Y4.2157
N12880 X3.9315 Y4.2151 Z-0.2749
N12885 X3.934 Y4.2147 Z-0.275
N12890 X3.9364 Y4.2143 Z-0.2751
N12895 X3.9389 Y4.214 Z-0.2752
N12900 X3.9413 Y4.2139 Z-0.2753
N12905 X3.9438 Z-0.2754
N12910 X3.9462 Y4.214
N12915 X3.9503 Y4.2144 Z-0.2756
N12920 X3.9505
N12925 X3.9507
N12930 X3.9518 Y4.2146
N12935 X3.953 Y4.2148 Z-0.2757
N12940 X3.9555 Y4.2153 Z-0.2758
N12945 X3.9579 Y4.2159 Z-0.2759
N12950 X3.9604 Y4.2167
N12955 X3.9628 Y4.2175 Z-0.276
N12960 X3.9651 Y4.2185 Z-0.2761
N12965 X3.9674 Y4.2196 Z-0.2762
N12970 X3.9697 Y4.2207 Z-0.2763
N12975 X3.9719 Y4.222 Z-0.2764
N12980 X3.974 Y4.2234 Z-0.2765
N12985 X3.9761 Y4.2249 Z-0.2766
N12990 X3.9781 Y4.2264 Z-0.2767
N12995 X3.98 Y4.2281
N13000 X3.9818 Y4.2298 Z-0.2768
N13005 X3.9836 Y4.2317 Z-0.2769
N13010 X3.9853 Y4.2336 Z-0.277
N13015 X3.9868 Y4.2356 Z-0.2771
N13020 X3.9883 Y4.2376 Z-0.2772
N13025 X3.9897 Y4.2398 Z-0.2773
N13030 X3.991 Y4.2419 Z-0.2774
N13035 X3.9922 Y4.2442
N13040 X3.9933 Y4.2465 Z-0.2775
N13045 X3.9943 Y4.2488 Z-0.2776
N13050 X3.9951 Y4.2512 Z-0.2777
N13055 X3.9959 Y4.2536 Z-0.2778
N13060 X3.9965 Y4.256 Z-0.2779
N13065 X3.9971 Y4.2585 Z-0.278
N13070 X3.9975 Y4.261 Z-0.2781
N13075 X3.9978 Y4.2635 Z-0.2782
N13080 X3.998 Y4.2661
N13085 Y4.2673 Z-0.2783
N13090 Y4.2686
N13095 X3.9979 Y4.2712 Z-0.2784
N13100 X3.9975 Y4.2762 Z-0.2786
N13105 X3.9971 Y4.2787 Z-0.2787
N13110 X3.9966 Y4.2811 Z-0.2788
N13115 X3.9952 Y4.286 Z-0.2789
N13120 X3.9944 Y4.2883 Z-0.279
N13125 X3.9934 Y4.2907 Z-0.2791
N13130 X3.9912 Y4.2952 Z-0.2793
N13135 X3.9899 Y4.2974 Z-0.2794
N13140 X3.9885 Y4.2996 Z-0.2795
N13145 X3.9871 Y4.3016 Z-0.2796
N13150 X3.9855 Y4.3036 Z-0.2797
N13155 X3.9838 Y4.3055
N13160 X3.9821 Y4.3074 Z-0.2798
N13165 X3.9803 Y4.3091 Z-0.2799
N13170 X3.9784 Y4.3108 Z-0.28
N13175 X3.9764 Y4.3123 Z-0.2801
N13180 X3.9743 Y4.3138 Z-0.2802
N13185 X3.9722 Y4.3152 Z-0.2803
N13190 X3.97 Y4.3165 Z-0.2804
N13195 X3.9678 Y4.3177
N13200 X3.9655 Y4.3188 Z-0.2805
N13205 X3.9632 Y4.3197 Z-0.2806
N13210 X3.9608 Y4.3206 Z-0.2807
N13215 X3.9584 Y4.3214 Z-0.2808
N13220 X3.956 Y4.322 Z-0.2809
N13225 X3.9535 Y4.3225 Z-0.281
N13230 X3.951 Y4.3229 Z-0.2811
N13235 X3.9485 Y4.3232 Z-0.2812
N13240 X3.946 Y4.3234
N13245 X3.9435 Y4.3235 Z-0.2813
N13250 X3.9409 Y4.3234 Z-0.2814
N13255 X3.9384 Y4.3233 Z-0.2815
N13260 X3.9372 Y4.3231
N13265 X3.9359 Y4.323 Z-0.2816
N13270 X3.9334 Y4.3226 Z-0.2817
N13275 X3.931 Y4.3221 Z-0.2818
N13280 X3.9285 Y4.3214 Z-0.2819
N13285 X3.9261 Y4.3207
N13290 X3.9237 Y4.3198 Z-0.282
N13295 X3.9214 Y4.3189 Z-0.2821
N13300 X3.9191 Y4.3178 Z-0.2822
N13305 X3.9169 Y4.3166 Z-0.2823
N13310 X3.9147 Y4.3154 Z-0.2824
N13315 X3.9126 Y4.314 Z-0.2825
N13320 X3.9105 Y4.3125 Z-0.2826
N13325 X3.9085 Y4.3109
N13330 X3.9066 Y4.3093 Z-0.2827
N13335 X3.9048 Y4.3076 Z-0.2828
N13340 X3.9031 Y4.3058 Z-0.2829
N13345 X3.9014 Y4.3039 Z-0.283
N13350 X3.8999 Y4.3019 Z-0.2831
N13355 X3.8984 Y4.2999 Z-0.2832
N13360 X3.897 Y4.2978 Z-0.2833
N13365 X3.8957 Y4.2956 Z-0.2834
N13370 X3.8945 Y4.2934
N13375 X3.8935 Y4.2911 Z-0.2835
N13380 X3.8925 Y4.2888 Z-0.2836
N13385 X3.8916 Y4.2864 Z-0.2837
N13390 X3.8909 Y4.284 Z-0.2838
N13395 X3.8902 Y4.2816 Z-0.2839
N13400 X3.8897 Y4.2791 Z-0.284
N13405 X3.8893 Y4.2766 Z-0.2841
N13410 X3.889 Y4.2741
N13415 X3.8888 Y4.2716 Z-0.2842
N13420 Y4.2691 Z-0.2843
N13425 Y4.2666 Z-0.2844
N13430 X3.889 Y4.2641 Z-0.2845
N13435 X3.8893 Y4.2616 Z-0.2846
N13440 X3.8895 Y4.2604
N13445 X3.8897 Y4.2591 Z-0.2847
N13450 X3.8902 Y4.2567 Z-0.2848
N13455 X3.8908 Y4.2542
N13460 X3.8915 Y4.2518 Z-0.2849
N13465 X3.8924 Y4.2494 Z-0.285
N13470 X3.8934 Y4.2471 Z-0.2851
N13475 X3.8944 Y4.2448 Z-0.2852
N13480 X3.8956 Y4.2426 Z-0.2853
N13485 X3.8968 Y4.2404 Z-0.2854
N13490 X3.8982 Y4.2383 Z-0.2855
N13495 X3.8997 Y4.2363
N13500 X3.9012 Y4.2343 Z-0.2856
N13505 X3.9029 Y4.2324 Z-0.2857
N13510 X3.9046 Y4.2306 Z-0.2858
N13515 X3.9064 Y4.2289 Z-0.2859
N13520 X3.9083 Y4.2272 Z-0.286
N13525 X3.9103 Y4.2256 Z-0.2861
N13530 X3.9123 Y4.2242 Z-0.2862
N13535 X3.9144 Y4.2228
N13540 X3.9166 Y4.2215 Z-0.2863
N13545 X3.9188 Y4.2203 Z-0.2864
N13550 X3.9211 Y4.2193 Z-0.2865
N13555 X3.9234 Y4.2183 Z-0.2866
N13560 X3.9257 Y4.2175 Z-0.2867
N13565 X3.9281 Y4.2167 Z-0.2868
N13570 X3.9305 Y4.2161 Z-0.2869
N13575 X3.933 Y4.2155
N13580 X3.9354 Y4.2151 Z-0.287
N13585 X3.9379 Y4.2148 Z-0.2871
N13590 X3.9405 Y4.2147 Z-0.2872
N13595 X3.943 Y4.2146 Z-0.2873
N13600 X3.9455 Z-0.2874
N13605 X3.9479 Y4.2148 Z-0.2875
N13610 X3.9504 Y4.2151 Z-0.2876
N13615 X3.9517 Y4.2153
N13620 X3.9529 Y4.2155
N13625 X3.9553 Y4.216 Z-0.2877
N13630 X3.9578 Y4.2166 Z-0.2878
N13635 X3.9602 Y4.2173 Z-0.2879
N13640 X3.9625 Y4.2182 Z-0.288
N13645 X3.9648 Y4.2191 Z-0.2881
N13650 X3.9671 Y4.2202 Z-0.2882
N13655 X3.9694 Y4.2214 Z-0.2883
N13660 X3.9715 Y4.2226
N13665 X3.9736 Y4.224 Z-0.2884
N13670 X3.9756 Y4.2254 Z-0.2885
N13675 X3.9776 Y4.227 Z-0.2886
N13680 X3.9795 Y4.2286 Z-0.2887
N13685 X3.9813 Y4.2304 Z-0.2888
N13690 X3.9831 Y4.2322 Z-0.2889
N13695 X3.9847 Y4.2341 Z-0.289
N13700 X3.9863 Y4.236
N13705 X3.9877 Y4.238 Z-0.2891
N13710 X3.9891 Y4.2401 Z-0.2892
N13715 X3.9904 Y4.2423 Z-0.2893
N13720 X3.9915 Y4.2445 Z-0.2894
N13725 X3.9926 Y4.2468 Z-0.2895
N13730 X3.9936 Y4.2491 Z-0.2896
N13735 X3.9944 Y4.2514
N13740 X3.9952 Y4.2538 Z-0.2897
N13745 X3.9958 Y4.2562 Z-0.2898
N13750 X3.9963 Y4.2586 Z-0.2899
N13755 X3.9967 Y4.2611 Z-0.29
N13760 X3.997 Y4.2636 Z-0.2901
N13765 X3.9972 Y4.2661 Z-0.2902
N13770 X3.9973 Y4.2673
N13775 Y4.2686 Z-0.2903
N13780 X3.9972 Y4.2711
N13785 X3.9968 Y4.2761 Z-0.2905
N13790 X3.9964 Y4.2785 Z-0.2906
N13795 X3.9958 Y4.281 Z-0.2907
N13800 X3.9945 Y4.2857 Z-0.2909
N13805 X3.9937 Y4.2881 Z-0.291
N13810 X3.9927 Y4.2904
N13815 X3.9905 Y4.2949 Z-0.2912
N13820 X3.9893 Y4.297 Z-0.2913
N13825 X3.9879 Y4.2991 Z-0.2914
N13830 X3.9865 Y4.3012 Z-0.2915
N13835 X3.9849 Y4.3031 Z-0.2916
N13840 X3.9833 Y4.305 Z-0.2917
N13845 X3.9816 Y4.3068
N13850 X3.9798 Y4.3086 Z-0.2918
N13855 X3.9779 Y4.3102 Z-0.2919
N13860 X3.9759 Y4.3118 Z-0.292
N13865 X3.9739 Y4.3132 Z-0.2921
N13870 X3.9718 Y4.3146 Z-0.2922
N13875 X3.9697 Y4.3159 Z-0.2923
N13880 X3.9675 Y4.317
N13885 X3.9652 Y4.3181 Z-0.2924
N13890 X3.9629 Y4.3191 Z-0.2925
N13895 X3.9606 Y4.3199 Z-0.2926
N13900 X3.9582 Y4.3206 Z-0.2927
N13905 X3.9558 Y4.3213 Z-0.2928
N13910 X3.9534 Y4.3218 Z-0.2929
N13915 X3.9509 Y4.3222 Z-0.293
N13920 X3.9484 Y4.3225
N13925 X3.9459 Y4.3227 Z-0.2931
N13930 X3.9435 Z-0.2932
N13935 X3.941 Z-0.2933
N13940 X3.9385 Y4.3225 Z-0.2934
N13945 X3.9373 Y4.3224
N13950 X3.936 Y4.3223 Z-0.2935
N13955 X3.9336 Y4.3219 Z-0.2936
N13960 X3.9311 Y4.3213
N13965 X3.9287 Y4.3207 Z-0.2937
N13970 X3.9263 Y4.32 Z-0.2938
N13975 X3.924 Y4.3192 Z-0.2939
N13980 X3.9217 Y4.3182 Z-0.294
N13985 X3.9194 Y4.3172 Z-0.2941
N13990 X3.9172 Y4.316 Z-0.2942
N13995 X3.9151 Y4.3147 Z-0.2943
N14000 X3.913 Y4.3134
N14005 X3.911 Y4.3119 Z-0.2944
N14010 X3.909 Y4.3104 Z-0.2945
N14015 X3.9071 Y4.3088 Z-0.2946
N14020 X3.9053 Y4.3071 Z-0.2947
N14025 X3.9036 Y4.3053 Z-0.2948
N14030 X3.902 Y4.3034 Z-0.2949
N14035 X3.9004 Y4.3015
N14040 X3.899 Y4.2994 Z-0.295
N14045 X3.8976 Y4.2974 Z-0.2951
N14050 X3.8964 Y4.2952 Z-0.2952
N14055 X3.8952 Y4.293 Z-0.2953
N14060 X3.8941 Y4.2908 Z-0.2954
N14065 X3.8932 Y4.2885 Z-0.2955
N14070 X3.8923 Y4.2862 Z-0.2956
N14075 X3.8916 Y4.2838
N14080 X3.891 Y4.2814 Z-0.2957
N14085 X3.8904 Y4.279 Z-0.2958
N14090 X3.89 Y4.2765 Z-0.2959
N14095 X3.8897 Y4.2741 Z-0.296
N14100 X3.8896 Y4.2716 Z-0.2961
N14105 X3.8895 Y4.2691 Z-0.2962
N14110 Y4.2666
N14115 X3.8897 Y4.2642 Z-0.2963
N14120 X3.89 Y4.2617 Z-0.2964
N14125 X3.8902 Y4.2605 Z-0.2965
N14130 X3.8904 Y4.2593
N14135 X3.8909 Y4.2568 Z-0.2966
N14140 X3.8915 Y4.2544 Z-0.2967
N14145 X3.8922 Y4.252 Z-0.2968
N14150 X3.8931 Y4.2497 Z-0.2969
N14155 X3.894 Y4.2474
N14160 X3.8951 Y4.2452 Z-0.297
N14165 X3.8962 Y4.243 Z-0.2971
N14170 X3.8975 Y4.2408 Z-0.2972
N14175 X3.8988 Y4.2388 Z-0.2973
N14180 X3.9003 Y4.2367 Z-0.2974
N14185 X3.9018 Y4.2348 Z-0.2975
N14190 X3.9034 Y4.2329
N14195 X3.9051 Y4.2311 Z-0.2976
N14200 X3.9069 Y4.2294 Z-0.2977
N14205 X3.9088 Y4.2278 Z-0.2978
N14210 X3.9107 Y4.2262 Z-0.2979
N14215 X3.9127 Y4.2248 Z-0.298
N14220 X3.9148 Y4.2234 Z-0.2981
N14225 X3.9169 Y4.2222
N14230 X3.9191 Y4.221 Z-0.2982
N14235 X3.9213 Y4.2199 Z-0.2983
N14240 X3.9236 Y4.219 Z-0.2984
N14245 X3.9259 Y4.2182 Z-0.2985
N14250 X3.9283 Y4.2174 Z-0.2986
N14255 X3.9307 Y4.2168 Z-0.2987
N14260 X3.9331 Y4.2163 Z-0.2988
N14265 X3.9355 Y4.2159
N14270 X3.938 Y4.2156 Z-0.2989
N14275 X3.9405 Y4.2154 Z-0.299
N14280 X3.943 Y4.2153 Z-0.2991
N14285 X3.9454 Y4.2154 Z-0.2992
N14290 X3.9479 Y4.2155 Z-0.2993
N14295 X3.9503 Y4.2158 Z-0.2994
N14300 X3.9516 Y4.216
N14305 X3.9528 Y4.2162
N14310 X3.9552 Y4.2167 Z-0.2995
N14315 X3.9576 Y4.2173 Z-0.2996
N14320 X3.9599 Y4.218 Z-0.2997
N14325 X3.9623 Y4.2189 Z-0.2998
N14330 X3.9646 Y4.2198 Z-0.2999
N14335 X3.9668 Y4.2209 Z-0.3
N14340 X3.969 Y4.222
N14345 X3.9711 Y4.2233 Z-0.3001
N14350 X3.9732 Y4.2246 Z-0.3002
N14355 X3.9752 Y4.226 Z-0.3003
N14360 X3.9771 Y4.2276 Z-0.3004
N14365 X3.979 Y4.2292 Z-0.3005
N14370 X3.9808 Y4.2309 Z-0.3006
N14375 X3.9825 Y4.2327
N14380 X3.9841 Y4.2345 Z-0.3007
N14385 X3.9857 Y4.2365 Z-0.3008
N14390 X3.9871 Y4.2385 Z-0.3009
N14395 X3.9885 Y4.2405 Z-0.301
N14400 X3.9897 Y4.2426 Z-0.3011
N14405 X3.9909 Y4.2448 Z-0.3012
N14410 X3.9919 Y4.247
N14415 X3.9929 Y4.2493 Z-0.3013
N14420 X3.9937 Y4.2516 Z-0.3014
N14425 X3.9945 Y4.254 Z-0.3015
N14430 X3.9951 Y4.2564 Z-0.3016
N14435 X3.9956 Y4.2588 Z-0.3017
N14440 X3.996 Y4.2612 Z-0.3018
N14445 X3.9963 Y4.2637 Z-0.3019
N14450 X3.9965 Y4.2661
N14455 Y4.2674 Z-0.302
N14460 X3.9966 Y4.2686
N14465 X3.9965 Y4.2711 Z-0.3021
N14470 X3.9961 Y4.276 Z-0.3023
N14475 X3.9956 Y4.2784 Z-0.3024
N14480 X3.9951 Y4.2808 Z-0.3025
N14485 X3.9938 Y4.2855 Z-0.3026
N14490 X3.993 Y4.2878 Z-0.3027
N14495 X3.9921 Y4.2901 Z-0.3028
N14500 X3.9899 Y4.2945 Z-0.303
N14505 X3.9886 Y4.2967 Z-0.3031
N14510 X3.9873 Y4.2987
N14515 X3.9859 Y4.3007 Z-0.3032
N14520 X3.9843 Y4.3027 Z-0.3033
N14525 X3.9827 Y4.3045 Z-0.3034
N14530 X3.981 Y4.3063 Z-0.3035
N14535 X3.9793 Y4.308 Z-0.3036
N14540 X3.9774 Y4.3096 Z-0.3037
N14545 X3.9755 Y4.3112
N14550 X3.9735 Y4.3126 Z-0.3038
N14555 X3.9714 Y4.314 Z-0.3039
N14560 X3.9693 Y4.3152 Z-0.304
N14565 X3.9672 Y4.3164 Z-0.3041
N14570 X3.9649 Y4.3174 Z-0.3042
N14575 X3.9627 Y4.3184 Z-0.3043
N14580 X3.9604 Y4.3192
N14585 X3.958 Y4.3199 Z-0.3044
N14590 X3.9556 Y4.3206 Z-0.3045
N14595 X3.9532 Y4.3211 Z-0.3046
N14600 X3.9508 Y4.3215 Z-0.3047
N14605 X3.9484 Y4.3218 Z-0.3048
N14610 X3.9459 Y4.322 Z-0.3049
N14615 X3.9435
N14620 X3.941 Z-0.305
N14625 X3.9386 Y4.3218 Z-0.3051
N14630 X3.9373 Y4.3217 Z-0.3052
N14635 X3.9361 Y4.3215
N14640 X3.9337 Y4.3211 Z-0.3053
N14645 X3.9313 Y4.3206 Z-0.3054
N14650 X3.9289 Y4.32 Z-0.3055
N14655 X3.9266 Y4.3193
N14660 X3.9243 Y4.3185 Z-0.3056
N14665 X3.922 Y4.3175 Z-0.3057
N14670 X3.9198 Y4.3165 Z-0.3058
N14675 X3.9176 Y4.3154 Z-0.3059
N14680 X3.9155 Y4.3141 Z-0.306
N14685 X3.9134 Y4.3128 Z-0.3061
N14690 X3.9114 Y4.3114
N14695 X3.9095 Y4.3098 Z-0.3062
N14700 X3.9076 Y4.3082 Z-0.3063
N14705 X3.9059 Y4.3066 Z-0.3064
N14710 X3.9042 Y4.3048 Z-0.3065
N14715 X3.9026 Y4.3029 Z-0.3066
N14720 X3.901 Y4.301 Z-0.3067
N14725 X3.8996 Y4.299
N14730 X3.8982 Y4.297 Z-0.3068
N14735 X3.897 Y4.2949 Z-0.3069
N14740 X3.8959 Y4.2927 Z-0.307
N14745 X3.8948 Y4.2905 Z-0.3071
N14750 X3.8939 Y4.2882 Z-0.3072
N14755 X3.893 Y4.2859
N14760 X3.8923 Y4.2836 Z-0.3073
N14765 X3.8917 Y4.2812 Z-0.3074
N14770 X3.8912 Y4.2788 Z-0.3075
N14775 X3.8908 Y4.2764 Z-0.3076
N14780 X3.8905 Y4.274 Z-0.3077
N14785 X3.8903 Y4.2716 Z-0.3078
N14790 X3.8902 Y4.2691
N14795 X3.8903 Y4.2667 Z-0.3079
N14800 X3.8904 Y4.2642 Z-0.308
N14805 X3.8906 Y4.263 Z-0.3081
N14810 X3.8907 Y4.2618
N14815 X3.8911 Y4.2594 Z-0.3082
N14820 X3.8916 Y4.257 Z-0.3083
N14825 X3.8922 Y4.2546 Z-0.3084
N14830 X3.8929 Y4.2523
N14835 X3.8937 Y4.25 Z-0.3085
N14840 X3.8947 Y4.2477 Z-0.3086
N14845 X3.8957 Y4.2455 Z-0.3087
N14850 X3.8968 Y4.2433 Z-0.3088
N14855 X3.8981 Y4.2412 Z-0.3089
N14860 X3.8994 Y4.2392 Z-0.309
N14865 X3.9008 Y4.2372
N14870 X3.9023 Y4.2353 Z-0.3091
N14875 X3.9039 Y4.2334 Z-0.3092
N14880 X3.9056 Y4.2316 Z-0.3093
N14885 X3.9074 Y4.2299 Z-0.3094
N14890 X3.9092 Y4.2283 Z-0.3095
N14895 X3.9111 Y4.2268 Z-0.3096
N14900 X3.9131 Y4.2254
N14905 X3.9152 Y4.224 Z-0.3097
N14910 X3.9173 Y4.2228 Z-0.3098
N14915 X3.9194 Y4.2217 Z-0.3099
N14920 X3.9216 Y4.2206 Z-0.31
N14925 X3.9239 Y4.2197 Z-0.3101
N14930 X3.9262 Y4.2188
N14935 X3.9285 Y4.2181 Z-0.3102
N14940 X3.9309 Y4.2175 Z-0.3103
N14945 X3.9332 Y4.217 Z-0.3104
N14950 X3.9356 Y4.2166 Z-0.3105
N14955 X3.9381 Y4.2163 Z-0.3106
N14960 X3.9405 Y4.2161 Z-0.3107
N14965 X3.9429 Y4.216
N14970 X3.9454 Y4.2161 Z-0.3108
N14975 X3.9478 Y4.2163 Z-0.3109
N14980 X3.9502 Y4.2165 Z-0.311
N14985 X3.9514 Y4.2167
N14990 X3.9526 Y4.2169 Z-0.3111
N14995 X3.955 Y4.2174 Z-0.3112
N15000 X3.9574 Y4.218 Z-0.3113
N15005 X3.9597 Y4.2187
N15010 X3.962 Y4.2196 Z-0.3114
N15015 X3.9643 Y4.2205 Z-0.3115
N15020 X3.9665 Y4.2215 Z-0.3116
N15025 X3.9686 Y4.2226 Z-0.3117
N15030 X3.9707 Y4.2239 Z-0.3118
N15035 X3.9728 Y4.2252
N15040 X3.9748 Y4.2266 Z-0.3119
N15045 X3.9767 Y4.2281 Z-0.312
N15050 X3.9785 Y4.2297 Z-0.3121
N15055 X3.9803 Y4.2314 Z-0.3122
N15060 X3.982 Y4.2331 Z-0.3123
N15065 X3.9836 Y4.235 Z-0.3124
N15070 X3.9851 Y4.2369
N15075 X3.9865 Y4.2389 Z-0.3125
N15080 X3.9879 Y4.2409 Z-0.3126
N15085 X3.9891 Y4.243 Z-0.3127
N15090 X3.9902 Y4.2451 Z-0.3128
N15095 X3.9913 Y4.2473 Z-0.3129
N15100 X3.9922 Y4.2496 Z-0.313
N15105 X3.9931 Y4.2519
N15110 X3.9938 Y4.2542 Z-0.3131
N15115 X3.9944 Y4.2565 Z-0.3132
N15120 X3.9949 Y4.2589 Z-0.3133
N15125 X3.9953 Y4.2613 Z-0.3134
N15130 X3.9956 Y4.2637 Z-0.3135
N15135 X3.9958 Y4.2662
N15140 Y4.2674 Z-0.3136
N15145 X3.9959 Y4.2686
N15150 X3.9958 Y4.271 Z-0.3137
N15155 X3.9953 Y4.2759 Z-0.3139
N15160 X3.9949 Y4.2783 Z-0.314
N15165 X3.9944 Y4.2806 Z-0.3141
N15170 X3.9931 Y4.2853 Z-0.3142
N15175 X3.9923 Y4.2876 Z-0.3143
N15180 X3.9914 Y4.2898 Z-0.3144
N15185 X3.9892 Y4.2942 Z-0.3146
N15190 X3.988 Y4.2963
N15195 X3.9867 Y4.2983 Z-0.3147
N15200 X3.9848 Y4.301 Z-0.3148
N15205 X3.9838 Y4.3022 Z-0.3149
N15210 X3.9828 Y4.3034 Z-0.315
N15215 X3.9826 Y4.3036
N15220 X3.9818 Y4.3045
N15225 X3.9809 Y4.3055 Z-0.3151
N15230 X3.979 Y4.3073
N15235 X3.9771 Y4.309 Z-0.3152
N15240 X3.975 Y4.3106 Z-0.3153
N15245 X3.973 Y4.3121 Z-0.3154
N15250 X3.9708 Y4.3135 Z-0.3155
N15255 X3.9686 Y4.3148 Z-0.3156
N15260 X3.9664 Y4.316 Z-0.3157
N15265 X3.964 Y4.317 Z-0.3158
N15270 X3.9628 Y4.3175
N15275 X3.9616 Y4.318 Z-0.3159
N15280 X3.9592 Y4.3188
N15285 X3.9567 Y4.3196 Z-0.316
N15290 X3.9542 Y4.3202 Z-0.3161
N15295 X3.9517 Y4.3206 Z-0.3162
N15300 X3.9491 Y4.321 Z-0.3163
N15305 X3.9466 Y4.3212 Z-0.3164
N15310 X3.944 Y4.3213 Z-0.3165
N15315 X3.9414 Z-0.3166
N15320 X3.9389 Y4.3211 Z-0.3167
N15325 X3.9363 Y4.3208 Z-0.3168
N15330 X3.9351 Y4.3206
N15335 X3.9338 Y4.3204
N15340 X3.9313 Y4.3199 Z-0.3169
N15345 X3.9288 Y4.3192 Z-0.317
N15350 X3.9263 Y4.3185 Z-0.3171
N15355 X3.9239 Y4.3176 Z-0.3172
N15360 X3.9215 Y4.3165 Z-0.3173
N15365 X3.9192 Y4.3154 Z-0.3174
N15370 X3.9169 Y4.3142 Z-0.3175
N15375 X3.9147 Y4.3128 Z-0.3176
N15380 X3.9126 Y4.3114 Z-0.3177
N15385 X3.9116 Y4.3106
N15390 X3.9106 Y4.3098
N15395 X3.9086 Y4.3082 Z-0.3178
N15400 X3.9067 Y4.3064 Z-0.3179
N15405 X3.905 Y4.3046 Z-0.318
N15410 X3.9033 Y4.3027 Z-0.3181
N15415 X3.9017 Y4.3007 Z-0.3182
N15420 X3.9002 Y4.2986 Z-0.3183
N15425 X3.8988 Y4.2965 Z-0.3184
N15430 X3.8974 Y4.2942 Z-0.3185
N15435 X3.8963 Y4.2919
N15440 X3.8952 Y4.2896 Z-0.3186
N15445 X3.8947 Y4.2884 Z-0.3187
N15450 X3.8942 Y4.2872
N15455 X3.8934 Y4.2847 Z-0.3188
N15460 X3.8927 Y4.2822 Z-0.3189
N15465 X3.8921 Y4.2798 Z-0.319
N15470 X3.8916 Y4.2772 Z-0.3191
N15475 X3.8913 Y4.2747 Z-0.3192
N15480 X3.891 Y4.2722 Z-0.3193
N15485 X3.8909 Y4.2696 Z-0.3194
N15490 X3.891 Y4.267
N15495 X3.8911 Y4.2645 Z-0.3195
N15500 X3.8914 Y4.2619 Z-0.3196
N15505 X3.8916 Y4.2606 Z-0.3197
N15510 X3.8918 Y4.2594
N15515 X3.8924 Y4.2569 Z-0.3198
N15520 X3.893 Y4.2544 Z-0.3199
N15525 X3.8938 Y4.252 Z-0.32
N15530 X3.8947 Y4.2496 Z-0.3201
N15535 X3.8957 Y4.2472 Z-0.3202
N15540 X3.8968 Y4.2449
N15545 X3.898 Y4.2427 Z-0.3203
N15550 X3.8994 Y4.2405 Z-0.3204
N15555 X3.9008 Y4.2384 Z-0.3205
N15560 X3.9023 Y4.2364 Z-0.3206
N15565 X3.9032 Y4.2354
N15570 X3.904 Y4.2344 Z-0.3207
N15575 X3.9057 Y4.2325 Z-0.3208
N15580 X3.9076 Y4.2307 Z-0.3209
N15585 X3.9095 Y4.229 Z-0.321
N15590 X3.9115 Y4.2274 Z-0.3211
N15595 X3.9136 Y4.2259
N15600 X3.9158 Y4.2245 Z-0.3212
N15605 X3.918 Y4.2232 Z-0.3213
N15610 X3.9202 Y4.222 Z-0.3214
N15615 X3.9226 Y4.221 Z-0.3215
N15620 X3.9237 Y4.2205
N15625 X3.9249 Y4.22 Z-0.3216
N15630 X3.9273 Y4.2192 Z-0.3217
N15635 X3.9298 Y4.2185 Z-0.3218
N15640 X3.9323 Y4.2179 Z-0.3219
N15645 X3.9348 Y4.2174
N15650 X3.9373 Y4.2171 Z-0.322
N15655 X3.9398 Y4.2169 Z-0.3221
N15660 X3.9424 Y4.2168 Z-0.3222
N15665 X3.945 Z-0.3223
N15670 X3.9475 Y4.2169 Z-0.3224
N15675 X3.9501 Y4.2172 Z-0.3225
N15680 X3.9513 Y4.2174
N15685 X3.9526 Y4.2176 Z-0.3226
N15690 X3.9551 Y4.2182 Z-0.3227
N15695 X3.9575 Y4.2188
N15700 X3.96 Y4.2196 Z-0.3228
N15705 X3.9624 Y4.2205 Z-0.3229
N15710 X3.9648 Y4.2215 Z-0.323
N15715 X3.9671 Y4.2226 Z-0.3231
N15720 X3.9693 Y4.2239 Z-0.3232
N15725 X3.9715 Y4.2252 Z-0.3233
N15730 X3.9736 Y4.2266 Z-0.3234
N15735 X3.9756 Y4.2281 Z-0.3235
N15740 X3.9766 Y4.2289
N15745 X3.9775 Y4.2298
N15750 X3.9794 Y4.2315 Z-0.3236
N15755 X3.9812 Y4.2334 Z-0.3237
N15760 X3.9829 Y4.2353 Z-0.3238
N15765 X3.9845 Y4.2373 Z-0.3239
N15770 X3.986 Y4.2393 Z-0.324
N15775 X3.9874 Y4.2415 Z-0.3241
N15780 X3.9887 Y4.2437 Z-0.3242
N15785 X3.9899 Y4.2459 Z-0.3243
N15790 X3.9909 Y4.2482
N15795 X3.9914 Y4.2494 Z-0.3244
N15800 X3.9919 Y4.2506
N15805 X3.9927 Y4.253 Z-0.3245
N15810 X3.9934 Y4.2555 Z-0.3246
N15815 X3.994 Y4.2579 Z-0.3247
N15820 X3.9944 Y4.2604 Z-0.3248
N15825 X3.9948 Y4.263 Z-0.3249
N15830 X3.995 Y4.2655 Z-0.325
N15835 X3.9951 Y4.268 Z-0.3251
N15840 X3.995 Y4.2706
N15845 X3.9949 Y4.2731 Z-0.3252
N15850 X3.9946 Y4.2757 Z-0.3253
N15855 X3.9942 Y4.2782 Z-0.3254
N15860 X3.9937 Y4.2807 Z-0.3255
N15865 X3.9923 Y4.2856 Z-0.3257
N15870 X3.9914 Y4.288 Z-0.3258
N15875 X3.9904 Y4.2903 Z-0.3259
N15880 X3.988 Y4.2948 Z-0.326
N15885 X3.9867 Y4.297 Z-0.3261
N15890 X3.9853 Y4.2991 Z-0.3262
N15895 X3.9845 Y4.3001 Z-0.3263
N15900 X3.9837 Y4.3012
N15905 X3.9821 Y4.3031 Z-0.3264
N15910 X3.9804 Y4.305 Z-0.3265
N15915 X3.9785 Y4.3067 Z-0.3266
N15920 X3.9766 Y4.3084 Z-0.3267
N15925 X3.9746 Y4.31
N15930 X3.9726 Y4.3115 Z-0.3268
N15935 X3.9705 Y4.3129 Z-0.3269
N15940 X3.9683 Y4.3141 Z-0.327
N15945 X3.966 Y4.3153 Z-0.3271
N15950 X3.9637 Y4.3164 Z-0.3272
N15955 X3.9626 Y4.3168
N15960 X3.9614 Y4.3173 Z-0.3273
N15965 X3.959 Y4.3181 Z-0.3274
N15970 X3.9565 Y4.3188 Z-0.3275
N15975 X3.9541 Y4.3194
N15980 X3.9516 Y4.3199 Z-0.3276
N15985 X3.9491 Y4.3202 Z-0.3277
N15990 X3.9465 Y4.3204 Z-0.3278
N15995 X3.944 Y4.3205 Z-0.3279
N16000 X3.9415 Z-0.328
N16005 X3.9389 Y4.3204 Z-0.3281
N16010 X3.9364 Y4.3201 Z-0.3282
N16015 X3.9352 Y4.3199
N16020 X3.9339 Y4.3197
N16025 X3.9314 Y4.3192 Z-0.3283
N16030 X3.929 Y4.3185 Z-0.3284
N16035 X3.9266 Y4.3177 Z-0.3285
N16040 X3.9242 Y4.3169 Z-0.3286
N16045 X3.9218 Y4.3159 Z-0.3287
N16050 X3.9195 Y4.3147 Z-0.3288
N16055 X3.9173 Y4.3135 Z-0.3289
N16060 X3.9152 Y4.3122 Z-0.329
N16065 X3.9131 Y4.3108
N16070 X3.9121 Y4.31 Z-0.3291
N16075 X3.9111 Y4.3092
N16080 X3.9091 Y4.3076 Z-0.3292
N16085 X3.9073 Y4.3059 Z-0.3293
N16090 X3.9055 Y4.3041 Z-0.3294
N16095 X3.9039 Y4.3022 Z-0.3295
N16100 X3.9023 Y4.3002 Z-0.3296
N16105 X3.9008 Y4.2982 Z-0.3297
N16110 X3.8994 Y4.296 Z-0.3298
N16115 X3.8981 Y4.2938
N16120 X3.8969 Y4.2916 Z-0.3299
N16125 X3.8959 Y4.2893 Z-0.33
N16130 X3.8954 Y4.2881 Z-0.3301
N16135 X3.8949 Y4.2869
N16140 X3.8941 Y4.2845 Z-0.3302
N16145 X3.8934 Y4.2821 Z-0.3303
N16150 X3.8928 Y4.2796 Z-0.3304
N16155 X3.8924 Y4.2771 Z-0.3305
N16160 X3.892 Y4.2746
N16165 X3.8918 Y4.2721 Z-0.3306
N16170 X3.8917 Y4.2696 Z-0.3307
N16175 X3.8918 Y4.2671 Z-0.3308
N16180 X3.8919 Y4.2645 Z-0.3309
N16185 X3.8922 Y4.262 Z-0.331
N16190 X3.8924 Y4.2608
N16195 X3.8926 Y4.2595 Z-0.3311
N16200 X3.8931 Y4.2571 Z-0.3312
N16205 X3.8938 Y4.2546 Z-0.3313
N16210 X3.8945 Y4.2523
N16215 X3.8954 Y4.2499 Z-0.3314
N16220 X3.8964 Y4.2476 Z-0.3315
N16225 X3.8975 Y4.2453 Z-0.3316
N16230 X3.8987 Y4.2431 Z-0.3317
N16235 X3.9 Y4.2409 Z-0.3318
N16240 X3.9015 Y4.2389 Z-0.3319
N16245 X3.903 Y4.2368 Z-0.332
N16250 X3.9038 Y4.2359
N16255 X3.9046 Y4.2349
N16260 X3.9063 Y4.2331 Z-0.3321
N16265 X3.9081 Y4.2313 Z-0.3322
N16270 X3.91 Y4.2296 Z-0.3323
N16275 X3.912 Y4.2281 Z-0.3324
N16280 X3.914 Y4.2266 Z-0.3325
N16285 X3.9162 Y4.2252 Z-0.3326
N16290 X3.9183 Y4.2239 Z-0.3327
N16295 X3.9206 Y4.2228
N16300 X3.9229 Y4.2217 Z-0.3328
N16305 X3.924 Y4.2212 Z-0.3329
N16310 X3.9252 Y4.2208
N16315 X3.9276 Y4.22 Z-0.333
N16320 X3.93 Y4.2193 Z-0.3331
N16325 X3.9324 Y4.2187 Z-0.3332
N16330 X3.9349 Y4.2182 Z-0.3333
N16335 X3.9374 Y4.2179 Z-0.3334
N16340 X3.9399 Y4.2177
N16345 X3.9424 Y4.2176 Z-0.3335
N16350 X3.9449 Z-0.3336
N16355 X3.9475 Y4.2178 Z-0.3337
N16360 X3.95 Y4.218 Z-0.3338
N16365 X3.9512 Y4.2182
N16370 X3.9525 Y4.2184 Z-0.3339
N16375 X3.9549 Y4.2189 Z-0.334
N16380 X3.9573 Y4.2196 Z-0.3341
N16385 X3.9597 Y4.2203
N16390 X3.9621 Y4.2212 Z-0.3342
N16395 X3.9644 Y4.2222 Z-0.3343
N16400 X3.9667 Y4.2233 Z-0.3344
N16405 X3.9689 Y4.2245 Z-0.3345
N16410 X3.971 Y4.2259 Z-0.3346
N16415 X3.9731 Y4.2273 Z-0.3347
N16420 X3.9751 Y4.2288 Z-0.3348
N16425 X3.976 Y4.2296
N16430 X3.977 Y4.2304 Z-0.3349
N16435 X3.9788 Y4.2321
N16440 X3.9806 Y4.2339 Z-0.335
N16445 X3.9823 Y4.2358 Z-0.3351
N16450 X3.9839 Y4.2378 Z-0.3352
N16455 X3.9853 Y4.2398 Z-0.3353
N16460 X3.9867 Y4.2419 Z-0.3354
N16465 X3.988 Y4.2441 Z-0.3355
N16470 X3.9891 Y4.2463 Z-0.3356
N16475 X3.9902 Y4.2486
N16480 X3.9906 Y4.2497 Z-0.3357
N16485 X3.9911 Y4.2509
N16490 X3.9919 Y4.2533 Z-0.3358
N16495 X3.9926 Y4.2557 Z-0.3359
N16500 X3.9932 Y4.2581 Z-0.336
N16505 X3.9936 Y4.2606 Z-0.3361
N16510 X3.994 Y4.2631 Z-0.3362
N16515 X3.9942 Y4.2656 Z-0.3363
N16520 X3.9943 Y4.2681
N16525 X3.9942 Y4.2706 Z-0.3364
N16530 X3.9938 Y4.2756 Z-0.3366
N16535 X3.9934 Y4.278 Z-0.3367
N16540 X3.9929 Y4.2805 Z-0.3368
N16545 X3.9915 Y4.2853 Z-0.337
N16550 X3.9906 Y4.2877
N16555 X3.9896 Y4.29 Z-0.3371
N16560 X3.9873 Y4.2944 Z-0.3373
N16565 X3.986 Y4.2966 Z-0.3374
N16570 X3.9846 Y4.2986 Z-0.3375
N16575 X3.9839 Y4.2996
N16580 X3.9831 Y4.3006 Z-0.3376
N16585 X3.9815 Y4.3025 Z-0.3377
N16590 X3.9798 Y4.3044
N16595 X3.978 Y4.3061 Z-0.3378
N16600 X3.9761 Y4.3078 Z-0.3379
N16605 X3.9741 Y4.3094 Z-0.338
N16610 X3.9721 Y4.3108 Z-0.3381
N16615 X3.97 Y4.3122 Z-0.3382
N16620 X3.9679 Y4.3134 Z-0.3383
N16625 X3.9657 Y4.3146
N16630 X3.9634 Y4.3156 Z-0.3384
N16635 X3.9622 Y4.3161 Z-0.3385
N16640 X3.9611 Y4.3165
N16645 X3.9587 Y4.3174 Z-0.3386
N16650 X3.9563 Y4.318 Z-0.3387
N16655 X3.9539 Y4.3186 Z-0.3388
N16660 X3.9514 Y4.3191 Z-0.3389
N16665 X3.949 Y4.3194 Z-0.339
N16670 X3.9465 Y4.3196
N16675 X3.944 Y4.3197 Z-0.3391
N16680 X3.9415 Z-0.3392
N16685 X3.939 Y4.3195 Z-0.3393
N16690 X3.9365 Y4.3193 Z-0.3394
N16695 X3.9353 Y4.3191
N16700 X3.934 Y4.3189 Z-0.3395
N16705 X3.9316 Y4.3184 Z-0.3396
N16710 X3.9292 Y4.3177 Z-0.3397
N16715 X3.9268 Y4.317
N16720 X3.9245 Y4.3161 Z-0.3398
N16725 X3.9222 Y4.3151 Z-0.3399
N16730 X3.9199 Y4.314 Z-0.34
N16735 X3.9177 Y4.3128 Z-0.3401
N16740 X3.9156 Y4.3115 Z-0.3402
N16745 X3.9135 Y4.3101 Z-0.3403
N16750 X3.9126 Y4.3093
N16755 X3.9116 Y4.3086
N16760 X3.9097 Y4.307 Z-0.3404
N16765 X3.9078 Y4.3053 Z-0.3405
N16770 X3.9061 Y4.3035 Z-0.3406
N16775 X3.9045 Y4.3016 Z-0.3407
N16780 X3.9029 Y4.2997 Z-0.3408
N16785 X3.9014 Y4.2977 Z-0.3409
N16790 X3.9001 Y4.2956 Z-0.341
N16795 X3.8988 Y4.2934
N16800 X3.8977 Y4.2912 Z-0.3411
N16805 X3.8966 Y4.289 Z-0.3412
N16810 X3.8962 Y4.2878 Z-0.3413
N16815 X3.8957 Y4.2866
N16820 X3.8949 Y4.2843 Z-0.3414
N16825 X3.8942 Y4.2819 Z-0.3415
N16830 X3.8936 Y4.2795 Z-0.3416
N16835 X3.8932 Y4.277 Z-0.3417
N16840 X3.8928 Y4.2746
N16845 X3.8926 Y4.2721 Z-0.3418
N16850 X3.8925 Y4.2696 Z-0.3419
N16855 X3.8926 Y4.2671 Z-0.342
N16860 X3.8927 Y4.2646 Z-0.3421
N16865 X3.893 Y4.2621 Z-0.3422
N16870 X3.8932 Y4.2609
N16875 X3.8934 Y4.2597 Z-0.3423
N16880 X3.8939 Y4.2573
N16885 X3.8945 Y4.2549 Z-0.3424
