%
O08711 (Thermocyler_Block_4X4_1)
(Using high feed G1 F500. instead of G0.)
(T8 D=0.125 CR=0. - ZMIN=-0.7198 - flat end mill)
N10 G90 G94 G17
N15 G20
N20 G53 G0 Z0.

(Ramp1)
N30 T8 M6
N35 S4000 M3
N40 G54
N45 M8
N60 G0 X2.7098 Y4.6461
N65 G43 Z0.5906 H8
N70 G0 Z0.076
N75 G1 Z-0.0001 F8.
N80 G3 X2.7008 Y4.6248 I-0.0001 J-0.0125
N85 G1 X2.7035 Y4.6224 Z-0.0002
N90 X2.7038 Y4.6221
N95 X2.7091 Y4.6181 Z-0.0005
N100 X2.7115 Y4.6166 Z-0.0006
N105 X2.7147 Y4.6147 Z-0.0007
N110 X2.7203 Y4.6122 Z-0.0009
N115 X2.7231 Y4.6111 Z-0.001
N120 X2.7259 Y4.6102 Z-0.0011
N125 X2.7315 Y4.6088 Z-0.0013
N130 X2.7371 Y4.608 Z-0.0015
N135 X2.7399 Y4.6078 Z-0.0016
N140 X2.7427 Y4.6077 Z-0.0017
N145 X2.7483 Y4.6079 Z-0.0019
N150 X2.7539 Y4.6086 Z-0.0021
N155 X2.7595 Y4.6099 Z-0.0023
N160 X2.7632 Y4.6111 Z-0.0024
N165 X2.7651 Y4.6117 Z-0.0025
N170 X2.7679 Y4.6129 Z-0.0026
N175 X2.7707 Y4.6142 Z-0.0027
N180 X2.775 Y4.6166 Z-0.0029
N185 X2.7763 Y4.6174 Z-0.003
N190 X2.7819 Y4.6215 Z-0.0032
N195 X2.7827 Y4.6221
N200 X2.7875 Y4.6267 Z-0.0035
N205 X2.7883 Y4.6276
N210 X2.7907 Y4.6303 Z-0.0036
N215 X2.7928 Y4.6331 Z-0.0038
N220 X2.7931 Y4.6335
N225 X2.7963 Y4.6386 Z-0.004
N230 X2.7987 Y4.6432 Z-0.0042
N235 X2.7991 Y4.6441
N240 X2.8013 Y4.6496 Z-0.0044
N245 X2.8021 Y4.6523 Z-0.0045
N250 X2.8028 Y4.6551 Z-0.0046
N255 X2.8038 Y4.6606 Z-0.0048
N260 X2.8043 Y4.6661 Z-0.005
N265 Y4.6663
N270 Y4.6714 Z-0.0052
N275 Y4.6716
N280 X2.8038 Y4.6771 Z-0.0054
N285 X2.8028 Y4.6826 Z-0.0056
N290 X2.8021 Y4.6854 Z-0.0057
N295 X2.8013 Y4.6881 Z-0.0058
N300 X2.7991 Y4.6936 Z-0.006
N305 X2.7987 Y4.6945
N310 X2.7963 Y4.6991 Z-0.0062
N315 X2.7931 Y4.7042 Z-0.0064
N320 X2.7928 Y4.7046
N325 X2.7907 Y4.7074 Z-0.0065
N330 X2.7883 Y4.7101 Z-0.0067
N335 X2.7875 Y4.711
N340 X2.7826 Y4.7156 Z-0.007
N345 X2.7819 Y4.7162
N350 X2.7763 Y4.7203 Z-0.0072
N355 X2.775 Y4.7211 Z-0.0073
N360 X2.7707 Y4.7235 Z-0.0075
N365 X2.7679 Y4.7248 Z-0.0076
N370 X2.7651 Y4.726 Z-0.0077
N375 X2.7632 Y4.7267
N380 X2.7595 Y4.7278 Z-0.0079
N385 X2.7539 Y4.7291 Z-0.0081
N390 X2.7483 Y4.7298 Z-0.0083
N395 X2.7427 Y4.73 Z-0.0085
N400 X2.7399 Y4.7299 Z-0.0086
N405 X2.7371 Y4.7297 Z-0.0087
N410 X2.7315 Y4.7289 Z-0.0089
N415 X2.7259 Y4.7275 Z-0.0091
N420 X2.7231 Y4.7267 Z-0.0092
N425 X2.7203 Y4.7255 Z-0.0093
N430 X2.7147 Y4.723 Z-0.0095
N435 X2.7115 Y4.7211 Z-0.0096
N440 X2.7091 Y4.7196 Z-0.0097
N445 X2.7038 Y4.7156 Z-0.0099
N450 X2.7035 Y4.7153 Z-0.01
N455 X2.7008 Y4.7129 Z-0.0101
N460 X2.6981 Y4.7101 Z-0.0102
N465 X2.6979 Y4.7099
N470 X2.6936 Y4.7046 Z-0.0105
N475 X2.6923 Y4.7027
N480 X2.69 Y4.6991 Z-0.0107
N485 X2.6886 Y4.6964 Z-0.0108
N490 X2.6873 Y4.6936 Z-0.0109
N495 X2.6867 Y4.6922 Z-0.011
N500 X2.6852 Y4.6881 Z-0.0111
N505 X2.6836 Y4.6826 Z-0.0113
N510 X2.6826 Y4.6771 Z-0.0115
N515 X2.6821 Y4.6716 Z-0.0117
N520 Y4.6689 Z-0.0118
N525 Y4.6661 Z-0.0119
N530 X2.6826 Y4.6606 Z-0.0121
N535 X2.6836 Y4.6551 Z-0.0123
N540 X2.6852 Y4.6496 Z-0.0125
N545 X2.6867 Y4.6455 Z-0.0126
N550 X2.6873 Y4.6441 Z-0.0127
N555 X2.6886 Y4.6413 Z-0.0128
N560 X2.69 Y4.6386 Z-0.0129
N565 X2.6923 Y4.635 Z-0.0131
N570 X2.6936 Y4.6331
N575 X2.6979 Y4.6278 Z-0.0134
N580 X2.6981 Y4.6276
N585 X2.7008 Y4.6248 Z-0.0135
N590 X2.7035 Y4.6224 Z-0.0136
N595 X2.7038 Y4.6221 Z-0.0137
N600 X2.7091 Y4.6181 Z-0.0139
N605 X2.7115 Y4.6166 Z-0.014
N610 X2.7147 Y4.6147 Z-0.0141
N615 X2.7203 Y4.6122 Z-0.0143
N620 X2.7231 Y4.6111 Z-0.0144
N625 X2.7259 Y4.6102 Z-0.0145
N630 X2.7315 Y4.6088 Z-0.0147
N635 X2.7371 Y4.608 Z-0.0149
N640 X2.7399 Y4.6078 Z-0.015
N645 X2.7427 Y4.6077 Z-0.0151
N650 X2.7483 Y4.6079 Z-0.0153
N655 X2.7539 Y4.6086 Z-0.0155
N660 X2.7595 Y4.6099 Z-0.0157
N665 X2.7632 Y4.6111 Z-0.0159
N670 X2.7651 Y4.6117
N675 X2.7679 Y4.6129 Z-0.016
N680 X2.7707 Y4.6142 Z-0.0162
N685 X2.775 Y4.6166 Z-0.0163
N690 X2.7763 Y4.6174 Z-0.0164
N695 X2.7819 Y4.6215 Z-0.0166
N700 X2.7827 Y4.6221 Z-0.0167
N705 X2.7875 Y4.6267 Z-0.0169
N710 X2.7883 Y4.6276
N715 X2.7907 Y4.6303 Z-0.0171
N720 X2.7928 Y4.6331 Z-0.0172
N725 X2.7931 Y4.6335
N730 X2.7963 Y4.6386 Z-0.0174
N735 X2.7987 Y4.6432 Z-0.0176
N740 X2.7991 Y4.6441
N745 X2.8013 Y4.6496 Z-0.0178
N750 X2.8021 Y4.6523 Z-0.0179
N755 X2.8028 Y4.6551 Z-0.018
N760 X2.8038 Y4.6606 Z-0.0182
N765 X2.8043 Y4.6661 Z-0.0184
N770 Y4.6663
N775 Y4.6714 Z-0.0186
N780 Y4.6716
N785 X2.8038 Y4.6771 Z-0.0188
N790 X2.8028 Y4.6826 Z-0.019
N795 X2.8021 Y4.6854 Z-0.0191
N800 X2.8013 Y4.6881 Z-0.0192
N805 X2.7991 Y4.6936 Z-0.0194
N810 X2.7987 Y4.6945
N815 X2.7963 Y4.6991 Z-0.0196
N820 X2.7931 Y4.7042 Z-0.0198
N825 X2.7928 Y4.7046
N830 X2.7907 Y4.7074 Z-0.02
N835 X2.7883 Y4.7101 Z-0.0201
N840 X2.7875 Y4.711
N845 X2.7826 Y4.7156 Z-0.0204
N850 X2.7819 Y4.7162
N855 X2.7763 Y4.7203 Z-0.0206
N860 X2.775 Y4.7211 Z-0.0207
N865 X2.7707 Y4.7235 Z-0.0209
N870 X2.7679 Y4.7248 Z-0.021
N875 X2.7651 Y4.726 Z-0.0211
N880 X2.7632 Y4.7267 Z-0.0212
N885 X2.7595 Y4.7278 Z-0.0213
N890 X2.7539 Y4.7291 Z-0.0215
N895 X2.7483 Y4.7298 Z-0.0217
N900 X2.7427 Y4.73 Z-0.0219
N905 X2.7399 Y4.7299 Z-0.022
N910 X2.7371 Y4.7297 Z-0.0221
N915 X2.7315 Y4.7289 Z-0.0223
N920 X2.7259 Y4.7275 Z-0.0225
N925 X2.7231 Y4.7267 Z-0.0226
N930 X2.7203 Y4.7255 Z-0.0227
N935 X2.7147 Y4.723 Z-0.0229
N940 X2.7115 Y4.7211 Z-0.023
N945 X2.7091 Y4.7196 Z-0.0231
N950 X2.7038 Y4.7156 Z-0.0234
N955 X2.7035 Y4.7153
N960 X2.7008 Y4.7129 Z-0.0235
N965 X2.6981 Y4.7101 Z-0.0236
N970 X2.6979 Y4.7099
N975 X2.6936 Y4.7046 Z-0.0239
N980 X2.6923 Y4.7027 Z-0.024
N985 X2.69 Y4.6991 Z-0.0241
N990 X2.6886 Y4.6964 Z-0.0242
N995 X2.6873 Y4.6936 Z-0.0243
N1000 X2.6867 Y4.6922 Z-0.0244
N1005 X2.6852 Y4.6881 Z-0.0245
N1010 X2.6836 Y4.6826 Z-0.0247
N1015 X2.6826 Y4.6771 Z-0.0249
N1020 X2.6821 Y4.6716 Z-0.0251
N1025 Y4.6689 Z-0.0252
N1030 Y4.6661 Z-0.0253
N1035 X2.6826 Y4.6606 Z-0.0255
N1040 X2.6836 Y4.6551 Z-0.0257
N1045 X2.6852 Y4.6496 Z-0.0259
N1050 X2.6867 Y4.6455 Z-0.0261
N1055 X2.6873 Y4.6441
N1060 X2.6886 Y4.6413 Z-0.0262
N1065 X2.69 Y4.6386 Z-0.0263
N1070 X2.6923 Y4.635 Z-0.0265
N1075 X2.6936 Y4.6331 Z-0.0266
N1080 X2.6979 Y4.6278 Z-0.0268
N1085 X2.6981 Y4.6276
N1090 X2.7008 Y4.6248 Z-0.0269
N1095 X2.7035 Y4.6224 Z-0.0271
N1100 X2.7038 Y4.6221
N1105 X2.7091 Y4.6181 Z-0.0273
N1110 X2.7115 Y4.6166 Z-0.0274
N1115 X2.7147 Y4.6147 Z-0.0275
N1120 X2.7203 Y4.6122 Z-0.0278
N1125 X2.7231 Y4.6111 Z-0.0279
N1130 X2.7259 Y4.6102 Z-0.028
N1135 X2.7315 Y4.6088 Z-0.0282
N1140 X2.7371 Y4.608 Z-0.0284
N1145 X2.7399 Y4.6078 Z-0.0285
N1150 X2.7427 Y4.6077 Z-0.0286
N1155 X2.7483 Y4.6079 Z-0.0287
N1160 X2.7539 Y4.6086 Z-0.0289
N1165 X2.7595 Y4.6099 Z-0.0291
N1170 X2.7632 Y4.6111 Z-0.0293
N1175 X2.7651 Y4.6117 Z-0.0294
N1180 X2.7679 Y4.6129 Z-0.0295
N1185 X2.7707 Y4.6142 Z-0.0296
N1190 X2.775 Y4.6166 Z-0.0297
N1195 X2.7763 Y4.6174 Z-0.0298
N1200 X2.7819 Y4.6215 Z-0.03
N1205 X2.7827 Y4.6221 Z-0.0301
N1210 X2.7875 Y4.6267 Z-0.0303
N1215 X2.7883 Y4.6276
N1220 X2.7907 Y4.6303 Z-0.0305
N1225 X2.7928 Y4.6331 Z-0.0306
N1230 X2.7931 Y4.6335
N1235 X2.7963 Y4.6386 Z-0.0308
N1240 X2.7987 Y4.6432 Z-0.031
N1245 X2.7991 Y4.6441
N1250 X2.8013 Y4.6496 Z-0.0312
N1255 X2.8021 Y4.6523 Z-0.0313
N1260 X2.8028 Y4.6551 Z-0.0314
N1265 X2.8038 Y4.6606 Z-0.0316
N1270 X2.8043 Y4.6661 Z-0.0318
N1275 Y4.6663
N1280 Y4.6714 Z-0.032
N1285 Y4.6716
N1290 X2.8038 Y4.6771 Z-0.0322
N1295 X2.8028 Y4.6826 Z-0.0324
N1300 X2.8021 Y4.6854 Z-0.0325
N1305 X2.8013 Y4.6881 Z-0.0326
N1310 X2.7991 Y4.6936 Z-0.0328
N1315 X2.7987 Y4.6945 Z-0.0329
N1320 X2.7963 Y4.6991 Z-0.033
N1325 X2.7931 Y4.7042 Z-0.0332
N1330 X2.7928 Y4.7046 Z-0.0333
N1335 X2.7907 Y4.7074 Z-0.0334
N1340 X2.7883 Y4.7101 Z-0.0335
N1345 X2.7875 Y4.711 Z-0.0336
N1350 X2.7826 Y4.7156 Z-0.0338
N1355 X2.7819 Y4.7162
N1360 X2.7763 Y4.7203 Z-0.0341
N1365 X2.775 Y4.7211
N1370 X2.7707 Y4.7235 Z-0.0343
N1375 X2.7679 Y4.7248 Z-0.0344
N1380 X2.7651 Y4.726 Z-0.0345
N1385 X2.7632 Y4.7267 Z-0.0346
N1390 X2.7595 Y4.7278 Z-0.0347
N1395 X2.7539 Y4.7291 Z-0.0349
N1400 X2.7483 Y4.7298 Z-0.0351
N1405 X2.7427 Y4.73 Z-0.0353
N1410 X2.7399 Y4.7299 Z-0.0354
N1415 X2.7371 Y4.7297 Z-0.0355
N1420 X2.7315 Y4.7289 Z-0.0357
N1425 X2.7259 Y4.7275 Z-0.0359
N1430 X2.7231 Y4.7267 Z-0.036
N1435 X2.7203 Y4.7255 Z-0.0361
N1440 X2.7147 Y4.723 Z-0.0363
N1445 X2.7115 Y4.7211 Z-0.0364
N1450 X2.7091 Y4.7196 Z-0.0365
N1455 X2.7038 Y4.7156 Z-0.0368
N1460 X2.7035 Y4.7153
N1465 X2.7008 Y4.7129 Z-0.0369
N1470 X2.6981 Y4.7101 Z-0.0371
N1475 X2.6979 Y4.7099
N1480 X2.6936 Y4.7046 Z-0.0373
N1485 X2.6923 Y4.7027 Z-0.0374
N1490 X2.69 Y4.6991 Z-0.0375
N1495 X2.6886 Y4.6964 Z-0.0376
N1500 X2.6873 Y4.6936 Z-0.0377
N1505 X2.6867 Y4.6922 Z-0.0378
N1510 X2.6852 Y4.6881 Z-0.038
N1515 X2.6836 Y4.6826 Z-0.0382
N1520 X2.6826 Y4.6771 Z-0.0383
N1525 X2.6821 Y4.6716 Z-0.0385
N1530 Y4.6689 Z-0.0386
N1535 Y4.6661 Z-0.0387
N1540 X2.6826 Y4.6606 Z-0.0389
N1545 X2.6836 Y4.6551 Z-0.0391
N1550 X2.6852 Y4.6496 Z-0.0393
N1555 X2.6867 Y4.6455 Z-0.0395
N1560 X2.6876 Y4.6433 Z-0.0396
N1565 X2.6887 Y4.6411
N1570 X2.6911 Y4.6368 Z-0.0398
N1575 X2.6939 Y4.6327 Z-0.04
N1580 X2.697 Y4.6288 Z-0.0402
N1585 X2.7003 Y4.6252 Z-0.0403
N1590 X2.704 Y4.6219 Z-0.0405
N1595 X2.7079 Y4.6189 Z-0.0407
N1600 X2.712 Y4.6163 Z-0.0408
N1605 X2.7164 Y4.6139 Z-0.041
N1610 X2.7209 Y4.6119 Z-0.0412
N1615 X2.7255 Y4.6103 Z-0.0414
N1620 X2.7303 Y4.6091 Z-0.0415
N1625 X2.7351 Y4.6082 Z-0.0417
N1630 X2.74 Y4.6078 Z-0.0419
N1635 X2.745 Y4.6077 Z-0.042
N1640 X2.7499 Y4.6081 Z-0.0422
N1645 X2.7547 Y4.6088 Z-0.0424
N1650 X2.7595 Y4.6099 Z-0.0426
N1655 X2.7642 Y4.6114 Z-0.0427
N1660 X2.7688 Y4.6133 Z-0.0429
N1665 X2.7732 Y4.6155 Z-0.0431
N1670 X2.7774 Y4.6181 Z-0.0433
N1675 X2.7813 Y4.621 Z-0.0434
N1680 X2.7851 Y4.6242 Z-0.0436
N1685 X2.7885 Y4.6278 Z-0.0438
N1690 X2.7917 Y4.6315 Z-0.0439
N1695 X2.7945 Y4.6356 Z-0.0441
N1700 X2.797 Y4.6398 Z-0.0443
N1705 X2.7992 Y4.6442 Z-0.0445
N1710 X2.801 Y4.6488 Z-0.0446
N1715 X2.8024 Y4.6535 Z-0.0448
N1720 X2.8035 Y4.6583 Z-0.045
N1725 X2.8041 Y4.6632 Z-0.0451
N1730 X2.8044 Y4.6681 Z-0.0453
N1735 X2.8042 Y4.6731 Z-0.0455
N1740 X2.8037 Y4.678 Z-0.0457
N1745 X2.8028 Y4.6828 Z-0.0458
N1750 X2.8015 Y4.6875 Z-0.046
N1755 X2.7998 Y4.6922 Z-0.0462
N1760 X2.7977 Y4.6967 Z-0.0463
N1765 X2.7953 Y4.701 Z-0.0465
N1770 X2.7926 Y4.705 Z-0.0467
N1775 X2.7895 Y4.7089 Z-0.0469
N1780 X2.7861 Y4.7125 Z-0.047
N1785 X2.7825 Y4.7158 Z-0.0472
N1790 X2.7805 Y4.7173 Z-0.0473
N1795 X2.7786 Y4.7188 Z-0.0474
N1800 X2.7744 Y4.7215 Z-0.0475
N1805 X2.7701 Y4.7238 Z-0.0477
N1810 X2.7656 Y4.7258 Z-0.0479
N1815 X2.7609 Y4.7274 Z-0.0481
N1820 X2.7561 Y4.7287 Z-0.0482
N1825 X2.7513 Y4.7295 Z-0.0484
N1830 X2.7464 Y4.73 Z-0.0486
N1835 X2.7415 Z-0.0488
N1840 X2.7365 Y4.7297 Z-0.0489
N1845 X2.7317 Y4.7289 Z-0.0491
N1850 X2.7269 Y4.7278 Z-0.0493
N1855 X2.7222 Y4.7263 Z-0.0494
N1860 X2.7176 Y4.7244 Z-0.0496
N1865 X2.7132 Y4.7222 Z-0.0498
N1870 X2.7091 Y4.7196 Z-0.05
N1875 X2.7051 Y4.7167 Z-0.0501
N1880 X2.7014 Y4.7135 Z-0.0503
N1885 X2.6979 Y4.7099 Z-0.0505
N1890 X2.6947 Y4.7062 Z-0.0506
N1895 X2.6919 Y4.7021 Z-0.0508
N1900 X2.6894 Y4.6979 Z-0.051
N1905 X2.6872 Y4.6935 Z-0.0512
N1910 X2.6854 Y4.6889 Z-0.0513
N1915 X2.684 Y4.6842 Z-0.0515
N1920 X2.683 Y4.6794 Z-0.0517
N1925 X2.6823 Y4.6745 Z-0.0518
N1930 X2.6821 Y4.6696 Z-0.052
N1935 X2.6822 Y4.6646 Z-0.0522
N1940 X2.6827 Y4.6597 Z-0.0524
N1945 X2.6837 Y4.6549 Z-0.0525
N1950 X2.685 Y4.6502 Z-0.0527
N1955 X2.6867 Y4.6455 Z-0.0529
N1960 X2.6887 Y4.6411 Z-0.053
N1965 X2.6911 Y4.6368 Z-0.0532
N1970 X2.6939 Y4.6327 Z-0.0534
N1975 X2.697 Y4.6288 Z-0.0536
N1980 X2.7003 Y4.6252 Z-0.0537
N1985 X2.704 Y4.6219 Z-0.0539
N1990 X2.7079 Y4.6189 Z-0.0541
N1995 X2.712 Y4.6163 Z-0.0543
N2000 X2.7164 Y4.6139 Z-0.0544
N2005 X2.7209 Y4.6119 Z-0.0546
N2010 X2.7255 Y4.6103 Z-0.0548
N2015 X2.7303 Y4.6091 Z-0.0549
N2020 X2.7351 Y4.6082 Z-0.0551
N2025 X2.74 Y4.6078 Z-0.0553
N2030 X2.745 Y4.6077 Z-0.0555
N2035 X2.7499 Y4.6081 Z-0.0556
N2040 X2.7547 Y4.6088 Z-0.0558
N2045 X2.7595 Y4.6099 Z-0.056
N2050 X2.7642 Y4.6114 Z-0.0561
N2055 X2.7688 Y4.6133 Z-0.0563
N2060 X2.7732 Y4.6155 Z-0.0565
N2065 X2.7774 Y4.6181 Z-0.0567
N2070 X2.7813 Y4.621 Z-0.0568
N2075 X2.7851 Y4.6242 Z-0.057
N2080 X2.7885 Y4.6278 Z-0.0572
N2085 X2.7917 Y4.6315 Z-0.0573
N2090 X2.7945 Y4.6356 Z-0.0575
N2095 X2.797 Y4.6398 Z-0.0577
N2100 X2.7992 Y4.6442 Z-0.0579
N2105 X2.801 Y4.6488 Z-0.058
N2110 X2.8024 Y4.6535 Z-0.0582
N2115 X2.8035 Y4.6583 Z-0.0584
N2120 X2.8041 Y4.6632 Z-0.0585
N2125 X2.8044 Y4.6681 Z-0.0587
N2130 X2.8042 Y4.6731 Z-0.0589
N2135 X2.8037 Y4.678 Z-0.0591
N2140 X2.8028 Y4.6828 Z-0.0592
N2145 X2.8015 Y4.6875 Z-0.0594
N2150 X2.7998 Y4.6922 Z-0.0596
N2155 X2.7977 Y4.6967 Z-0.0598
N2160 X2.7953 Y4.701 Z-0.0599
N2165 X2.7926 Y4.705 Z-0.0601
N2170 X2.7895 Y4.7089 Z-0.0603
N2175 X2.7861 Y4.7125 Z-0.0604
N2180 X2.7825 Y4.7158 Z-0.0606
N2185 X2.7805 Y4.7173 Z-0.0607
N2190 X2.7786 Y4.7188 Z-0.0608
N2195 X2.7744 Y4.7215 Z-0.061
N2200 X2.7701 Y4.7238 Z-0.0611
N2205 X2.7656 Y4.7258 Z-0.0613
N2210 X2.7609 Y4.7274 Z-0.0615
N2215 X2.7561 Y4.7287 Z-0.0616
N2220 X2.7513 Y4.7295 Z-0.0618
N2225 X2.7464 Y4.73 Z-0.062
N2230 X2.7415 Z-0.0622
N2235 X2.7365 Y4.7297 Z-0.0623
N2240 X2.7317 Y4.7289 Z-0.0625
N2245 X2.7269 Y4.7278 Z-0.0627
N2250 X2.7222 Y4.7263 Z-0.0628
N2255 X2.7176 Y4.7244 Z-0.063
N2260 X2.7132 Y4.7222 Z-0.0632
N2265 X2.7091 Y4.7196 Z-0.0634
N2270 X2.7051 Y4.7167 Z-0.0635
N2275 X2.7014 Y4.7135 Z-0.0637
N2280 X2.6979 Y4.7099 Z-0.0639
N2285 X2.6947 Y4.7062 Z-0.064
N2290 X2.6919 Y4.7021 Z-0.0642
N2295 X2.6894 Y4.6979 Z-0.0644
N2300 X2.6872 Y4.6935 Z-0.0646
N2305 X2.6854 Y4.6889 Z-0.0647
N2310 X2.684 Y4.6842 Z-0.0649
N2315 X2.683 Y4.6794 Z-0.0651
N2320 X2.6823 Y4.6745 Z-0.0653
N2325 X2.6821 Y4.6696 Z-0.0654
N2330 X2.6822 Y4.6646 Z-0.0656
N2335 X2.6827 Y4.6597 Z-0.0658
N2340 X2.6837 Y4.6549 Z-0.0659
N2345 X2.685 Y4.6502 Z-0.0661
N2350 X2.6867 Y4.6455 Z-0.0663
N2355 X2.6887 Y4.6411 Z-0.0665
N2360 X2.6911 Y4.6368 Z-0.0666
N2365 X2.6939 Y4.6327 Z-0.0668
N2370 X2.697 Y4.6288 Z-0.067
N2375 X2.7003 Y4.6252 Z-0.0671
N2380 X2.704 Y4.6219 Z-0.0673
N2385 X2.7079 Y4.6189 Z-0.0675
N2390 X2.712 Y4.6163 Z-0.0677
N2395 X2.7164 Y4.6139 Z-0.0678
N2400 X2.7209 Y4.6119 Z-0.068
N2405 X2.7255 Y4.6103 Z-0.0682
N2410 X2.7303 Y4.6091 Z-0.0683
N2415 X2.7351 Y4.6082 Z-0.0685
N2420 X2.74 Y4.6078 Z-0.0687
N2425 X2.745 Y4.6077 Z-0.0689
N2430 X2.7499 Y4.6081 Z-0.069
N2435 X2.7547 Y4.6088 Z-0.0692
N2440 X2.7595 Y4.6099 Z-0.0694
N2445 X2.7642 Y4.6114 Z-0.0695
N2450 X2.7688 Y4.6133 Z-0.0697
N2455 X2.7732 Y4.6155 Z-0.0699
N2460 X2.7774 Y4.6181 Z-0.0701
N2465 X2.7813 Y4.621 Z-0.0702
N2470 X2.7851 Y4.6242 Z-0.0704
N2475 X2.7885 Y4.6278 Z-0.0706
N2480 X2.7917 Y4.6315 Z-0.0707
N2485 X2.7945 Y4.6356 Z-0.0709
N2490 X2.797 Y4.6398 Z-0.0711
N2495 X2.7992 Y4.6442 Z-0.0713
N2500 X2.801 Y4.6488 Z-0.0714
N2505 X2.8024 Y4.6535 Z-0.0716
N2510 X2.8035 Y4.6583 Z-0.0718
N2515 X2.8041 Y4.6632 Z-0.072
N2520 X2.8044 Y4.6681 Z-0.0721
N2525 X2.8042 Y4.6731 Z-0.0723
N2530 X2.8037 Y4.678 Z-0.0725
N2535 X2.8028 Y4.6828 Z-0.0726
N2540 X2.8015 Y4.6875 Z-0.0728
N2545 X2.7998 Y4.6922 Z-0.073
N2550 X2.7977 Y4.6967 Z-0.0732
N2555 X2.7953 Y4.701 Z-0.0733
N2560 X2.7926 Y4.705 Z-0.0735
N2565 X2.7895 Y4.7089 Z-0.0737
N2570 X2.7861 Y4.7125 Z-0.0738
N2575 X2.7825 Y4.7158 Z-0.074
N2580 X2.7805 Y4.7173 Z-0.0741
N2585 X2.7786 Y4.7188 Z-0.0742
N2590 X2.7744 Y4.7215 Z-0.0744
N2595 X2.7701 Y4.7238 Z-0.0745
N2600 X2.7656 Y4.7258 Z-0.0747
N2605 X2.7609 Y4.7274 Z-0.0749
N2610 X2.7561 Y4.7287 Z-0.075
N2615 X2.7513 Y4.7295 Z-0.0752
N2620 X2.7464 Y4.73 Z-0.0754
N2625 X2.7415 Z-0.0756
N2630 X2.7365 Y4.7297 Z-0.0757
N2635 X2.7317 Y4.7289 Z-0.0759
N2640 X2.7269 Y4.7278 Z-0.0761
N2645 X2.7222 Y4.7263 Z-0.0763
N2650 X2.7176 Y4.7244 Z-0.0764
N2655 X2.7132 Y4.7222 Z-0.0766
N2660 X2.7091 Y4.7196 Z-0.0768
N2665 X2.7051 Y4.7167 Z-0.0769
N2670 X2.7014 Y4.7135 Z-0.0771
N2675 X2.6979 Y4.7099 Z-0.0773
N2680 X2.6947 Y4.7062 Z-0.0775
N2685 X2.6919 Y4.7021 Z-0.0776
N2690 X2.6894 Y4.6979 Z-0.0778
N2695 X2.6872 Y4.6935 Z-0.078
N2700 X2.6854 Y4.6889 Z-0.0781
N2705 X2.684 Y4.6842 Z-0.0783
N2710 X2.683 Y4.6794 Z-0.0785
N2715 X2.6823 Y4.6745 Z-0.0787
N2720 X2.6821 Y4.6693 Z-0.0788
N2725 Y4.6691
N2730 Y4.6666 Z-0.0789
N2735 X2.6822 Y4.6641 Z-0.079
N2740 X2.6828 Y4.6592 Z-0.0792
N2745 X2.6838 Y4.6544 Z-0.0794
N2750 X2.6851 Y4.6497 Z-0.0795
N2755 X2.6869 Y4.6451 Z-0.0797
N2760 X2.689 Y4.6406 Z-0.0799
N2765 X2.6914 Y4.6363 Z-0.08
N2770 X2.6942 Y4.6323 Z-0.0802
N2775 X2.6973 Y4.6285 Z-0.0804
N2780 X2.7007 Y4.6249 Z-0.0806
N2785 X2.7044 Y4.6216 Z-0.0807
N2790 X2.7083 Y4.6186 Z-0.0809
N2795 X2.7124 Y4.616 Z-0.0811
N2800 X2.7168 Y4.6137 Z-0.0812
N2805 X2.7213 Y4.6117 Z-0.0814
N2810 X2.726 Y4.6102 Z-0.0816
N2815 X2.7308 Y4.609 Z-0.0818
N2820 X2.7356 Y4.6082 Z-0.0819
N2825 X2.7405 Y4.6077 Z-0.0821
N2830 X2.7454 Z-0.0823
N2835 X2.7504 Y4.6081 Z-0.0824
N2840 X2.7552 Y4.6089 Z-0.0826
N2845 X2.76 Y4.61 Z-0.0828
N2850 X2.7647 Y4.6116 Z-0.083
N2855 X2.7692 Y4.6135 Z-0.0831
N2860 X2.7736 Y4.6158 Z-0.0833
N2865 X2.7778 Y4.6184 Z-0.0835
N2870 X2.7817 Y4.6213 Z-0.0837
N2875 X2.7854 Y4.6246 Z-0.0838
N2880 X2.7889 Y4.6281 Z-0.084
N2885 X2.792 Y4.6319 Z-0.0842
N2890 X2.7948 Y4.636 Z-0.0843
N2895 X2.7973 Y4.6402 Z-0.0845
N2900 X2.7994 Y4.6447 Z-0.0847
N2905 X2.8012 Y4.6493 Z-0.0849
N2910 X2.8026 Y4.654 Z-0.085
N2915 X2.8036 Y4.6588 Z-0.0852
N2920 X2.8042 Y4.6637 Z-0.0854
N2925 X2.8044 Y4.6686 Z-0.0855
N2930 X2.8043 Y4.6711 Z-0.0856
N2935 X2.8042 Y4.6736 Z-0.0857
N2940 X2.8036 Y4.6785 Z-0.0859
N2945 X2.8026 Y4.6833 Z-0.0861
N2950 X2.8013 Y4.688 Z-0.0862
N2955 X2.7996 Y4.6926 Z-0.0864
N2960 X2.7985 Y4.6949 Z-0.0865
N2965 X2.7975 Y4.6971 Z-0.0866
N2970 X2.795 Y4.7014 Z-0.0867
N2975 X2.7937 Y4.7034 Z-0.0868
N2980 X2.7922 Y4.7054 Z-0.0869
N2985 X2.7907 Y4.7074 Z-0.087
N2990 X2.7891 Y4.7093 Z-0.0871
N2995 X2.7875 Y4.7111 Z-0.0872
N3000 X2.7857 Y4.7128 Z-0.0873
N3005 X2.782 Y4.7161 Z-0.0874
N3010 X2.7801 Y4.7176 Z-0.0875
N3015 X2.7781 Y4.7191 Z-0.0876
N3020 X2.7761 Y4.7204 Z-0.0877
N3025 X2.774 Y4.7217 Z-0.0878
N3030 X2.7718 Y4.7229 Z-0.0879
N3035 X2.7696 Y4.724
N3040 X2.7651 Y4.726 Z-0.0881
N3045 X2.7604 Y4.7276 Z-0.0883
N3050 X2.758 Y4.7282 Z-0.0884
N3055 X2.7556 Y4.7287 Z-0.0885
N3060 X2.7532 Y4.7292
N3065 X2.7508 Y4.7296 Z-0.0886
N3070 X2.7483 Y4.7298 Z-0.0887
N3075 X2.7459 Y4.73 Z-0.0888
N3080 X2.741 Z-0.089
N3085 X2.736 Y4.7296 Z-0.0891
N3090 X2.7336 Y4.7293 Z-0.0892
N3095 X2.7312 Y4.7288 Z-0.0893
N3100 X2.7288 Y4.7283 Z-0.0894
N3105 X2.7264 Y4.7277 Z-0.0895
N3110 X2.7217 Y4.7261 Z-0.0897
N3115 X2.7172 Y4.7242 Z-0.0898
N3120 X2.7128 Y4.7219 Z-0.09
N3125 X2.7107 Y4.7206 Z-0.0901
N3130 X2.7086 Y4.7193 Z-0.0902
N3135 X2.7066 Y4.7179 Z-0.0903
N3140 X2.7047 Y4.7164 Z-0.0904
N3145 X2.701 Y4.7131 Z-0.0905
N3150 X2.6976 Y4.7096 Z-0.0907
N3155 X2.6944 Y4.7058 Z-0.0909
N3160 X2.693 Y4.7038 Z-0.091
N3165 X2.6916 Y4.7017
N3170 X2.6892 Y4.6975 Z-0.0912
N3175 X2.687 Y4.693 Z-0.0914
N3180 X2.6853 Y4.6884 Z-0.0916
N3185 X2.6845 Y4.6861
N3190 X2.6839 Y4.6837 Z-0.0917
N3195 X2.6833 Y4.6813 Z-0.0918
N3200 X2.6829 Y4.6789 Z-0.0919
N3205 X2.6825 Y4.6764 Z-0.092
N3210 X2.6823 Y4.674 Z-0.0921
N3215 X2.6821 Y4.6691 Z-0.0922
N3220 X2.6822 Y4.6641 Z-0.0924
N3225 X2.6825 Y4.6617 Z-0.0925
N3230 X2.6828 Y4.6592 Z-0.0926
N3235 X2.6833 Y4.6568 Z-0.0927
N3240 X2.6838 Y4.6544 Z-0.0928
N3245 X2.6844 Y4.652
N3250 X2.6851 Y4.6497 Z-0.0929
N3255 X2.6869 Y4.6451 Z-0.0931
N3260 X2.6879 Y4.6428 Z-0.0932
N3265 X2.689 Y4.6406 Z-0.0933
N3270 X2.6902 Y4.6385 Z-0.0934
N3275 X2.6914 Y4.6364
N3280 X2.6928 Y4.6343 Z-0.0935
N3285 X2.6942 Y4.6323 Z-0.0936
N3290 X2.6957 Y4.6304 Z-0.0937
N3295 X2.6973 Y4.6285 Z-0.0938
N3300 X2.7007 Y4.6249 Z-0.094
N3305 X2.7025 Y4.6232
N3310 X2.7044 Y4.6216 Z-0.0941
N3315 X2.7063 Y4.6201 Z-0.0942
N3320 X2.7083 Y4.6187 Z-0.0943
N3325 X2.7104 Y4.6173 Z-0.0944
N3330 X2.7125 Y4.616 Z-0.0945
N3335 X2.7146 Y4.6148 Z-0.0946
N3340 X2.7168 Y4.6137
N3345 X2.7213 Y4.6118 Z-0.0948
N3350 X2.7237 Y4.611 Z-0.0949
N3355 X2.726 Y4.6102 Z-0.095
N3360 X2.7284 Y4.6096 Z-0.0951
N3365 X2.7308 Y4.609 Z-0.0952
N3370 X2.7332 Y4.6086
N3375 X2.7356 Y4.6082 Z-0.0953
N3380 X2.7381 Y4.608 Z-0.0954
N3385 X2.7405 Y4.6078 Z-0.0955
N3390 X2.7454 Z-0.0957
N3395 X2.7479 Y4.6079 Z-0.0958
N3400 X2.7504 Y4.6082
N3405 X2.7528 Y4.6085 Z-0.0959
N3410 X2.7552 Y4.609 Z-0.096
N3415 X2.7576 Y4.6095 Z-0.0961
N3420 X2.76 Y4.6101 Z-0.0962
N3425 X2.7623 Y4.6108 Z-0.0963
N3430 X2.7647 Y4.6117 Z-0.0964
N3435 X2.7692 Y4.6136 Z-0.0965
N3440 X2.7714 Y4.6147 Z-0.0966
N3445 X2.7736 Y4.6158 Z-0.0967
N3450 X2.7757 Y4.6171 Z-0.0968
N3455 X2.7777 Y4.6185 Z-0.0969
N3460 X2.7797 Y4.6199 Z-0.097
N3465 X2.7817 Y4.6214
N3470 X2.7854 Y4.6247 Z-0.0972
N3475 X2.7871 Y4.6264 Z-0.0973
N3480 X2.7888 Y4.6282 Z-0.0974
N3485 X2.7904 Y4.6301 Z-0.0975
N3490 X2.7919 Y4.632 Z-0.0976
N3495 X2.7933 Y4.634
N3500 X2.7947 Y4.636 Z-0.0977
N3505 X2.796 Y4.6381 Z-0.0978
N3510 X2.7972 Y4.6403 Z-0.0979
N3515 X2.7993 Y4.6447 Z-0.0981
N3520 X2.8002 Y4.647 Z-0.0982
N3525 X2.801 Y4.6493
N3530 X2.8018 Y4.6517 Z-0.0983
N3535 X2.8024 Y4.654 Z-0.0984
N3540 X2.803 Y4.6564 Z-0.0985
N3545 X2.8034 Y4.6588 Z-0.0986
N3550 X2.8038 Y4.6613 Z-0.0987
N3555 X2.804 Y4.6637 Z-0.0988
N3560 X2.8042 Y4.6662
N3565 Y4.6686 Z-0.0989
N3570 X2.804 Y4.6735 Z-0.0991
N3575 X2.8034 Y4.6784 Z-0.0993
N3580 X2.8025 Y4.6833 Z-0.0994
N3585 X2.8011 Y4.688 Z-0.0996
N3590 X2.7994 Y4.6926 Z-0.0998
N3595 X2.7984 Y4.6948 Z-0.0999
N3600 X2.7973 Y4.697 Z-0.1
N3605 X2.7949 Y4.7013 Z-0.1001
N3610 X2.7935 Y4.7033 Z-0.1002
N3615 X2.7921 Y4.7053 Z-0.1003
N3620 X2.7906 Y4.7073 Z-0.1004
N3625 X2.789 Y4.7092 Z-0.1005
N3630 X2.7856 Y4.7127 Z-0.1006
N3635 X2.7838 Y4.7144 Z-0.1007
N3640 X2.7819 Y4.716 Z-0.1008
N3645 X2.78 Y4.7175 Z-0.1009
N3650 X2.778 Y4.7189 Z-0.101
N3655 X2.776 Y4.7203 Z-0.1011
N3660 X2.7739 Y4.7216 Z-0.1012
N3665 X2.7717 Y4.7228
N3670 X2.7695 Y4.7239 Z-0.1013
N3675 X2.765 Y4.7258 Z-0.1015
N3680 X2.7627 Y4.7266 Z-0.1016
N3685 X2.7604 Y4.7274 Z-0.1017
N3690 X2.758 Y4.728 Z-0.1018
N3695 X2.7556 Y4.7286
N3700 X2.7532 Y4.729 Z-0.1019
N3705 X2.7508 Y4.7294 Z-0.102
N3710 X2.7483 Y4.7296 Z-0.1021
N3715 X2.7459 Y4.7298 Z-0.1022
N3720 X2.741 Z-0.1024
N3725 X2.7385 Y4.7296
N3730 X2.7361 Y4.7294 Z-0.1025
N3735 X2.7336 Y4.7291 Z-0.1026
N3740 X2.7312 Y4.7286 Z-0.1027
N3745 X2.7288 Y4.7281 Z-0.1028
N3750 X2.7264 Y4.7275 Z-0.1029
N3755 X2.7241 Y4.7267 Z-0.103
N3760 X2.7218 Y4.7259
N3765 X2.7173 Y4.724 Z-0.1032
N3770 X2.7151 Y4.7229 Z-0.1033
N3775 X2.7129 Y4.7217 Z-0.1034
N3780 X2.7108 Y4.7205 Z-0.1035
N3785 X2.7087 Y4.7191 Z-0.1036
N3790 X2.7068 Y4.7177
N3795 X2.7048 Y4.7162 Z-0.1037
N3800 X2.7029 Y4.7146 Z-0.1038
N3805 X2.7011 Y4.713 Z-0.1039
N3810 X2.6977 Y4.7094 Z-0.1041
N3815 X2.6961 Y4.7076
N3820 X2.6946 Y4.7056 Z-0.1042
N3825 X2.6932 Y4.7036 Z-0.1043
N3830 X2.6918 Y4.7016 Z-0.1044
N3835 X2.6905 Y4.6995 Z-0.1045
N3840 X2.6893 Y4.6974 Z-0.1046
N3845 X2.6872 Y4.6929 Z-0.1047
N3850 X2.6863 Y4.6907 Z-0.1048
N3855 X2.6855 Y4.6883 Z-0.1049
N3860 X2.6847 Y4.686 Z-0.105
N3865 X2.6841 Y4.6836 Z-0.1051
N3870 X2.6836 Y4.6812 Z-0.1052
N3875 X2.6831 Y4.6788 Z-0.1053
N3880 X2.6828 Y4.6764
N3885 X2.6825 Y4.674 Z-0.1054
N3890 X2.6823 Y4.6691 Z-0.1056
N3895 Y4.6666 Z-0.1057
N3900 X2.6825 Y4.6642 Z-0.1058
N3905 X2.6827 Y4.6617 Z-0.1059
N3910 X2.6831 Y4.6593
N3915 X2.6835 Y4.6569 Z-0.106
N3920 X2.684 Y4.6545 Z-0.1061
N3925 X2.6846 Y4.6521 Z-0.1062
N3930 X2.6854 Y4.6498 Z-0.1063
N3935 X2.6871 Y4.6452 Z-0.1065
N3940 X2.6881 Y4.6429
N3945 X2.6892 Y4.6407 Z-0.1066
N3950 X2.6904 Y4.6386 Z-0.1067
N3955 X2.6916 Y4.6365 Z-0.1068
N3960 X2.693 Y4.6344 Z-0.1069
N3965 X2.6944 Y4.6324 Z-0.107
N3970 X2.6959 Y4.6305 Z-0.1071
N3975 X2.6975 Y4.6286
N3980 X2.7009 Y4.6251 Z-0.1073
N3985 X2.7027 Y4.6234 Z-0.1074
N3990 X2.7045 Y4.6218 Z-0.1075
N3995 X2.7065 Y4.6203 Z-0.1076
N4000 X2.7085 Y4.6189 Z-0.1077
N4005 X2.7105 Y4.6175
N4010 X2.7126 Y4.6162 Z-0.1078
N4015 X2.7147 Y4.615 Z-0.1079
N4020 X2.7169 Y4.6139 Z-0.108
N4025 X2.7214 Y4.612 Z-0.1082
N4030 X2.7237 Y4.6112 Z-0.1083
N4035 X2.7261 Y4.6104
N4040 X2.7284 Y4.6098 Z-0.1084
N4045 X2.7308 Y4.6093 Z-0.1085
N4050 X2.7332 Y4.6088 Z-0.1086
N4055 X2.7357 Y4.6085 Z-0.1087
N4060 X2.7381 Y4.6082 Z-0.1088
N4065 X2.7405 Y4.608 Z-0.1089
N4070 X2.7454 Z-0.109
N4075 X2.7479 Y4.6082 Z-0.1091
N4080 X2.7503 Y4.6084 Z-0.1092
N4085 X2.7528 Y4.6088 Z-0.1093
N4090 X2.7552 Y4.6092 Z-0.1094
N4095 X2.7576 Y4.6097 Z-0.1095
N4100 X2.7599 Y4.6103
N4105 X2.7623 Y4.6111 Z-0.1096
N4110 X2.7646 Y4.6119 Z-0.1097
N4115 X2.7691 Y4.6138 Z-0.1099
N4120 X2.7713 Y4.6149 Z-0.11
N4125 X2.7734 Y4.6161 Z-0.1101
N4130 X2.7755 Y4.6173
N4135 X2.7776 Y4.6187 Z-0.1102
N4140 X2.7796 Y4.6201 Z-0.1103
N4145 X2.7815 Y4.6216 Z-0.1104
N4150 X2.7852 Y4.6248 Z-0.1106
N4155 X2.7869 Y4.6266 Z-0.1107
N4160 X2.7886 Y4.6284
N4165 X2.7902 Y4.6302 Z-0.1108
N4170 X2.7917 Y4.6321 Z-0.1109
N4175 X2.7931 Y4.6341 Z-0.111
N4180 X2.7945 Y4.6362 Z-0.1111
N4185 X2.7958 Y4.6383 Z-0.1112
N4190 X2.797 Y4.6404
N4195 X2.7991 Y4.6448 Z-0.1114
N4200 X2.8 Y4.6471 Z-0.1115
N4205 X2.8008 Y4.6494 Z-0.1116
N4210 X2.8016 Y4.6517 Z-0.1117
N4215 X2.8022 Y4.6541 Z-0.1118
N4220 X2.8027 Y4.6565
N4225 X2.8032 Y4.6589 Z-0.1119
N4230 X2.8036 Y4.6613 Z-0.112
N4235 X2.8038 Y4.6637 Z-0.1121
N4240 X2.804 Y4.6662 Z-0.1122
N4245 Y4.6686 Z-0.1123
N4250 X2.8038 Y4.6735 Z-0.1124
N4255 X2.8032 Y4.6784 Z-0.1126
N4260 X2.8022 Y4.6832 Z-0.1128
N4265 X2.8009 Y4.6879 Z-0.113
N4270 X2.7992 Y4.6925 Z-0.1131
N4275 X2.7982 Y4.6947 Z-0.1132
N4280 X2.7971 Y4.6969 Z-0.1133
N4285 X2.7947 Y4.7012 Z-0.1135
N4290 X2.7933 Y4.7032 Z-0.1136
N4295 X2.7919 Y4.7052
N4300 X2.7904 Y4.7071 Z-0.1137
N4305 X2.7888 Y4.709 Z-0.1138
N4310 X2.7855 Y4.7126 Z-0.114
N4315 X2.7837 Y4.7142 Z-0.1141
N4320 X2.7818 Y4.7158 Z-0.1142
N4325 X2.7799 Y4.7173
N4330 X2.7779 Y4.7187 Z-0.1143
N4335 X2.7759 Y4.7201 Z-0.1144
N4340 X2.7738 Y4.7214 Z-0.1145
N4345 X2.7716 Y4.7226 Z-0.1146
N4350 X2.7694 Y4.7237 Z-0.1147
N4355 X2.7649 Y4.7256 Z-0.1148
N4360 X2.7626 Y4.7264 Z-0.1149
N4365 X2.7603 Y4.7272 Z-0.115
N4370 X2.7579 Y4.7278 Z-0.1151
N4375 X2.7556 Y4.7283 Z-0.1152
N4380 X2.7532 Y4.7288 Z-0.1153
N4385 X2.7507 Y4.7291
N4390 X2.7483 Y4.7294 Z-0.1154
N4395 X2.7459 Y4.7295 Z-0.1155
N4400 X2.741 Y4.7296 Z-0.1157
N4405 X2.7385 Y4.7294 Z-0.1158
N4410 X2.7361 Y4.7292 Z-0.1159
N4415 X2.7337 Y4.7288
N4420 X2.7313 Y4.7284 Z-0.116
N4425 X2.7289 Y4.7279 Z-0.1161
N4430 X2.7265 Y4.7272 Z-0.1162
N4435 X2.7242 Y4.7265 Z-0.1163
N4440 X2.7219 Y4.7257 Z-0.1164
N4445 X2.7174 Y4.7238 Z-0.1165
N4450 X2.7152 Y4.7227 Z-0.1166
N4455 X2.713 Y4.7215 Z-0.1167
N4460 X2.7109 Y4.7203 Z-0.1168
N4465 X2.7089 Y4.7189 Z-0.1169
N4470 X2.7069 Y4.7175 Z-0.117
N4475 X2.705 Y4.716 Z-0.1171
N4480 X2.7031 Y4.7144
N4485 X2.7013 Y4.7128 Z-0.1172
N4490 X2.6979 Y4.7093 Z-0.1174
N4495 X2.6963 Y4.7074 Z-0.1175
N4500 X2.6948 Y4.7055 Z-0.1176
N4505 X2.6934 Y4.7035 Z-0.1177
N4510 X2.692 Y4.7015
N4515 X2.6907 Y4.6994 Z-0.1178
N4520 X2.6895 Y4.6972 Z-0.1179
N4525 X2.6877 Y4.6934 Z-0.1181
N4530 X2.6869 Y4.6914
N4535 X2.6861 Y4.6894 Z-0.1182
N4540 X2.686 Y4.6892
N4545 X2.6856 Y4.6881 Z-0.1183
N4550 X2.6852 Y4.6869
N4555 X2.6845 Y4.6844 Z-0.1184
N4560 X2.6839 Y4.682 Z-0.1185
N4565 X2.6835 Y4.6795 Z-0.1186
N4570 X2.6828 Y4.6746 Z-0.1187
N4575 X2.6826 Y4.6721 Z-0.1188
N4580 X2.6825 Y4.6696 Z-0.1189
N4585 X2.6826 Y4.6671 Z-0.119
N4590 X2.6827 Y4.6646 Z-0.1191
N4595 X2.6829 Y4.662 Z-0.1192
N4600 X2.6832 Y4.6596 Z-0.1193
N4605 X2.6837 Y4.6571
N4610 X2.6842 Y4.6547 Z-0.1194
N4615 X2.6849 Y4.6522 Z-0.1195
N4620 X2.6856 Y4.6498 Z-0.1196
N4625 X2.6874 Y4.6451 Z-0.1198
N4630 X2.6884 Y4.6428 Z-0.1199
N4635 X2.6895 Y4.6406 Z-0.12
N4640 X2.6907 Y4.6384
N4645 X2.692 Y4.6363 Z-0.1201
N4650 X2.6934 Y4.6342 Z-0.1202
N4655 X2.6949 Y4.6321 Z-0.1203
N4660 X2.6965 Y4.6302 Z-0.1204
N4665 X2.6981 Y4.6283 Z-0.1205
N4670 X2.6998 Y4.6265 Z-0.1206
N4675 X2.7016 Y4.6247 Z-0.1207
N4680 X2.7035 Y4.623
N4685 X2.7054 Y4.6214 Z-0.1208
N4690 X2.7094 Y4.6185 Z-0.121
N4695 X2.7116 Y4.6171 Z-0.1211
N4700 X2.7137 Y4.6159 Z-0.1212
N4705 X2.7159 Y4.6147 Z-0.1213
N4710 X2.7182 Y4.6136 Z-0.1214
N4715 X2.7205 Y4.6126
N4720 X2.7229 Y4.6117 Z-0.1215
N4725 X2.7252 Y4.6109 Z-0.1216
N4730 X2.7277 Y4.6102 Z-0.1217
N4735 X2.7301 Y4.6096 Z-0.1218
N4740 X2.7325 Y4.6092 Z-0.1219
N4745 X2.7375 Y4.6085 Z-0.1221
N4750 X2.74 Y4.6083
N4755 X2.7425 Y4.6082 Z-0.1222
N4760 X2.745 Z-0.1223
N4765 X2.7475 Y4.6084 Z-0.1224
N4770 X2.75 Y4.6086 Z-0.1225
N4775 X2.7525 Y4.6089 Z-0.1226
N4780 X2.7549 Y4.6094 Z-0.1227
N4785 X2.7574 Y4.6099 Z-0.1228
N4790 X2.7598 Y4.6105
N4795 X2.7622 Y4.6113 Z-0.1229
N4800 X2.7669 Y4.613 Z-0.1231
N4805 X2.7692 Y4.6141 Z-0.1232
N4810 X2.7714 Y4.6152 Z-0.1233
N4815 X2.7736 Y4.6164 Z-0.1234
N4820 X2.7758 Y4.6177 Z-0.1235
N4825 X2.7778 Y4.6191
N4830 X2.7799 Y4.6206 Z-0.1236
N4835 X2.7818 Y4.6221 Z-0.1237
N4840 X2.7837 Y4.6238 Z-0.1238
N4845 X2.7856 Y4.6255 Z-0.1239
N4850 X2.7873 Y4.6273 Z-0.124
N4855 X2.789 Y4.6291 Z-0.1241
N4860 X2.7906 Y4.6311 Z-0.1242
N4865 X2.7935 Y4.6351 Z-0.1243
N4870 X2.7949 Y4.6372 Z-0.1244
N4875 X2.7962 Y4.6394 Z-0.1245
N4880 X2.7973 Y4.6416 Z-0.1246
N4885 X2.7984 Y4.6439 Z-0.1247
N4890 X2.7994 Y4.6462 Z-0.1248
N4895 X2.8003 Y4.6485 Z-0.1249
N4900 X2.8011 Y4.6509
N4905 X2.8018 Y4.6533 Z-0.125
N4910 X2.8024 Y4.6557 Z-0.1251
N4915 X2.8029 Y4.6582 Z-0.1252
N4920 X2.8035 Y4.6631 Z-0.1254
N4925 X2.8037 Y4.6656 Z-0.1255
N4930 X2.8038 Y4.6681 Z-0.1256
N4935 X2.8037 Y4.6706
N4940 X2.8036 Y4.6731 Z-0.1257
N4945 X2.803 Y4.6781 Z-0.1259
N4950 X2.8021 Y4.683 Z-0.1261
N4955 X2.8007 Y4.6878 Z-0.1263
N4960 X2.7989 Y4.6925 Z-0.1264
N4965 X2.7979 Y4.6948 Z-0.1265
N4970 X2.7968 Y4.697 Z-0.1266
N4975 X2.7943 Y4.7014 Z-0.1268
N4980 X2.7929 Y4.7035 Z-0.1269
N4985 X2.7914 Y4.7055 Z-0.127
N4990 X2.7899 Y4.7074
N4995 X2.7882 Y4.7093 Z-0.1271
N5000 X2.7865 Y4.7112 Z-0.1272
N5005 X2.7847 Y4.7129 Z-0.1273
N5010 X2.7829 Y4.7146 Z-0.1274
N5015 X2.781 Y4.7162 Z-0.1275
N5020 X2.7769 Y4.7191 Z-0.1276
N5025 X2.7748 Y4.7205 Z-0.1277
N5030 X2.7726 Y4.7217 Z-0.1278
N5035 X2.7704 Y4.7229 Z-0.1279
N5040 X2.7681 Y4.724 Z-0.128
N5045 X2.7658 Y4.725 Z-0.1281
N5050 X2.7635 Y4.7259 Z-0.1282
N5055 X2.7611 Y4.7267 Z-0.1283
N5060 X2.7587 Y4.7274
N5065 X2.7563 Y4.7279 Z-0.1284
N5070 X2.7539 Y4.7284 Z-0.1285
N5075 X2.7489 Y4.7291 Z-0.1287
N5080 X2.7464 Y4.7293 Z-0.1288
N5085 X2.7439 Y4.7294 Z-0.1289
N5090 X2.7414 Y4.7293 Z-0.129
N5095 X2.7389 Y4.7292
N5100 X2.7364 Y4.729 Z-0.1291
N5105 X2.7339 Y4.7286 Z-0.1292
N5110 X2.7315 Y4.7282 Z-0.1293
N5115 X2.729 Y4.7277 Z-0.1294
N5120 X2.7266 Y4.727 Z-0.1295
N5125 X2.7242 Y4.7263 Z-0.1296
N5130 X2.7195 Y4.7245 Z-0.1297
N5135 X2.7173 Y4.7235 Z-0.1298
N5140 X2.715 Y4.7224 Z-0.1299
N5145 X2.7128 Y4.7212 Z-0.13
N5150 X2.7107 Y4.7199 Z-0.1301
N5155 X2.7086 Y4.7185 Z-0.1302
N5160 X2.7066 Y4.717 Z-0.1303
N5165 X2.7047 Y4.7155 Z-0.1304
N5170 X2.7028 Y4.7138
N5175 X2.7009 Y4.7121 Z-0.1305
N5180 X2.6992 Y4.7103 Z-0.1306
N5185 X2.6975 Y4.7085 Z-0.1307
N5190 X2.6959 Y4.7066 Z-0.1308
N5195 X2.693 Y4.7025 Z-0.131
N5200 X2.6916 Y4.7004 Z-0.1311
N5205 X2.6904 Y4.6983
N5210 X2.6892 Y4.696 Z-0.1312
N5215 X2.6881 Y4.6938 Z-0.1313
N5220 X2.6871 Y4.6915 Z-0.1314
N5225 X2.6863 Y4.6892 Z-0.1315
N5230 X2.6855 Y4.6868 Z-0.1316
N5235 X2.6848 Y4.6844 Z-0.1317
N5240 X2.6842 Y4.6819
N5245 X2.6837 Y4.6795 Z-0.1318
N5250 X2.683 Y4.6745 Z-0.132
N5255 X2.6828 Y4.6721 Z-0.1321
N5260 Y4.6696 Z-0.1322
N5265 Y4.6671 Z-0.1323
N5270 X2.6829 Y4.6646 Z-0.1324
N5275 X2.6831 Y4.6621
N5280 X2.6835 Y4.6596 Z-0.1325
N5285 X2.6839 Y4.6571 Z-0.1326
N5290 X2.6844 Y4.6547 Z-0.1327
N5295 X2.6851 Y4.6523 Z-0.1328
N5300 X2.6858 Y4.6499 Z-0.1329
N5305 X2.6876 Y4.6452 Z-0.1331
N5310 X2.6886 Y4.6429
N5315 X2.6897 Y4.6407 Z-0.1332
N5320 X2.6909 Y4.6385 Z-0.1333
N5325 X2.6922 Y4.6364 Z-0.1334
N5330 X2.6936 Y4.6343 Z-0.1335
N5335 X2.6951 Y4.6323 Z-0.1336
N5340 X2.6967 Y4.6303 Z-0.1337
N5345 X2.6983 Y4.6284 Z-0.1338
N5350 X2.7 Y4.6266
N5355 X2.7018 Y4.6249 Z-0.1339
N5360 X2.7036 Y4.6232 Z-0.134
N5365 X2.7055 Y4.6216 Z-0.1341
N5370 X2.7096 Y4.6187 Z-0.1343
N5375 X2.7117 Y4.6173 Z-0.1344
N5380 X2.7138 Y4.6161 Z-0.1345
N5385 X2.716 Y4.6149
N5390 X2.7183 Y4.6138 Z-0.1346
N5395 X2.7206 Y4.6128 Z-0.1347
N5400 X2.7229 Y4.6119 Z-0.1348
N5405 X2.7253 Y4.6112 Z-0.1349
N5410 X2.7277 Y4.6105 Z-0.135
N5415 X2.7301 Y4.6099 Z-0.1351
N5420 X2.7326 Y4.6094
N5425 X2.7375 Y4.6087 Z-0.1353
N5430 X2.74 Y4.6085 Z-0.1354
N5435 X2.7425 Z-0.1355
N5440 X2.745 Z-0.1356
N5445 X2.7475 Y4.6086 Z-0.1357
N5450 X2.75 Y4.6088 Z-0.1358
N5455 X2.7524 Y4.6092
N5460 X2.7549 Y4.6096 Z-0.1359
N5465 X2.7573 Y4.6101 Z-0.136
N5470 X2.7598 Y4.6108 Z-0.1361
N5475 X2.7621 Y4.6115 Z-0.1362
N5480 X2.7668 Y4.6133 Z-0.1364
N5485 X2.7691 Y4.6143 Z-0.1365
N5490 X2.7713 Y4.6154
N5495 X2.7735 Y4.6166 Z-0.1366
N5500 X2.7756 Y4.6179 Z-0.1367
N5505 X2.7777 Y4.6193 Z-0.1368
N5510 X2.7797 Y4.6208 Z-0.1369
N5515 X2.7817 Y4.6223 Z-0.137
N5520 X2.7836 Y4.624 Z-0.1371
N5525 X2.7854 Y4.6257
N5530 X2.7871 Y4.6274 Z-0.1372
N5535 X2.7888 Y4.6293 Z-0.1373
N5540 X2.7904 Y4.6312 Z-0.1374
N5545 X2.7934 Y4.6352 Z-0.1376
N5550 X2.7947 Y4.6373 Z-0.1377
N5555 X2.796 Y4.6395 Z-0.1378
N5560 X2.7971 Y4.6417
N5565 X2.7982 Y4.644 Z-0.1379
N5570 X2.7992 Y4.6462 Z-0.138
N5575 X2.8001 Y4.6486 Z-0.1381
N5580 X2.8008 Y4.6509 Z-0.1382
N5585 X2.8015 Y4.6533 Z-0.1383
N5590 X2.8021 Y4.6558 Z-0.1384
N5595 X2.8026 Y4.6582 Z-0.1385
N5600 X2.8033 Y4.6632 Z-0.1386
N5605 X2.8035 Y4.6656 Z-0.1387
N5610 Y4.6681 Z-0.1388
N5615 Y4.6706 Z-0.1389
N5620 X2.8034 Y4.6731 Z-0.139
N5625 X2.8028 Y4.6781 Z-0.1391
N5630 X2.8018 Y4.683 Z-0.1393
N5635 X2.8005 Y4.6877 Z-0.1395
N5640 X2.7987 Y4.6924 Z-0.1397
N5645 X2.7977 Y4.6947 Z-0.1398
N5650 X2.7966 Y4.6969
N5655 X2.7941 Y4.7013 Z-0.14
N5660 X2.7927 Y4.7033 Z-0.1401
N5665 X2.7912 Y4.7053 Z-0.1402
N5670 X2.7897 Y4.7073 Z-0.1403
N5675 X2.788 Y4.7092 Z-0.1404
N5680 X2.7863 Y4.711 Z-0.1405
N5685 X2.7846 Y4.7127
N5690 X2.7827 Y4.7144 Z-0.1406
N5695 X2.7808 Y4.716 Z-0.1407
N5700 X2.7768 Y4.7189 Z-0.1409
N5705 X2.7747 Y4.7203 Z-0.141
N5710 X2.7725 Y4.7215 Z-0.1411
N5715 X2.7703 Y4.7227
N5720 X2.7681 Y4.7238 Z-0.1412
N5725 X2.7658 Y4.7247 Z-0.1413
N5730 X2.7634 Y4.7256 Z-0.1414
N5735 X2.7611 Y4.7264 Z-0.1415
N5740 X2.7587 Y4.7271 Z-0.1416
N5745 X2.7563 Y4.7277 Z-0.1417
N5750 X2.7538 Y4.7282 Z-0.1418
N5755 X2.7489 Y4.7288 Z-0.1419
N5760 X2.7464 Y4.729 Z-0.142
N5765 X2.7439 Y4.7291 Z-0.1421
N5770 X2.7414 Z-0.1422
N5775 X2.7389 Y4.7289 Z-0.1423
N5780 X2.7365 Y4.7287 Z-0.1424
N5785 X2.734 Y4.7284 Z-0.1425
N5790 X2.7315 Y4.7279
N5795 X2.7291 Y4.7274 Z-0.1426
N5800 X2.7267 Y4.7268 Z-0.1427
N5805 X2.7243 Y4.726 Z-0.1428
N5810 X2.7197 Y4.7243 Z-0.143
N5815 X2.7174 Y4.7233 Z-0.1431
N5820 X2.7152 Y4.7221
N5825 X2.713 Y4.7209 Z-0.1432
N5830 X2.7109 Y4.7196 Z-0.1433
N5835 X2.7088 Y4.7183 Z-0.1434
N5840 X2.7068 Y4.7168 Z-0.1435
N5845 X2.7048 Y4.7152 Z-0.1436
N5850 X2.703 Y4.7136 Z-0.1437
N5855 X2.7011 Y4.7119 Z-0.1438
N5860 X2.6994 Y4.7101
N5865 X2.6977 Y4.7083 Z-0.1439
N5870 X2.6961 Y4.7064 Z-0.144
N5875 X2.6932 Y4.7024 Z-0.1442
N5880 X2.6919 Y4.7003 Z-0.1443
N5885 X2.6906 Y4.6981 Z-0.1444
N5890 X2.6895 Y4.6959
N5895 X2.6884 Y4.6937 Z-0.1445
N5900 X2.6874 Y4.6914 Z-0.1446
N5905 X2.6865 Y4.6891 Z-0.1447
N5910 X2.6857 Y4.6867 Z-0.1448
N5915 X2.6851 Y4.6843 Z-0.1449
N5920 X2.6845 Y4.6819 Z-0.145
N5925 X2.684 Y4.6794 Z-0.1451
N5930 X2.6833 Y4.6745 Z-0.1452
N5935 X2.6831 Y4.672 Z-0.1453
N5940 Y4.6696 Z-0.1454
N5945 Y4.6671 Z-0.1455
N5950 X2.6832 Y4.6646 Z-0.1456
N5955 X2.6834 Y4.6621 Z-0.1457
N5960 X2.6838 Y4.6596
N5965 X2.6842 Y4.6572 Z-0.1458
N5970 X2.6847 Y4.6548 Z-0.1459
N5975 X2.6854 Y4.6524 Z-0.146
N5980 X2.6861 Y4.65 Z-0.1461
N5985 X2.6879 Y4.6453 Z-0.1463
N5990 X2.6889 Y4.6431 Z-0.1464
N5995 X2.69 Y4.6409
N6000 X2.6912 Y4.6387 Z-0.1465
N6005 X2.6925 Y4.6366 Z-0.1466
N6010 X2.6939 Y4.6345 Z-0.1467
N6015 X2.6953 Y4.6325 Z-0.1468
N6020 X2.6969 Y4.6305 Z-0.1469
N6025 X2.6985 Y4.6287 Z-0.147
N6030 X2.7002 Y4.6268
N6035 X2.702 Y4.6251 Z-0.1471
N6040 X2.7038 Y4.6234 Z-0.1472
N6045 X2.7057 Y4.6218 Z-0.1473
N6050 X2.7097 Y4.6189 Z-0.1475
N6055 X2.7118 Y4.6176 Z-0.1476
N6060 X2.714 Y4.6163 Z-0.1477
N6065 X2.7162 Y4.6152
N6070 X2.7184 Y4.6141 Z-0.1478
N6075 X2.7207 Y4.6131 Z-0.1479
N6080 X2.723 Y4.6123 Z-0.148
N6085 X2.7254 Y4.6115 Z-0.1481
N6090 X2.7278 Y4.6108 Z-0.1482
N6095 X2.7302 Y4.6102 Z-0.1483
N6100 X2.7326 Y4.6097
N6105 X2.7375 Y4.609 Z-0.1485
N6110 X2.74 Y4.6089 Z-0.1486
N6115 X2.7425 Y4.6088 Z-0.1487
N6120 X2.745 Z-0.1488
N6125 X2.7475 Y4.6089 Z-0.1489
N6130 X2.7499 Y4.6092 Z-0.149
N6135 X2.7524 Y4.6095
N6140 X2.7548 Y4.6099 Z-0.1491
N6145 X2.7573 Y4.6105 Z-0.1492
N6150 X2.7597 Y4.6111 Z-0.1493
N6155 X2.762 Y4.6118 Z-0.1494
N6160 X2.7667 Y4.6136 Z-0.1496
N6165 X2.7689 Y4.6146
N6170 X2.7712 Y4.6157 Z-0.1497
N6175 X2.7733 Y4.6169 Z-0.1498
N6180 X2.7754 Y4.6182 Z-0.1499
N6185 X2.7775 Y4.6196 Z-0.15
N6190 X2.7795 Y4.6211 Z-0.1501
N6195 X2.7815 Y4.6226 Z-0.1502
N6200 X2.7833 Y4.6242 Z-0.1503
N6205 X2.7851 Y4.6259
N6210 X2.7869 Y4.6277 Z-0.1504
N6215 X2.7885 Y4.6295 Z-0.1505
N6220 X2.7901 Y4.6314 Z-0.1506
N6225 X2.7931 Y4.6354 Z-0.1508
N6230 X2.7944 Y4.6375 Z-0.1509
N6235 X2.7956 Y4.6397
N6240 X2.7968 Y4.6419 Z-0.151
N6245 X2.7979 Y4.6441 Z-0.1511
N6250 X2.7988 Y4.6464 Z-0.1512
N6255 X2.7997 Y4.6487 Z-0.1513
N6260 X2.8005 Y4.6511 Z-0.1514
N6265 X2.8012 Y4.6534 Z-0.1515
N6270 X2.8018 Y4.6558 Z-0.1516
N6275 X2.8023 Y4.6583
N6280 X2.8029 Y4.6632 Z-0.1518
N6285 X2.8031 Y4.6657 Z-0.1519
N6290 X2.8032 Y4.6681 Z-0.152
N6295 X2.8031 Y4.6706 Z-0.1521
N6300 X2.803 Y4.6731 Z-0.1522
N6305 X2.8024 Y4.678 Z-0.1523
N6310 X2.8015 Y4.6829 Z-0.1525
N6315 X2.8001 Y4.6876 Z-0.1527
N6320 X2.7984 Y4.6923 Z-0.1528
N6325 X2.7973 Y4.6945 Z-0.1529
N6330 X2.7962 Y4.6967 Z-0.153
N6335 X2.7938 Y4.701 Z-0.1532
N6340 X2.7924 Y4.7031 Z-0.1533
N6345 X2.7909 Y4.7051 Z-0.1534
N6350 X2.7894 Y4.707 Z-0.1535
N6355 X2.7878 Y4.7089
N6360 X2.7861 Y4.7107 Z-0.1536
N6365 X2.7843 Y4.7125 Z-0.1537
N6370 X2.7825 Y4.7141 Z-0.1538
N6375 X2.7806 Y4.7157 Z-0.1539
N6380 X2.7766 Y4.7186 Z-0.1541
N6385 X2.7745 Y4.72
N6390 X2.7723 Y4.7212 Z-0.1542
N6395 X2.7701 Y4.7224 Z-0.1543
N6400 X2.7679 Y4.7234 Z-0.1544
N6405 X2.7656 Y4.7244 Z-0.1545
N6410 X2.7633 Y4.7253 Z-0.1546
N6415 X2.761 Y4.7261 Z-0.1547
N6420 X2.7586 Y4.7267
N6425 X2.7562 Y4.7273 Z-0.1548
N6430 X2.7538 Y4.7278 Z-0.1549
N6435 X2.7489 Y4.7285 Z-0.1551
N6440 X2.7464 Y4.7287 Z-0.1552
N6445 X2.7439 Z-0.1553
N6450 X2.7414 Z-0.1554
N6455 X2.739 Y4.7286
N6460 X2.7365 Y4.7283 Z-0.1555
N6465 X2.734 Y4.728 Z-0.1556
N6470 X2.7316 Y4.7276 Z-0.1557
N6475 X2.7292 Y4.727 Z-0.1558
N6480 X2.7268 Y4.7264 Z-0.1559
N6485 X2.7244 Y4.7257 Z-0.156
N6490 X2.7198 Y4.7239 Z-0.1561
N6495 X2.7175 Y4.7229 Z-0.1562
N6500 X2.7153 Y4.7218 Z-0.1563
N6505 X2.7132 Y4.7206 Z-0.1564
N6510 X2.7111 Y4.7193 Z-0.1565
N6515 X2.709 Y4.718 Z-0.1566
N6520 X2.707 Y4.7165
N6525 X2.7051 Y4.715 Z-0.1567
N6530 X2.7032 Y4.7133 Z-0.1568
N6535 X2.7014 Y4.7116 Z-0.1569
N6540 X2.6997 Y4.7099 Z-0.157
N6545 X2.698 Y4.708 Z-0.1571
N6550 X2.6964 Y4.7061 Z-0.1572
N6555 X2.6935 Y4.7022 Z-0.1573
N6560 X2.6922 Y4.7001 Z-0.1574
N6565 X2.6909 Y4.6979 Z-0.1575
N6570 X2.6905 Y4.697
N6575 X2.69 Y4.6962 Z-0.1576
N6580 X2.6894 Y4.6951
N6585 X2.6889 Y4.6939 Z-0.1577
N6590 X2.6879 Y4.6917 Z-0.1578
N6595 X2.687 Y4.6894
N6600 X2.6862 Y4.6871 Z-0.1579
N6605 X2.6849 Y4.6823 Z-0.1581
N6610 X2.6844 Y4.6799 Z-0.1582
N6615 X2.684 Y4.6774 Z-0.1583
N6620 X2.6837 Y4.675 Z-0.1584
N6625 X2.6835 Y4.6725
N6630 X2.6834 Y4.67 Z-0.1585
N6635 Y4.6676 Z-0.1586
N6640 X2.6836 Y4.6651 Z-0.1587
N6645 X2.6838 Y4.6626 Z-0.1588
N6650 X2.6841 Y4.6602 Z-0.1589
N6655 X2.6845 Y4.6578 Z-0.159
N6660 X2.685 Y4.6553
N6665 X2.6856 Y4.6529 Z-0.1591
N6670 X2.6871 Y4.6482 Z-0.1593
N6675 X2.688 Y4.6459 Z-0.1594
N6680 X2.689 Y4.6437 Z-0.1595
N6685 X2.6901 Y4.6414 Z-0.1596
N6690 X2.6913 Y4.6393
N6695 X2.6926 Y4.6372 Z-0.1597
N6700 X2.6939 Y4.6351 Z-0.1598
N6705 X2.6953 Y4.6331 Z-0.1599
N6710 X2.6969 Y4.6312 Z-0.16
N6715 X2.6985 Y4.6293 Z-0.1601
N6720 X2.7001 Y4.6275 Z-0.1602
N6725 X2.7037 Y4.624 Z-0.1603
N6730 X2.7056 Y4.6224 Z-0.1604
N6735 X2.7076 Y4.6209 Z-0.1605
N6740 X2.7096 Y4.6195 Z-0.1606
N6745 X2.7117 Y4.6182 Z-0.1607
N6750 X2.7138 Y4.6169 Z-0.1608
N6755 X2.7159 Y4.6157 Z-0.1609
N6760 X2.7182 Y4.6146
N6765 X2.7204 Y4.6137 Z-0.161
N6770 X2.7227 Y4.6128 Z-0.1611
N6775 X2.7251 Y4.612 Z-0.1612
N6780 X2.7298 Y4.6107 Z-0.1614
N6785 X2.7322 Y4.6102 Z-0.1615
N6790 X2.7346 Y4.6098
N6795 X2.7371 Y4.6095 Z-0.1616
N6800 X2.7395 Y4.6093 Z-0.1617
N6805 X2.742 Y4.6092 Z-0.1618
N6810 X2.7445 Z-0.1619
N6815 X2.747 Y4.6093 Z-0.162
N6820 X2.7494 Y4.6095 Z-0.1621
N6825 X2.7519 Y4.6098
N6830 X2.7543 Y4.6102 Z-0.1622
N6835 X2.7567 Y4.6107 Z-0.1623
N6840 X2.7591 Y4.6113 Z-0.1624
N6845 X2.7638 Y4.6128 Z-0.1626
N6850 X2.7661 Y4.6137 Z-0.1627
N6855 X2.7684 Y4.6147
N6860 X2.7706 Y4.6158 Z-0.1628
N6865 X2.7727 Y4.617 Z-0.1629
N6870 X2.7748 Y4.6183 Z-0.163
N6875 X2.7769 Y4.6196 Z-0.1631
N6880 X2.7789 Y4.621 Z-0.1632
N6885 X2.7808 Y4.6226 Z-0.1633
N6890 X2.7827 Y4.6242
N6895 X2.7845 Y4.6258 Z-0.1634
N6900 X2.788 Y4.6294 Z-0.1636
N6905 X2.7895 Y4.6313 Z-0.1637
N6910 X2.7911 Y4.6333 Z-0.1638
N6915 X2.7925 Y4.6353 Z-0.1639
N6920 X2.7938 Y4.6373 Z-0.164
N6925 X2.7951 Y4.6395
N6930 X2.7962 Y4.6416 Z-0.1641
N6935 X2.7973 Y4.6438 Z-0.1642
N6940 X2.7983 Y4.6461 Z-0.1643
N6945 X2.7992 Y4.6484 Z-0.1644
N6950 X2.8 Y4.6507 Z-0.1645
N6955 X2.8013 Y4.6555 Z-0.1646
N6960 X2.8018 Y4.6579 Z-0.1647
N6965 X2.8022 Y4.6603 Z-0.1648
N6970 X2.8025 Y4.6627 Z-0.1649
N6975 X2.8027 Y4.6652 Z-0.165
N6980 X2.8028 Y4.6677 Z-0.1651
N6985 Y4.6701 Z-0.1652
N6990 X2.8024 Y4.6751 Z-0.1653
N6995 X2.8017 Y4.6799 Z-0.1655
N7000 X2.8012 Y4.6823 Z-0.1656
N7005 X2.8006 Y4.6847 Z-0.1657
N7010 X2.7991 Y4.6894 Z-0.1658
N7015 X2.7972 Y4.694 Z-0.166
N7020 X2.7949 Y4.6983 Z-0.1662
N7025 X2.7937 Y4.7004 Z-0.1663
N7030 X2.7924 Y4.7025 Z-0.1664
N7035 X2.7909 Y4.7045
N7040 X2.7894 Y4.7064 Z-0.1665
N7045 X2.7878 Y4.7083 Z-0.1666
N7050 X2.7862 Y4.7101 Z-0.1667
N7055 X2.7826 Y4.7135 Z-0.1669
N7060 X2.7807 Y4.7151 Z-0.167
N7065 X2.7788 Y4.7166
N7070 X2.7768 Y4.718 Z-0.1671
N7075 X2.7747 Y4.7194 Z-0.1672
N7080 X2.7726 Y4.7206 Z-0.1673
N7085 X2.7704 Y4.7218 Z-0.1674
N7090 X2.7682 Y4.7229 Z-0.1675
N7095 X2.7659 Y4.7239 Z-0.1676
N7100 X2.7636 Y4.7248
N7105 X2.7613 Y4.7256 Z-0.1677
N7110 X2.7589 Y4.7263 Z-0.1678
N7115 X2.7566 Y4.7269 Z-0.1679
N7120 X2.7517 Y4.7278 Z-0.1681
N7125 X2.7493 Y4.728 Z-0.1682
N7130 X2.7468 Y4.7282
N7135 X2.7444 Y4.7283 Z-0.1683
N7140 X2.7419 Z-0.1684
N7145 X2.7395 Y4.7282 Z-0.1685
N7150 X2.737 Y4.728 Z-0.1686
N7155 X2.7346 Y4.7277 Z-0.1687
N7160 X2.7322 Y4.7273 Z-0.1688
N7165 X2.7297 Y4.7268
N7170 X2.7274 Y4.7262 Z-0.1689
N7175 X2.7227 Y4.7247 Z-0.1691
N7180 X2.7204 Y4.7238 Z-0.1692
N7185 X2.7181 Y4.7228 Z-0.1693
N7190 X2.7159 Y4.7217 Z-0.1694
N7195 X2.7138 Y4.7205
N7200 X2.7117 Y4.7193 Z-0.1695
N7205 X2.7096 Y4.7179 Z-0.1696
N7210 X2.7076 Y4.7165 Z-0.1697
N7215 X2.7057 Y4.715 Z-0.1698
N7220 X2.7038 Y4.7134 Z-0.1699
N7225 X2.702 Y4.7117 Z-0.17
N7230 X2.6986 Y4.7082 Z-0.1701
N7235 X2.697 Y4.7063 Z-0.1702
N7240 X2.6955 Y4.7043 Z-0.1703
N7245 X2.6941 Y4.7023 Z-0.1704
N7250 X2.6928 Y4.7003 Z-0.1705
N7255 X2.6915 Y4.6982 Z-0.1706
N7260 X2.6903 Y4.696
N7265 X2.6893 Y4.6938 Z-0.1707
N7270 X2.6883 Y4.6915 Z-0.1708
N7275 X2.6874 Y4.6893 Z-0.1709
N7280 X2.6866 Y4.6869 Z-0.171
N7285 X2.6853 Y4.6822 Z-0.1712
N7290 X2.6848 Y4.6798
N7295 X2.6844 Y4.6774 Z-0.1713
N7300 X2.6841 Y4.6749 Z-0.1714
N7305 X2.6839 Y4.6725 Z-0.1715
N7310 X2.6838 Y4.67 Z-0.1716
N7315 Y4.6676 Z-0.1717
N7320 X2.6839 Y4.6651 Z-0.1718
N7325 X2.6841 Y4.6627
N7330 X2.6844 Y4.6602 Z-0.1719
N7335 X2.6848 Y4.6578 Z-0.172
N7340 X2.6853 Y4.6554 Z-0.1721
N7345 X2.686 Y4.653 Z-0.1722
N7350 X2.6875 Y4.6484 Z-0.1724
N7355 X2.6884 Y4.6461
N7360 X2.6894 Y4.6438 Z-0.1725
N7365 X2.6904 Y4.6416 Z-0.1726
N7370 X2.6916 Y4.6395 Z-0.1727
N7375 X2.6929 Y4.6374 Z-0.1728
N7380 X2.6942 Y4.6353 Z-0.1729
N7385 X2.6956 Y4.6333 Z-0.173
N7390 X2.6972 Y4.6314
N7395 X2.6987 Y4.6295 Z-0.1731
N7400 X2.7004 Y4.6277 Z-0.1732
N7405 X2.704 Y4.6243 Z-0.1734
N7410 X2.7058 Y4.6227 Z-0.1735
N7415 X2.7078 Y4.6212 Z-0.1736
N7420 X2.7098 Y4.6198
N7425 X2.7118 Y4.6185 Z-0.1737
N7430 X2.714 Y4.6172 Z-0.1738
N7435 X2.7161 Y4.6161 Z-0.1739
N7440 X2.7183 Y4.615 Z-0.174
N7445 X2.7206 Y4.614 Z-0.1741
N7450 X2.7228 Y4.6131 Z-0.1742
N7455 X2.7252 Y4.6123
N7460 X2.7299 Y4.611 Z-0.1744
N7465 X2.7323 Y4.6105 Z-0.1745
N7470 X2.7347 Y4.6101 Z-0.1746
N7475 X2.7371 Y4.6098 Z-0.1747
N7480 X2.7396 Y4.6096 Z-0.1748
N7485 X2.742 Y4.6095
N7490 X2.7445 Y4.6096 Z-0.1749
N7495 X2.7469 Y4.6097 Z-0.175
N7500 X2.7494 Y4.6099 Z-0.1751
N7505 X2.7518 Y4.6102 Z-0.1752
N7510 X2.7542 Y4.6106 Z-0.1753
N7515 X2.7566 Y4.6111 Z-0.1754
N7520 X2.759 Y4.6117
N7525 X2.7637 Y4.6132 Z-0.1756
N7530 X2.766 Y4.6141 Z-0.1757
N7535 X2.7682 Y4.6151 Z-0.1758
N7540 X2.7704 Y4.6162 Z-0.1759
N7545 X2.7725 Y4.6173 Z-0.176
N7550 X2.7746 Y4.6186
N7555 X2.7767 Y4.6199 Z-0.1761
N7560 X2.7787 Y4.6214 Z-0.1762
N7565 X2.7806 Y4.6229 Z-0.1763
N7570 X2.7825 Y4.6244 Z-0.1764
N7575 X2.7843 Y4.6261 Z-0.1765
N7580 X2.7877 Y4.6297 Z-0.1766
N7585 X2.7893 Y4.6315 Z-0.1767
N7590 X2.7908 Y4.6335 Z-0.1768
N7595 X2.7922 Y4.6355 Z-0.1769
N7600 X2.7935 Y4.6375 Z-0.177
N7605 X2.7948 Y4.6396 Z-0.1771
N7610 X2.7959 Y4.6418
N7615 X2.797 Y4.644 Z-0.1772
N7620 X2.798 Y4.6462 Z-0.1773
N7625 X2.7989 Y4.6485 Z-0.1774
N7630 X2.7996 Y4.6508 Z-0.1775
N7635 X2.8009 Y4.6555 Z-0.1777
N7640 X2.8014 Y4.6579
N7645 X2.8018 Y4.6603 Z-0.1778
N7650 X2.8021 Y4.6628 Z-0.1779
N7655 X2.8023 Y4.6652 Z-0.178
N7660 X2.8024 Y4.6677 Z-0.1781
N7665 Y4.6701 Z-0.1782
N7670 X2.8021 Y4.675 Z-0.1783
N7675 X2.8014 Y4.6799 Z-0.1785
N7680 X2.8008 Y4.6822 Z-0.1786
N7685 X2.8003 Y4.6846 Z-0.1787
N7690 X2.7987 Y4.6893 Z-0.1789
N7695 X2.7969 Y4.6938 Z-0.179
N7700 X2.7946 Y4.6981 Z-0.1792
N7705 X2.7934 Y4.7002 Z-0.1793
N7710 X2.792 Y4.7023 Z-0.1794
N7715 X2.7906 Y4.7043 Z-0.1795
N7720 X2.7891 Y4.7062
N7725 X2.7875 Y4.7081 Z-0.1796
N7730 X2.7859 Y4.7099 Z-0.1797
N7735 X2.7824 Y4.7132 Z-0.1799
N7740 X2.7805 Y4.7148 Z-0.18
N7745 X2.7785 Y4.7163 Z-0.1801
N7750 X2.7765 Y4.7177
N7755 X2.7745 Y4.7191 Z-0.1802
N7760 X2.7724 Y4.7203 Z-0.1803
N7765 X2.7702 Y4.7215 Z-0.1804
N7770 X2.768 Y4.7225 Z-0.1805
N7775 X2.7658 Y4.7235 Z-0.1806
N7780 X2.7635 Y4.7244
N7785 X2.7612 Y4.7252 Z-0.1807
N7790 X2.7588 Y4.7259 Z-0.1808
N7795 X2.7565 Y4.7265 Z-0.1809
N7800 X2.7517 Y4.7274 Z-0.1811
N7805 X2.7492 Y4.7277 Z-0.1812
N7810 X2.7468 Y4.7279
N7815 X2.7444 Y4.728 Z-0.1813
N7820 X2.7419 Z-0.1814
N7825 X2.7395 Y4.7279 Z-0.1815
N7830 X2.7371 Y4.7277 Z-0.1816
N7835 X2.7346 Y4.7273 Z-0.1817
N7840 X2.7322 Y4.7269 Z-0.1818
N7845 X2.7298 Y4.7264
N7850 X2.7275 Y4.7258 Z-0.1819
N7855 X2.7228 Y4.7243 Z-0.1821
N7860 X2.7205 Y4.7234 Z-0.1822
N7865 X2.7183 Y4.7224 Z-0.1823
N7870 X2.7161 Y4.7214 Z-0.1824
N7875 X2.714 Y4.7202
N7880 X2.7119 Y4.719 Z-0.1825
N7885 X2.7098 Y4.7176 Z-0.1826
N7890 X2.7078 Y4.7162 Z-0.1827
N7895 X2.7059 Y4.7147 Z-0.1828
N7900 X2.7041 Y4.7131 Z-0.1829
N7905 X2.7023 Y4.7114
N7910 X2.6989 Y4.7079 Z-0.1831
N7915 X2.6973 Y4.706 Z-0.1832
N7920 X2.6958 Y4.7041 Z-0.1833
N7925 X2.6944 Y4.7021 Z-0.1834
N7930 X2.6931 Y4.7001 Z-0.1835
N7935 X2.6918 Y4.698
N7940 X2.6907 Y4.6958 Z-0.1836
N7945 X2.6896 Y4.6936 Z-0.1837
N7950 X2.6886 Y4.6914 Z-0.1838
N7955 X2.6877 Y4.6891 Z-0.1839
N7960 X2.6869 Y4.6868 Z-0.184
N7965 X2.6857 Y4.6821 Z-0.1841
N7970 X2.6852 Y4.6797 Z-0.1842
N7975 X2.6848 Y4.6773 Z-0.1843
N7980 X2.6845 Y4.6749 Z-0.1844
N7985 X2.6843 Y4.6725 Z-0.1845
N7990 X2.6842 Y4.67 Z-0.1846
N7995 Y4.6676 Z-0.1847
N8000 X2.6843 Y4.6651
N8005 X2.6845 Y4.6627 Z-0.1848
N8010 X2.6848 Y4.6603 Z-0.1849
N8015 X2.6852 Y4.6579 Z-0.185
N8020 X2.6857 Y4.6555 Z-0.1851
N8025 X2.6863 Y4.6531 Z-0.1852
N8030 X2.6878 Y4.6485 Z-0.1853
N8035 X2.6887 Y4.6462 Z-0.1854
N8040 X2.6897 Y4.644 Z-0.1855
N8045 X2.6908 Y4.6418 Z-0.1856
N8050 X2.6919 Y4.6397 Z-0.1857
N8055 X2.6932 Y4.6376 Z-0.1858
N8060 X2.6945 Y4.6355
N8065 X2.6959 Y4.6335 Z-0.1859
N8070 X2.6974 Y4.6316 Z-0.186
N8075 X2.699 Y4.6298 Z-0.1861
N8080 X2.7007 Y4.628 Z-0.1862
N8085 X2.7042 Y4.6246 Z-0.1864
N8090 X2.7061 Y4.623
N8095 X2.708 Y4.6215 Z-0.1865
N8100 X2.71 Y4.6201 Z-0.1866
N8105 X2.712 Y4.6188 Z-0.1867
N8110 X2.7141 Y4.6176 Z-0.1868
N8115 X2.7163 Y4.6164 Z-0.1869
N8120 X2.7185 Y4.6153
N8125 X2.7207 Y4.6144 Z-0.187
N8130 X2.723 Y4.6135 Z-0.1871
N8135 X2.7253 Y4.6127 Z-0.1872
N8140 X2.73 Y4.6114 Z-0.1874
N8145 X2.7324 Y4.6109 Z-0.1875
N8150 X2.7348 Y4.6105
N8155 X2.7372 Y4.6102 Z-0.1876
N8160 X2.7396 Y4.61 Z-0.1877
N8165 X2.742 Y4.6099 Z-0.1878
N8170 X2.7445 Z-0.1879
N8175 X2.7469 Y4.6101 Z-0.188
N8180 X2.7493 Y4.6103 Z-0.1881
N8185 X2.7518 Y4.6106
N8190 X2.7542 Y4.611 Z-0.1882
N8195 X2.7565 Y4.6115 Z-0.1883
N8200 X2.7589 Y4.6121 Z-0.1884
N8205 X2.7635 Y4.6136 Z-0.1886
N8210 X2.7658 Y4.6145
N8215 X2.768 Y4.6154 Z-0.1887
N8220 X2.7702 Y4.6165 Z-0.1888
N8225 X2.7723 Y4.6177 Z-0.1889
N8230 X2.7744 Y4.6189 Z-0.189
N8235 X2.7765 Y4.6203 Z-0.1891
N8240 X2.7784 Y4.6217 Z-0.1892
N8245 X2.7804 Y4.6232
N8250 X2.7822 Y4.6248 Z-0.1893
N8255 X2.784 Y4.6264 Z-0.1894
N8260 X2.7874 Y4.6299 Z-0.1896
N8265 X2.7889 Y4.6318 Z-0.1897
N8270 X2.7904 Y4.6337 Z-0.1898
N8275 X2.7918 Y4.6357
N8280 X2.7931 Y4.6377 Z-0.1899
N8285 X2.7944 Y4.6398 Z-0.19
N8290 X2.7955 Y4.642 Z-0.1901
N8295 X2.7966 Y4.6442 Z-0.1902
N8300 X2.7976 Y4.6464 Z-0.1903
N8305 X2.7985 Y4.6487
N8310 X2.7992 Y4.651 Z-0.1904
N8315 X2.8005 Y4.6556 Z-0.1906
N8320 X2.801 Y4.658 Z-0.1907
N8325 X2.8014 Y4.6604 Z-0.1908
N8330 X2.8017 Y4.6628 Z-0.1909
N8335 X2.8019 Y4.6653
N8340 X2.802 Y4.6677 Z-0.191
N8345 X2.8019 Y4.6701 Z-0.1911
N8350 X2.8016 Y4.675 Z-0.1913
N8355 X2.8009 Y4.6798 Z-0.1914
N8360 X2.8004 Y4.6821 Z-0.1915
N8365 X2.7998 Y4.6845 Z-0.1916
N8370 X2.7983 Y4.6891 Z-0.1918
N8375 X2.7965 Y4.6936 Z-0.192
N8380 X2.7942 Y4.6979 Z-0.1921
N8385 X2.793 Y4.7 Z-0.1922
N8390 X2.7917 Y4.702 Z-0.1923
N8395 X2.7903 Y4.704 Z-0.1924
N8400 X2.7888 Y4.7059 Z-0.1925
N8405 X2.7872 Y4.7078
N8410 X2.7855 Y4.7096 Z-0.1926
N8415 X2.782 Y4.7129 Z-0.1928
N8420 X2.7802 Y4.7145 Z-0.1929
N8425 X2.7783 Y4.716 Z-0.193
N8430 X2.7763 Y4.7174 Z-0.1931
N8435 X2.7742 Y4.7187
N8440 X2.7722 Y4.7199 Z-0.1932
N8445 X2.77 Y4.7211 Z-0.1933
N8450 X2.7678 Y4.7221 Z-0.1934
N8455 X2.7656 Y4.7231 Z-0.1935
N8460 X2.7634 Y4.724 Z-0.1936
N8465 X2.7611 Y4.7248
N8470 X2.7564 Y4.7261 Z-0.1938
N8475 X2.754 Y4.7265 Z-0.1939
N8480 X2.7516 Y4.7269 Z-0.194
N8485 X2.7492 Y4.7272 Z-0.1941
N8490 X2.7468 Y4.7274 Z-0.1942
N8495 X2.7444 Y4.7275
N8500 X2.7419 Z-0.1943
N8505 X2.7395 Y4.7274 Z-0.1944
N8510 X2.7371 Y4.7272 Z-0.1945
N8515 X2.7347 Y4.7269 Z-0.1946
N8520 X2.7323 Y4.7265 Z-0.1947
N8525 X2.7299 Y4.726
N8530 X2.7276 Y4.7254 Z-0.1948
N8535 X2.723 Y4.7239 Z-0.195
N8540 X2.7207 Y4.723 Z-0.1951
N8545 X2.7185 Y4.722 Z-0.1952
N8550 X2.7163 Y4.7209 Z-0.1953
N8555 X2.7142 Y4.7198
N8560 X2.7121 Y4.7185 Z-0.1954
N8565 X2.7101 Y4.7172 Z-0.1955
N8570 X2.7081 Y4.7158 Z-0.1956
N8575 X2.7062 Y4.7143 Z-0.1957
N8580 X2.7044 Y4.7127 Z-0.1958
N8585 X2.7026 Y4.7111
N8590 X2.6992 Y4.7076 Z-0.196
N8595 X2.6977 Y4.7057 Z-0.1961
N8600 X2.6962 Y4.7038 Z-0.1962
N8605 X2.6948 Y4.7019 Z-0.1963
N8610 X2.6935 Y4.6998 Z-0.1964
N8615 X2.6923 Y4.6977
N8620 X2.6911 Y4.6956 Z-0.1965
N8625 X2.69 Y4.6934 Z-0.1966
N8630 X2.6891 Y4.6912 Z-0.1967
N8635 X2.6882 Y4.689 Z-0.1968
N8640 X2.6874 Y4.6867 Z-0.1969
N8645 X2.6867 Y4.6842
N8650 Y4.684 Z-0.197
N8655 X2.6863 Y4.6828
N8660 X2.6861 Y4.6816
N8665 X2.6856 Y4.6792 Z-0.1971
N8670 X2.6849 Y4.6742 Z-0.1973
N8675 X2.6847 Y4.6718 Z-0.1974
N8680 Y4.6693 Z-0.1975
N8685 Y4.6668 Z-0.1976
N8690 X2.6849 Y4.6643
N8695 X2.6851 Y4.6618 Z-0.1977
N8700 X2.6855 Y4.6594 Z-0.1978
N8705 X2.6859 Y4.6569 Z-0.1979
N8710 X2.6865 Y4.6545 Z-0.198
N8715 X2.6871 Y4.6521 Z-0.1981
N8720 X2.6879 Y4.6498 Z-0.1982
N8725 X2.6888 Y4.6474 Z-0.1983
N8730 X2.6897 Y4.6452
N8735 X2.6908 Y4.6429 Z-0.1984
N8740 X2.6919 Y4.6407 Z-0.1985
N8745 X2.6932 Y4.6386 Z-0.1986
N8750 X2.6945 Y4.6365 Z-0.1987
N8755 X2.6974 Y4.6324 Z-0.1989
N8760 X2.699 Y4.6305
N8765 X2.7007 Y4.6287 Z-0.199
N8770 X2.7024 Y4.6269 Z-0.1991
N8775 X2.7042 Y4.6253 Z-0.1992
N8780 X2.7061 Y4.6237 Z-0.1993
N8785 X2.7081 Y4.6221 Z-0.1994
N8790 X2.7101 Y4.6207 Z-0.1995
N8795 X2.7122 Y4.6193
N8800 X2.7143 Y4.6181 Z-0.1996
N8805 X2.7165 Y4.6169 Z-0.1997
N8810 X2.7187 Y4.6158 Z-0.1998
N8815 X2.721 Y4.6148 Z-0.1999
N8820 X2.7233 Y4.6139 Z-0.2
N8825 X2.7257 Y4.6131 Z-0.2001
N8830 X2.7281 Y4.6124 Z-0.2002
N8835 X2.7305 Y4.6118
N8840 X2.7329 Y4.6113 Z-0.2003
N8845 X2.7354 Y4.6109 Z-0.2004
N8850 X2.7403 Y4.6105 Z-0.2006
N8855 X2.7427 Y4.6104 Z-0.2007
N8860 X2.7452 Y4.6105 Z-0.2008
N8865 X2.7477 Y4.6106
N8870 X2.7502 Y4.6109 Z-0.2009
N8875 X2.7526 Y4.6112 Z-0.201
N8880 X2.7551 Y4.6117 Z-0.2011
N8885 X2.7575 Y4.6122 Z-0.2012
N8890 X2.7599 Y4.6129 Z-0.2013
N8895 X2.7622 Y4.6137 Z-0.2014
N8900 X2.7646 Y4.6145 Z-0.2015
N8905 X2.7668 Y4.6155
N8910 X2.7691 Y4.6165 Z-0.2016
N8915 X2.7713 Y4.6177 Z-0.2017
N8920 X2.7734 Y4.6189 Z-0.2018
N8925 X2.7755 Y4.6202 Z-0.2019
N8930 X2.7776 Y4.6217 Z-0.202
N8935 X2.7814 Y4.6247 Z-0.2021
N8940 X2.7833 Y4.6264 Z-0.2022
N8945 X2.785 Y4.6281 Z-0.2023
N8950 X2.7867 Y4.63 Z-0.2024
N8955 X2.7883 Y4.6318 Z-0.2025
N8960 X2.7898 Y4.6338 Z-0.2026
N8965 X2.7913 Y4.6358 Z-0.2027
N8970 X2.7926 Y4.6379
N8975 X2.7939 Y4.64 Z-0.2028
N8980 X2.7951 Y4.6422 Z-0.2029
N8985 X2.7962 Y4.6444 Z-0.203
N8990 X2.7971 Y4.6467 Z-0.2031
N8995 X2.798 Y4.649 Z-0.2032
N9000 X2.7988 Y4.6513 Z-0.2033
N9005 X2.7995 Y4.6537 Z-0.2034
N9010 X2.8001 Y4.6561
N9015 X2.8006 Y4.6586 Z-0.2035
N9020 X2.8013 Y4.6635 Z-0.2037
N9025 X2.8014 Y4.6659 Z-0.2038
N9030 X2.8015 Y4.6684 Z-0.2039
N9035 X2.8014 Y4.6709 Z-0.204
N9040 X2.8013 Y4.6734
N9045 X2.8007 Y4.6783 Z-0.2042
N9050 X2.7997 Y4.6831 Z-0.2044
N9055 X2.7983 Y4.6878 Z-0.2046
N9060 X2.7974 Y4.6901
N9065 X2.7964 Y4.6924 Z-0.2047
N9070 X2.7942 Y4.6969 Z-0.2049
N9075 X2.793 Y4.699 Z-0.205
N9080 X2.7917 Y4.7011 Z-0.2051
N9085 X2.7903 Y4.7031 Z-0.2052
N9090 X2.7888 Y4.7051 Z-0.2053
N9095 X2.7855 Y4.7088 Z-0.2054
N9100 X2.7838 Y4.7106 Z-0.2055
N9105 X2.782 Y4.7123 Z-0.2056
N9110 X2.7801 Y4.7139 Z-0.2057
N9115 X2.7782 Y4.7154 Z-0.2058
N9120 X2.7762 Y4.7168 Z-0.2059
N9125 X2.7741 Y4.7182
N9130 X2.772 Y4.7194 Z-0.206
N9135 X2.7698 Y4.7206 Z-0.2061
N9140 X2.7676 Y4.7217 Z-0.2062
N9145 X2.7653 Y4.7227 Z-0.2063
N9150 X2.763 Y4.7236 Z-0.2064
N9155 X2.7606 Y4.7244 Z-0.2065
N9160 X2.7583 Y4.725
N9165 X2.7559 Y4.7256 Z-0.2066
N9170 X2.7535 Y4.7261 Z-0.2067
N9175 X2.751 Y4.7265 Z-0.2068
N9180 X2.7461 Y4.7269 Z-0.207
N9185 X2.7437 Y4.727 Z-0.2071
N9190 X2.7412
N9195 X2.7387 Y4.7268 Z-0.2072
N9200 X2.7362 Y4.7266 Z-0.2073
N9205 X2.7338 Y4.7262 Z-0.2074
N9210 X2.7314 Y4.7258 Z-0.2075
N9215 X2.729 Y4.7252 Z-0.2076
N9220 X2.7266 Y4.7246 Z-0.2077
N9225 X2.7243 Y4.7238
N9230 X2.722 Y4.723 Z-0.2078
N9235 X2.7197 Y4.722 Z-0.2079
N9240 X2.7175 Y4.721 Z-0.208
N9245 X2.7153 Y4.7198 Z-0.2081
N9250 X2.7131 Y4.7186 Z-0.2082
N9255 X2.711 Y4.7172 Z-0.2083
N9260 X2.709 Y4.7158 Z-0.2084
N9265 X2.7051 Y4.7128 Z-0.2085
N9270 X2.7033 Y4.7111 Z-0.2086
N9275 X2.7016 Y4.7094 Z-0.2087
N9280 X2.6999 Y4.7075 Z-0.2088
N9285 X2.6983 Y4.7057 Z-0.2089
N9290 X2.6968 Y4.7037 Z-0.209
N9295 X2.6953 Y4.7017
N9300 X2.694 Y4.6997 Z-0.2091
N9305 X2.6927 Y4.6975 Z-0.2092
N9310 X2.6916 Y4.6954 Z-0.2093
N9315 X2.6905 Y4.6932 Z-0.2094
N9320 X2.6895 Y4.6909 Z-0.2095
N9325 X2.6886 Y4.6886 Z-0.2096
N9330 X2.6878 Y4.6863
N9335 X2.6871 Y4.6839 Z-0.2097
N9340 X2.6866 Y4.6815 Z-0.2098
N9345 X2.6861 Y4.6791 Z-0.2099
N9350 X2.6854 Y4.6742 Z-0.2101
N9355 X2.6852 Y4.6717 Z-0.2102
N9360 Y4.6693
N9365 Y4.6668 Z-0.2103
N9370 X2.6854 Y4.6644 Z-0.2104
N9375 X2.6856 Y4.6619 Z-0.2105
N9380 X2.686 Y4.6595 Z-0.2106
N9385 X2.6864 Y4.657 Z-0.2107
N9390 X2.687 Y4.6546 Z-0.2108
N9395 X2.6876 Y4.6523
N9400 X2.6884 Y4.6499 Z-0.2109
N9405 X2.6892 Y4.6476 Z-0.211
N9410 X2.6902 Y4.6454 Z-0.2111
N9415 X2.6912 Y4.6431 Z-0.2112
N9420 X2.6924 Y4.641 Z-0.2113
N9425 X2.6936 Y4.6388 Z-0.2114
N9430 X2.6949 Y4.6367
N9435 X2.6978 Y4.6328 Z-0.2116
N9440 X2.6994 Y4.6309 Z-0.2117
N9445 X2.7011 Y4.629 Z-0.2118
N9450 X2.7028 Y4.6273 Z-0.2119
N9455 X2.7046 Y4.6256 Z-0.212
N9460 X2.7064 Y4.624
N9465 X2.7084 Y4.6225 Z-0.2121
N9470 X2.7104 Y4.6211 Z-0.2122
N9475 X2.7124 Y4.6198 Z-0.2123
N9480 X2.7145 Y4.6185 Z-0.2124
N9485 X2.7167 Y4.6173 Z-0.2125
N9490 X2.7189 Y4.6162 Z-0.2126
N9495 X2.7212 Y4.6153
N9500 X2.7235 Y4.6144 Z-0.2127
N9505 X2.7258 Y4.6136 Z-0.2128
N9510 X2.7282 Y4.6129 Z-0.2129
N9515 X2.7306 Y4.6123 Z-0.213
N9520 X2.733 Y4.6118 Z-0.2131
N9525 X2.7354 Y4.6115 Z-0.2132
N9530 X2.7403 Y4.611 Z-0.2133
N9535 X2.7428 Y4.6109 Z-0.2134
N9540 X2.7452 Y4.611 Z-0.2135
N9545 X2.7477 Y4.6111 Z-0.2136
N9550 X2.7501 Y4.6114 Z-0.2137
N9555 X2.7526 Y4.6117 Z-0.2138
N9560 X2.755 Y4.6122
N9565 X2.7574 Y4.6127 Z-0.2139
N9570 X2.7597 Y4.6134 Z-0.214
N9575 X2.7621 Y4.6141 Z-0.2141
N9580 X2.7644 Y4.615 Z-0.2142
N9585 X2.7666 Y4.6159 Z-0.2143
N9590 X2.7689 Y4.617 Z-0.2144
N9595 X2.771 Y4.6181
N9600 X2.7732 Y4.6193 Z-0.2145
N9605 X2.7752 Y4.6207 Z-0.2146
N9610 X2.7773 Y4.6221 Z-0.2147
N9615 X2.7811 Y4.6251 Z-0.2149
N9620 X2.7829 Y4.6268 Z-0.215
N9625 X2.7847 Y4.6285
N9630 X2.7863 Y4.6303 Z-0.2151
N9635 X2.7879 Y4.6322 Z-0.2152
N9640 X2.7894 Y4.6341 Z-0.2153
N9645 X2.7909 Y4.6361 Z-0.2154
N9650 X2.7922 Y4.6381 Z-0.2155
N9655 X2.7935 Y4.6403 Z-0.2156
N9660 X2.7946 Y4.6424
N9665 X2.7957 Y4.6446 Z-0.2157
N9670 X2.7967 Y4.6469 Z-0.2158
N9675 X2.7976 Y4.6492 Z-0.2159
N9680 X2.7983 Y4.6515 Z-0.216
N9685 X2.799 Y4.6539 Z-0.2161
N9690 X2.7996 Y4.6562 Z-0.2162
N9695 X2.8001 Y4.6587
N9700 X2.8008 Y4.6635 Z-0.2164
N9705 X2.801 Y4.6684 Z-0.2166
N9710 X2.8009 Y4.6709 Z-0.2167
N9715 X2.8008 Y4.6733 Z-0.2168
N9720 X2.8002 Y4.6782 Z-0.2169
N9725 X2.7992 Y4.683 Z-0.2171
N9730 X2.7978 Y4.6877 Z-0.2173
N9735 X2.7969 Y4.69 Z-0.2174
N9740 X2.796 Y4.6922
N9745 X2.7938 Y4.6966 Z-0.2176
N9750 X2.7926 Y4.6988 Z-0.2177
N9755 X2.7913 Y4.7008 Z-0.2178
N9760 X2.7899 Y4.7028 Z-0.2179
N9765 X2.7884 Y4.7048 Z-0.218
N9770 X2.7852 Y4.7085 Z-0.2181
N9775 X2.7835 Y4.7102 Z-0.2182
N9780 X2.7817 Y4.7119 Z-0.2183
N9785 X2.7798 Y4.7135 Z-0.2184
N9790 X2.7779 Y4.715 Z-0.2185
N9795 X2.7759 Y4.7164 Z-0.2186
N9800 X2.7738 Y4.7177
N9805 X2.7717 Y4.719 Z-0.2187
N9810 X2.7696 Y4.7202 Z-0.2188
N9815 X2.7674 Y4.7212 Z-0.2189
N9820 X2.7651 Y4.7222 Z-0.219
N9825 X2.7628 Y4.7231 Z-0.2191
N9830 X2.7605 Y4.7239 Z-0.2192
N9835 X2.7582 Y4.7246
N9840 X2.7558 Y4.7251 Z-0.2193
N9845 X2.7534 Y4.7256 Z-0.2194
N9850 X2.751 Y4.726 Z-0.2195
N9855 X2.7461 Y4.7264 Z-0.2197
N9860 X2.7436 Y4.7265
N9865 X2.7412 Z-0.2198
N9870 X2.7387 Y4.7263 Z-0.2199
N9875 X2.7363 Y4.7261 Z-0.22
N9880 X2.7339 Y4.7257 Z-0.2201
N9885 X2.7315 Y4.7253 Z-0.2202
N9890 X2.7291 Y4.7247 Z-0.2203
N9895 X2.7268 Y4.7241
N9900 X2.7244 Y4.7233 Z-0.2204
N9905 X2.7221 Y4.7225 Z-0.2205
N9910 X2.7199 Y4.7215 Z-0.2206
N9915 X2.7177 Y4.7205 Z-0.2207
N9920 X2.7155 Y4.7194 Z-0.2208
N9925 X2.7134 Y4.7181 Z-0.2209
N9930 X2.7113 Y4.7168
N9935 X2.7093 Y4.7154 Z-0.221
N9940 X2.7055 Y4.7124 Z-0.2212
N9945 X2.7037 Y4.7107 Z-0.2213
N9950 X2.7019 Y4.709 Z-0.2214
N9955 X2.7003 Y4.7072 Z-0.2215
N9960 X2.6987 Y4.7054
N9965 X2.6972 Y4.7034 Z-0.2216
N9970 X2.6957 Y4.7014 Z-0.2217
N9975 X2.6944 Y4.6994 Z-0.2218
N9980 X2.6932 Y4.6973 Z-0.2219
N9985 X2.692 Y4.6951 Z-0.222
N9990 X2.6909 Y4.6929 Z-0.2221
N9995 X2.69 Y4.6907
N10000 X2.6891 Y4.6884 Z-0.2222
N10005 X2.6883 Y4.6861 Z-0.2223
N10010 X2.6876 Y4.6838 Z-0.2224
N10015 X2.687 Y4.6814 Z-0.2225
N10020 X2.6866 Y4.679 Z-0.2226
N10025 X2.6859 Y4.6742 Z-0.2227
N10030 X2.6857 Y4.6717 Z-0.2228
N10035 Y4.6693 Z-0.2229
N10040 Y4.6668 Z-0.223
N10045 X2.6859 Y4.6644 Z-0.2231
N10050 X2.6861 Y4.662 Z-0.2232
N10055 X2.6865 Y4.6596
N10060 X2.6869 Y4.6571 Z-0.2233
N10065 X2.6875 Y4.6548 Z-0.2234
N10070 X2.6881 Y4.6524 Z-0.2235
N10075 X2.6889 Y4.6501 Z-0.2236
N10080 X2.6897 Y4.6478 Z-0.2237
N10085 X2.6906 Y4.6456 Z-0.2238
N10090 X2.6917 Y4.6434
N10095 X2.6928 Y4.6412 Z-0.2239
N10100 X2.694 Y4.6391 Z-0.224
N10105 X2.6953 Y4.637 Z-0.2241
N10110 X2.6982 Y4.6331 Z-0.2243
N10115 X2.6998 Y4.6312 Z-0.2244
N10120 X2.7014 Y4.6294
N10125 X2.7031 Y4.6277 Z-0.2245
N10130 X2.7049 Y4.626 Z-0.2246
N10135 X2.7068 Y4.6244 Z-0.2247
N10140 X2.7087 Y4.6229 Z-0.2248
N10145 X2.7107 Y4.6215 Z-0.2249
N10150 X2.7127 Y4.6202
N10155 X2.7148 Y4.6189 Z-0.225
N10160 X2.717 Y4.6178 Z-0.2251
N10165 X2.7192 Y4.6167 Z-0.2252
N10170 X2.7214 Y4.6157 Z-0.2253
N10175 X2.7237 Y4.6148 Z-0.2254
N10180 X2.726 Y4.6141 Z-0.2255
N10185 X2.7283 Y4.6134
N10190 X2.7307 Y4.6128 Z-0.2256
N10195 X2.7331 Y4.6123 Z-0.2257
N10200 X2.7355 Y4.6119 Z-0.2258
N10205 X2.7403 Y4.6115 Z-0.226
N10210 X2.7428 Y4.6114 Z-0.2261
N10215 X2.7452 Y4.6115
N10220 X2.7476 Y4.6116 Z-0.2262
N10225 X2.7501 Y4.6119 Z-0.2263
N10230 X2.7525 Y4.6122 Z-0.2264
N10235 X2.7549 Y4.6127 Z-0.2265
N10240 X2.7572 Y4.6132 Z-0.2266
N10245 X2.7596 Y4.6139
N10250 X2.7619 Y4.6146 Z-0.2267
N10255 X2.7642 Y4.6155 Z-0.2268
N10260 X2.7664 Y4.6164 Z-0.2269
N10265 X2.7686 Y4.6174 Z-0.227
N10270 X2.7708 Y4.6186 Z-0.2271
N10275 X2.7729 Y4.6198 Z-0.2272
N10280 X2.775 Y4.6211
N10285 X2.777 Y4.6225 Z-0.2273
N10290 X2.7808 Y4.6255 Z-0.2275
N10295 X2.7826 Y4.6271 Z-0.2276
N10300 X2.7843 Y4.6289 Z-0.2277
N10305 X2.786 Y4.6306 Z-0.2278
N10310 X2.7875 Y4.6325
N10315 X2.789 Y4.6344 Z-0.2279
N10320 X2.7905 Y4.6364 Z-0.228
N10325 X2.7918 Y4.6384 Z-0.2281
N10330 X2.793 Y4.6405 Z-0.2282
N10335 X2.7942 Y4.6426 Z-0.2283
N10340 X2.7952 Y4.6448
N10345 X2.7962 Y4.6471 Z-0.2284
N10350 X2.7971 Y4.6493 Z-0.2285
N10355 X2.7979 Y4.6516 Z-0.2286
N10360 X2.7986 Y4.654 Z-0.2287
N10365 X2.7991 Y4.6563 Z-0.2288
N10370 X2.7996 Y4.6587 Z-0.2289
N10375 X2.8003 Y4.6636 Z-0.229
N10380 X2.8005 Y4.6684 Z-0.2292
N10385 X2.8004 Y4.6708 Z-0.2293
N10390 X2.8003 Y4.6733 Z-0.2294
N10395 X2.7997 Y4.6781 Z-0.2295
N10400 X2.7987 Y4.6829 Z-0.2297
N10405 X2.7973 Y4.6875 Z-0.2299
N10410 X2.7965 Y4.6898 Z-0.23
N10415 X2.7955 Y4.692
N10420 X2.7933 Y4.6964 Z-0.2302
N10425 X2.7922 Y4.6985 Z-0.2303
N10430 X2.7909 Y4.7006 Z-0.2304
N10435 X2.7895 Y4.7025 Z-0.2305
N10440 X2.788 Y4.7045
N10445 X2.7848 Y4.7081 Z-0.2307
N10450 X2.7831 Y4.7099 Z-0.2308
N10455 X2.7813 Y4.7115 Z-0.2309
N10460 X2.7795 Y4.7131 Z-0.231
N10465 X2.7776 Y4.7146 Z-0.2311
N10470 X2.7756 Y4.716
N10475 X2.7736 Y4.7173 Z-0.2312
N10480 X2.7715 Y4.7186 Z-0.2313
N10485 X2.7693 Y4.7197 Z-0.2314
N10490 X2.7671 Y4.7208 Z-0.2315
N10495 X2.7649 Y4.7218 Z-0.2316
N10500 X2.7627 Y4.7226 Z-0.2317
N10505 X2.7604 Y4.7234
N10510 X2.758 Y4.7241 Z-0.2318
N10515 X2.7557 Y4.7247 Z-0.2319
N10520 X2.7533 Y4.7251 Z-0.232
N10525 X2.7509 Y4.7255 Z-0.2321
N10530 X2.7461 Y4.7259 Z-0.2322
N10535 X2.7436 Y4.726 Z-0.2323
N10540 X2.7412 Z-0.2324
N10545 X2.7388 Y4.7258 Z-0.2325
N10550 X2.7364 Y4.7256 Z-0.2326
N10555 X2.734 Y4.7252 Z-0.2327
N10560 X2.7316 Y4.7248 Z-0.2328
N10565 X2.7292 Y4.7242
N10570 X2.7269 Y4.7236 Z-0.2329
N10575 X2.7246 Y4.7228 Z-0.233
N10580 X2.7223 Y4.722 Z-0.2331
N10585 X2.7201 Y4.7211 Z-0.2332
N10590 X2.7179 Y4.72 Z-0.2333
N10595 X2.7157 Y4.7189
N10600 X2.7136 Y4.7177 Z-0.2334
N10605 X2.7116 Y4.7164 Z-0.2335
N10610 X2.7096 Y4.715 Z-0.2336
N10615 X2.7058 Y4.712 Z-0.2338
N10620 X2.704 Y4.7104 Z-0.2339
N10625 X2.7023 Y4.7086
N10630 X2.7007 Y4.7069 Z-0.234
N10635 X2.6991 Y4.705 Z-0.2341
N10640 X2.6976 Y4.7031 Z-0.2342
N10645 X2.6962 Y4.7011 Z-0.2343
N10650 X2.6949 Y4.6991 Z-0.2344
N10655 X2.6936 Y4.697
N10660 X2.6925 Y4.6949 Z-0.2345
N10665 X2.6914 Y4.6927 Z-0.2346
N10670 X2.6905 Y4.6905 Z-0.2347
N10675 X2.6896 Y4.6883 Z-0.2348
N10680 X2.6888 Y4.686 Z-0.2349
N10685 X2.6881 Y4.6836
N10690 X2.6876 Y4.6813 Z-0.235
N10695 X2.6871 Y4.6789 Z-0.2351
N10700 X2.6864 Y4.6741 Z-0.2353
N10705 X2.6863 Y4.6717 Z-0.2354
N10710 X2.6862 Y4.6693 Z-0.2355
N10715 X2.6863 Y4.6669
N10720 X2.6864 Y4.6644 Z-0.2356
N10725 X2.6866 Y4.662 Z-0.2357
N10730 X2.687 Y4.6596 Z-0.2358
N10735 X2.6874 Y4.6573 Z-0.2359
N10740 X2.688 Y4.6549 Z-0.236
N10745 X2.6886 Y4.6526
N10750 X2.6894 Y4.6503 Z-0.2361
N10755 X2.6902 Y4.648 Z-0.2362
N10760 X2.6911 Y4.6458 Z-0.2363
N10765 X2.6914 Y4.6452
N10770 X2.6915 Y4.645
N10775 X2.6917 Y4.6445
N10780 X2.692 Y4.6439 Z-0.2364
N10785 X2.6926 Y4.6427
N10790 X2.6938 Y4.6405 Z-0.2365
N10795 X2.6952 Y4.6383 Z-0.2366
N10800 X2.6966 Y4.6362 Z-0.2367
N10805 X2.6981 Y4.6341 Z-0.2368
N10810 X2.6997 Y4.6322 Z-0.2369
N10815 X2.7014 Y4.6302
N10820 X2.7032 Y4.6284 Z-0.237
N10825 X2.705 Y4.6267 Z-0.2371
N10830 X2.707 Y4.625 Z-0.2372
N10835 X2.709 Y4.6234 Z-0.2373
N10840 X2.7111 Y4.6219 Z-0.2374
N10845 X2.7132 Y4.6205 Z-0.2375
N10850 X2.7154 Y4.6192 Z-0.2376
N10855 X2.7176 Y4.618 Z-0.2377
N10860 X2.72 Y4.617
N10865 X2.7223 Y4.616 Z-0.2378
N10870 X2.7247 Y4.6151 Z-0.2379
N10875 X2.7271 Y4.6143 Z-0.238
N10880 X2.7296 Y4.6137 Z-0.2381
N10885 X2.732 Y4.6131 Z-0.2382
N10890 X2.7345 Y4.6127 Z-0.2383
N10895 X2.7371 Y4.6123 Z-0.2384
N10900 X2.7396 Y4.6121 Z-0.2385
N10905 X2.7422 Y4.612
N10910 X2.7447 Z-0.2386
N10915 X2.7473 Y4.6122 Z-0.2387
N10920 X2.7498 Y4.6124 Z-0.2388
N10925 X2.7523 Y4.6128 Z-0.2389
N10930 X2.7548 Y4.6132 Z-0.239
N10935 X2.7573 Y4.6138 Z-0.2391
N10940 X2.7597 Y4.6145 Z-0.2392
N10945 X2.7622 Y4.6153 Z-0.2393
N10950 X2.7646 Y4.6162
N10955 X2.7669 Y4.6173 Z-0.2394
N10960 X2.7692 Y4.6184 Z-0.2395
N10965 X2.7715 Y4.6196 Z-0.2396
N10970 X2.7736 Y4.6209 Z-0.2397
N10975 X2.7758 Y4.6223 Z-0.2398
N10980 X2.7778 Y4.6238 Z-0.2399
N10985 X2.7798 Y4.6254 Z-0.24
N10990 X2.7817 Y4.6271 Z-0.2401
N10995 X2.7835 Y4.6289
N11000 X2.7853 Y4.6308 Z-0.2402
N11005 X2.7869 Y4.6327 Z-0.2403
N11010 X2.7885 Y4.6347 Z-0.2404
N11015 X2.79 Y4.6368 Z-0.2405
N11020 X2.7914 Y4.6389 Z-0.2406
N11025 X2.7927 Y4.6411 Z-0.2407
N11030 X2.7939 Y4.6433 Z-0.2408
N11035 X2.7949 Y4.6456 Z-0.2409
N11040 X2.7959 Y4.648
N11045 X2.7968 Y4.6504 Z-0.241
N11050 X2.7976 Y4.6528 Z-0.2411
N11055 X2.7983 Y4.6553 Z-0.2412
N11060 X2.7988 Y4.6578 Z-0.2413
N11065 X2.7992 Y4.6603 Z-0.2414
N11070 X2.7996 Y4.6628 Z-0.2415
N11075 X2.7998 Y4.6653 Z-0.2416
N11080 X2.7999 Y4.6678 Z-0.2417
N11085 X2.7998 Y4.6704
N11090 X2.7997 Y4.673 Z-0.2418
N11095 X2.7991 Y4.678 Z-0.242
N11100 X2.798 Y4.683 Z-0.2422
N11105 X2.7973 Y4.6854 Z-0.2423
N11110 X2.7966 Y4.6878 Z-0.2424
N11115 X2.7946 Y4.6925 Z-0.2425
N11120 X2.7923 Y4.697 Z-0.2427
N11125 X2.791 Y4.6992 Z-0.2428
N11130 X2.7896 Y4.7013 Z-0.2429
N11135 X2.7881 Y4.7033 Z-0.243
N11140 X2.7865 Y4.7053 Z-0.2431
N11145 X2.7848 Y4.7072 Z-0.2432
N11150 X2.7831 Y4.709
N11155 X2.7812 Y4.7108 Z-0.2433
N11160 X2.7793 Y4.7124 Z-0.2434
N11165 X2.7773 Y4.714 Z-0.2435
N11170 X2.7752 Y4.7155 Z-0.2436
N11175 X2.7731 Y4.7169 Z-0.2437
N11180 X2.7709 Y4.7182 Z-0.2438
N11185 X2.7686 Y4.7194 Z-0.2439
N11190 X2.7664 Y4.7205 Z-0.244
N11195 X2.764 Y4.7214
N11200 X2.7616 Y4.7223 Z-0.2441
N11205 X2.7592 Y4.7231 Z-0.2442
N11210 X2.7568 Y4.7237 Z-0.2443
N11215 X2.7543 Y4.7243 Z-0.2444
N11220 X2.7518 Y4.7247 Z-0.2445
N11225 X2.7493 Y4.725 Z-0.2446
N11230 X2.7468 Y4.7253 Z-0.2447
N11235 X2.7442 Y4.7254 Z-0.2448
N11240 X2.7417 Y4.7253
N11245 X2.7391 Y4.7252 Z-0.2449
N11250 X2.7366 Y4.725 Z-0.245
N11255 X2.7341 Y4.7246 Z-0.2451
N11260 X2.7317 Y4.7242 Z-0.2452
N11265 X2.7292 Y4.7236 Z-0.2453
N11270 X2.7267 Y4.7229 Z-0.2454
N11275 X2.7243 Y4.7221 Z-0.2455
N11280 X2.7219 Y4.7212
N11285 X2.7196 Y4.7202 Z-0.2456
N11290 X2.7173 Y4.719 Z-0.2457
N11295 X2.7151 Y4.7178 Z-0.2458
N11300 X2.7129 Y4.7165 Z-0.2459
N11305 X2.7108 Y4.7151 Z-0.246
N11310 X2.7088 Y4.7136 Z-0.2461
N11315 X2.7068 Y4.712 Z-0.2462
N11320 X2.7049 Y4.7103 Z-0.2463
N11325 X2.7031 Y4.7086
N11330 X2.7014 Y4.7067 Z-0.2464
N11335 X2.6997 Y4.7048 Z-0.2465
N11340 X2.6981 Y4.7028 Z-0.2466
N11345 X2.6967 Y4.7007 Z-0.2467
N11350 X2.6953 Y4.6986 Z-0.2468
N11355 X2.694 Y4.6964 Z-0.2469
N11360 X2.6928 Y4.6942 Z-0.247
N11365 X2.6917 Y4.6919 Z-0.2471
N11370 X2.6908 Y4.6896
N11375 X2.6899 Y4.6872 Z-0.2472
N11380 X2.6891 Y4.6848 Z-0.2473
N11385 X2.6885 Y4.6824 Z-0.2474
N11390 X2.6879 Y4.6799 Z-0.2475
N11395 X2.6875 Y4.6774 Z-0.2476
N11400 X2.6872 Y4.6749 Z-0.2477
N11405 X2.687 Y4.6724 Z-0.2478
N11410 X2.6869 Y4.6699
N11415 Y4.6673 Z-0.2479
N11420 X2.687 Y4.6648 Z-0.248
N11425 X2.6872 Y4.6623 Z-0.2481
N11430 X2.6876 Y4.6598 Z-0.2482
N11435 X2.6881 Y4.6573 Z-0.2483
N11440 X2.6886 Y4.6549 Z-0.2484
N11445 X2.6893 Y4.6524 Z-0.2485
N11450 X2.6901 Y4.65
N11455 X2.691 Y4.6476 Z-0.2486
N11460 X2.692 Y4.6453 Z-0.2487
N11465 X2.6932 Y4.643 Z-0.2488
N11470 X2.6944 Y4.6408 Z-0.2489
N11475 X2.6957 Y4.6387 Z-0.249
N11480 X2.6971 Y4.6366 Z-0.2491
N11485 X2.6986 Y4.6345 Z-0.2492
N11490 X2.7002 Y4.6326 Z-0.2493
N11495 X2.7019 Y4.6307
N11500 X2.7036 Y4.6289 Z-0.2494
N11505 X2.7054 Y4.6271 Z-0.2495
N11510 X2.7074 Y4.6255 Z-0.2496
N11515 X2.7093 Y4.6239 Z-0.2497
N11520 X2.7114 Y4.6224 Z-0.2498
N11525 X2.7135 Y4.6211 Z-0.2499
N11530 X2.7157 Y4.6198 Z-0.25
N11535 X2.7179 Y4.6186
N11540 X2.7202 Y4.6175 Z-0.2501
N11545 X2.7225 Y4.6166 Z-0.2502
N11550 X2.7249 Y4.6157 Z-0.2503
N11555 X2.7273 Y4.6149 Z-0.2504
N11560 X2.7297 Y4.6143 Z-0.2505
N11565 X2.7322 Y4.6137 Z-0.2506
N11570 X2.7346 Y4.6133 Z-0.2507
N11575 X2.7371 Y4.613 Z-0.2508
N11580 X2.7396 Y4.6128
N11585 X2.7422 Y4.6127 Z-0.2509
N11590 X2.7447 Z-0.251
N11595 X2.7472 Y4.6128 Z-0.2511
N11600 X2.7498 Y4.613 Z-0.2512
N11605 X2.7522 Y4.6134 Z-0.2513
N11610 X2.7547 Y4.6139 Z-0.2514
N11615 X2.7572 Y4.6144 Z-0.2515
N11620 X2.7596 Y4.6151
N11625 X2.762 Y4.6159 Z-0.2516
N11630 X2.7643 Y4.6168 Z-0.2517
N11635 X2.7667 Y4.6178 Z-0.2518
N11640 X2.7689 Y4.6189 Z-0.2519
N11645 X2.7712 Y4.6201 Z-0.252
N11650 X2.7733 Y4.6215 Z-0.2521
N11655 X2.7754 Y4.6229 Z-0.2522
N11660 X2.7774 Y4.6243
N11665 X2.7794 Y4.6259 Z-0.2523
N11670 X2.7813 Y4.6276 Z-0.2524
N11675 X2.7831 Y4.6293 Z-0.2525
N11680 X2.7848 Y4.6312 Z-0.2526
N11685 X2.7864 Y4.6331 Z-0.2527
N11690 X2.788 Y4.6351 Z-0.2528
N11695 X2.7895 Y4.6371 Z-0.2529
N11700 X2.7908 Y4.6392
N11705 X2.7921 Y4.6414 Z-0.253
N11710 X2.7933 Y4.6436 Z-0.2531
N11715 X2.7944 Y4.6459 Z-0.2532
N11720 X2.7954 Y4.6482 Z-0.2533
N11725 X2.7962 Y4.6506 Z-0.2534
N11730 X2.797 Y4.653 Z-0.2535
N11735 X2.7976 Y4.6554 Z-0.2536
N11740 X2.7982 Y4.6579 Z-0.2537
N11745 X2.7986 Y4.6603
N11750 X2.7989 Y4.6628 Z-0.2538
N11755 X2.7992 Y4.6653 Z-0.2539
N11760 X2.7993 Y4.6678 Z-0.254
N11765 X2.7992 Y4.6704 Z-0.2541
N11770 X2.7991 Y4.6729 Z-0.2542
N11775 X2.7985 Y4.6779 Z-0.2544
N11780 X2.7974 Y4.6828 Z-0.2545
N11785 X2.7968 Y4.6852 Z-0.2546
N11790 X2.796 Y4.6876 Z-0.2547
N11795 X2.7941 Y4.6922 Z-0.2549
N11800 X2.7918 Y4.6967 Z-0.2551
N11805 X2.7905 Y4.6988
N11810 X2.7891 Y4.7009 Z-0.2552
N11815 X2.7876 Y4.7029 Z-0.2553
N11820 X2.786 Y4.7049 Z-0.2554
N11825 X2.7844 Y4.7068 Z-0.2555
N11830 X2.7826 Y4.7086 Z-0.2556
N11835 X2.7808 Y4.7103 Z-0.2557
N11840 X2.7789 Y4.712 Z-0.2558
N11845 X2.7769 Y4.7135
N11850 X2.7749 Y4.715 Z-0.2559
N11855 X2.7727 Y4.7164 Z-0.256
N11860 X2.7706 Y4.7176 Z-0.2561
N11865 X2.7684 Y4.7188 Z-0.2562
N11870 X2.7661 Y4.7199 Z-0.2563
N11875 X2.7638 Y4.7209 Z-0.2564
N11880 X2.7614 Y4.7217 Z-0.2565
N11885 X2.7591 Y4.7225
N11890 X2.7566 Y4.7231 Z-0.2566
N11895 X2.7542 Y4.7237 Z-0.2567
N11900 X2.7517 Y4.7241 Z-0.2568
N11905 X2.7492 Y4.7244 Z-0.2569
N11910 X2.7467 Y4.7246 Z-0.257
N11915 X2.7442 Y4.7247 Z-0.2571
N11920 X2.7417 Z-0.2572
N11925 X2.7392 Y4.7246
N11930 X2.7367 Y4.7243 Z-0.2573
N11935 X2.7342 Y4.724 Z-0.2574
N11940 X2.7318 Y4.7235 Z-0.2575
N11945 X2.7293 Y4.723 Z-0.2576
N11950 X2.7269 Y4.7223 Z-0.2577
N11955 X2.7245 Y4.7215 Z-0.2578
N11960 X2.7222 Y4.7206 Z-0.2579
N11965 X2.7199 Y4.7196
N11970 X2.7176 Y4.7185 Z-0.258
N11975 X2.7154 Y4.7173 Z-0.2581
N11980 X2.7133 Y4.716 Z-0.2582
N11985 X2.7112 Y4.7146 Z-0.2583
N11990 X2.7092 Y4.7131 Z-0.2584
N11995 X2.7072 Y4.7115 Z-0.2585
N12000 X2.7054 Y4.7099 Z-0.2586
N12005 X2.7036 Y4.7081
N12010 X2.7018 Y4.7063 Z-0.2587
N12015 X2.7002 Y4.7044 Z-0.2588
N12020 X2.6987 Y4.7024 Z-0.2589
N12025 X2.6972 Y4.7004 Z-0.259
N12030 X2.6958 Y4.6983 Z-0.2591
N12035 X2.6946 Y4.6961 Z-0.2592
N12040 X2.6934 Y4.6939 Z-0.2593
N12045 X2.6923 Y4.6917
N12050 X2.6913 Y4.6894 Z-0.2594
N12055 X2.6905 Y4.687 Z-0.2595
N12060 X2.6897 Y4.6846 Z-0.2596
N12065 X2.6891 Y4.6822 Z-0.2597
N12070 X2.6885 Y4.6798 Z-0.2598
N12075 X2.6881 Y4.6773 Z-0.2599
N12080 X2.6878 Y4.6749
N12085 X2.6876 Y4.6724 Z-0.26
N12090 X2.6875 Y4.6699 Z-0.2601
N12095 Y4.6674 Z-0.2602
N12100 X2.6876 Y4.6648 Z-0.2603
N12105 X2.6879 Y4.6624 Z-0.2604
N12110 X2.6882 Y4.6599 Z-0.2605
N12115 X2.6887 Y4.6574 Z-0.2606
N12120 X2.6892 Y4.655
N12125 X2.6899 Y4.6526 Z-0.2607
N12130 X2.6907 Y4.6502 Z-0.2608
N12135 X2.6916 Y4.6479 Z-0.2609
N12140 X2.6926 Y4.6456 Z-0.261
N12145 X2.6937 Y4.6433 Z-0.2611
N12150 X2.6949 Y4.6411 Z-0.2612
N12155 X2.6962 Y4.639 Z-0.2613
N12160 X2.6976 Y4.6369
N12165 X2.6991 Y4.6349 Z-0.2614
N12170 X2.7006 Y4.633 Z-0.2615
N12175 X2.7023 Y4.6311 Z-0.2616
N12180 X2.704 Y4.6293 Z-0.2617
N12185 X2.7059 Y4.6276 Z-0.2618
N12190 X2.7077 Y4.626 Z-0.2619
N12195 X2.7097 Y4.6244 Z-0.262
N12200 X2.7117 Y4.623
N12205 X2.7138 Y4.6216 Z-0.2621
N12210 X2.716 Y4.6203 Z-0.2622
N12215 X2.7182 Y4.6192 Z-0.2623
N12220 X2.7204 Y4.6181 Z-0.2624
N12225 X2.7227 Y4.6171 Z-0.2625
N12230 X2.7251 Y4.6163 Z-0.2626
N12235 X2.7275 Y4.6155 Z-0.2627
N12240 X2.7299 Y4.6149
N12245 X2.7323 Y4.6143 Z-0.2628
N12250 X2.7347 Y4.6139 Z-0.2629
N12255 X2.7372 Y4.6136 Z-0.263
N12260 X2.7397 Y4.6134 Z-0.2631
N12265 X2.7422 Y4.6133 Z-0.2632
N12270 X2.7447 Z-0.2633
N12275 X2.7472 Y4.6134
N12280 X2.7497 Y4.6137 Z-0.2634
N12285 X2.7521 Y4.614 Z-0.2635
N12290 X2.7546 Y4.6145 Z-0.2636
N12295 X2.757 Y4.615 Z-0.2637
N12300 X2.7594 Y4.6157 Z-0.2638
N12305 X2.7618 Y4.6165 Z-0.2639
N12310 X2.7641 Y4.6174 Z-0.264
N12315 X2.7664 Y4.6184
N12320 X2.7686 Y4.6195 Z-0.2641
N12325 X2.7708 Y4.6207 Z-0.2642
N12330 X2.773 Y4.622 Z-0.2643
N12335 X2.775 Y4.6234 Z-0.2644
N12340 X2.777 Y4.6248 Z-0.2645
N12345 X2.779 Y4.6264 Z-0.2646
N12350 X2.7808 Y4.628 Z-0.2647
N12355 X2.7826 Y4.6298
N12360 X2.7843 Y4.6316 Z-0.2648
N12365 X2.786 Y4.6335 Z-0.2649
N12370 X2.7875 Y4.6354 Z-0.265
N12375 X2.789 Y4.6375 Z-0.2651
N12380 X2.7903 Y4.6395 Z-0.2652
N12385 X2.7916 Y4.6417 Z-0.2653
N12390 X2.7927 Y4.6439
N12395 X2.7938 Y4.6461 Z-0.2654
N12400 X2.7948 Y4.6484 Z-0.2655
N12405 X2.7956 Y4.6508 Z-0.2656
N12410 X2.7964 Y4.6531 Z-0.2657
N12415 X2.797 Y4.6555 Z-0.2658
N12420 X2.7976 Y4.658 Z-0.2659
N12425 X2.798 Y4.6604 Z-0.266
N12430 X2.7983 Y4.6629
N12435 X2.7986 Y4.6679 Z-0.2662
N12440 Y4.6703 Z-0.2663
N12445 X2.7985 Y4.6728 Z-0.2664
N12450 X2.7979 Y4.6778 Z-0.2666
N12455 X2.7968 Y4.6826 Z-0.2667
N12460 X2.7962 Y4.685 Z-0.2668
N12465 X2.7954 Y4.6874 Z-0.2669
N12470 X2.7935 Y4.692 Z-0.2671
N12475 X2.7912 Y4.6964 Z-0.2673
N12480 X2.79 Y4.6985
N12485 X2.7886 Y4.7006 Z-0.2674
N12490 X2.7871 Y4.7026 Z-0.2675
N12495 X2.7855 Y4.7045 Z-0.2676
N12500 X2.7839 Y4.7064 Z-0.2677
N12505 X2.7822 Y4.7082 Z-0.2678
N12510 X2.7804 Y4.7099 Z-0.2679
N12515 X2.7785 Y4.7115
N12520 X2.7765 Y4.713 Z-0.268
N12525 X2.7745 Y4.7145 Z-0.2681
N12530 X2.7724 Y4.7158 Z-0.2682
N12535 X2.7703 Y4.7171 Z-0.2683
N12540 X2.7681 Y4.7183 Z-0.2684
N12545 X2.7659 Y4.7193 Z-0.2685
N12550 X2.7636 Y4.7203 Z-0.2686
N12555 X2.7612 Y4.7211
N12560 X2.7589 Y4.7219 Z-0.2687
N12565 X2.7565 Y4.7225 Z-0.2688
N12570 X2.7541 Y4.7231 Z-0.2689
N12575 X2.7516 Y4.7235 Z-0.269
N12580 X2.7492 Y4.7238 Z-0.2691
N12585 X2.7467 Y4.724 Z-0.2692
N12590 X2.7442 Y4.7241
N12595 X2.7417 Z-0.2693
N12600 X2.7392 Y4.724 Z-0.2694
N12605 X2.7368 Y4.7237 Z-0.2695
N12610 X2.7343 Y4.7234 Z-0.2696
N12615 X2.7319 Y4.7229 Z-0.2697
N12620 X2.7295 Y4.7224 Z-0.2698
N12625 X2.7271 Y4.7217
N12630 X2.7247 Y4.7209 Z-0.2699
N12635 X2.7224 Y4.72 Z-0.27
N12640 X2.7201 Y4.719 Z-0.2701
N12645 X2.7179 Y4.7179 Z-0.2702
N12650 X2.7157 Y4.7168 Z-0.2703
N12655 X2.7136 Y4.7155 Z-0.2704
N12660 X2.7116 Y4.7141 Z-0.2705
N12665 X2.7096 Y4.7126
N12670 X2.7076 Y4.7111 Z-0.2706
N12675 X2.7058 Y4.7094 Z-0.2707
N12680 X2.704 Y4.7077 Z-0.2708
N12685 X2.7023 Y4.7059 Z-0.2709
N12690 X2.7007 Y4.704 Z-0.271
N12695 X2.6992 Y4.7021 Z-0.2711
N12700 X2.6977 Y4.7001
N12705 X2.6964 Y4.698 Z-0.2712
N12710 X2.6951 Y4.6959 Z-0.2713
N12715 X2.6939 Y4.6937 Z-0.2714
N12720 X2.6929 Y4.6914 Z-0.2715
N12725 X2.6919 Y4.6892 Z-0.2716
N12730 X2.6911 Y4.6868 Z-0.2717
N12735 X2.6903 Y4.6845
N12740 X2.6897 Y4.6821 Z-0.2718
N12745 X2.6891 Y4.6797 Z-0.2719
N12750 X2.6887 Y4.6772 Z-0.272
N12755 X2.6884 Y4.6748 Z-0.2721
N12760 X2.6882 Y4.6723 Z-0.2722
N12765 X2.6881 Y4.6698 Z-0.2723
N12770 Y4.6674 Z-0.2724
N12775 X2.6882 Y4.6649
N12780 X2.6885 Y4.6624 Z-0.2725
N12785 X2.6888 Y4.66 Z-0.2726
N12790 X2.6893 Y4.6576 Z-0.2727
N12795 X2.6898 Y4.6552 Z-0.2728
N12800 X2.6905 Y4.6528 Z-0.2729
N12805 X2.6913 Y4.6504 Z-0.273
N12810 X2.6922 Y4.6481
N12815 X2.6932 Y4.6458 Z-0.2731
N12820 X2.6943 Y4.6436 Z-0.2732
N12825 X2.6954 Y4.6415 Z-0.2733
N12830 X2.6967 Y4.6393 Z-0.2734
N12835 X2.6981 Y4.6373 Z-0.2735
N12840 X2.6996 Y4.6353 Z-0.2736
N12845 X2.7011 Y4.6334
N12850 X2.7027 Y4.6315 Z-0.2737
N12855 X2.7045 Y4.6298 Z-0.2738
N12860 X2.7063 Y4.6281 Z-0.2739
N12865 X2.7081 Y4.6264 Z-0.274
N12870 X2.7101 Y4.6249 Z-0.2741
N12875 X2.7121 Y4.6235 Z-0.2742
N12880 X2.7141 Y4.6221
N12885 X2.7163 Y4.6209 Z-0.2743
N12890 X2.7185 Y4.6197 Z-0.2744
N12895 X2.7207 Y4.6187 Z-0.2745
N12900 X2.723 Y4.6177 Z-0.2746
N12905 X2.7253 Y4.6169 Z-0.2747
N12910 X2.7276 Y4.6161 Z-0.2748
N12915 X2.73 Y4.6155 Z-0.2749
N12920 X2.7324 Y4.6149
N12925 X2.7348 Y4.6145 Z-0.275
N12930 X2.7373 Y4.6142 Z-0.2751
N12935 X2.7398 Y4.614 Z-0.2752
N12940 X2.7422 Y4.6139 Z-0.2753
N12945 X2.7447 Z-0.2754
N12950 X2.7471 Y4.614 Z-0.2755
N12955 X2.7496 Y4.6143
N12960 X2.7517 Y4.6146 Z-0.2756
N12965 X2.7538 Y4.6149 Z-0.2757
N12970 X2.754 Y4.615
N12975 X2.7553 Y4.6152
N12980 X2.7565 Y4.6156 Z-0.2758
N12985 X2.759 Y4.6162 Z-0.2759
N12990 X2.7614 Y4.617 Z-0.276
N12995 X2.7638 Y4.6179
N13000 X2.7662 Y4.619 Z-0.2761
N13005 X2.7684 Y4.6201 Z-0.2762
N13010 X2.7707 Y4.6213 Z-0.2763
N13015 X2.7728 Y4.6226 Z-0.2764
N13020 X2.7749 Y4.624 Z-0.2765
N13025 X2.777 Y4.6255 Z-0.2766
N13030 X2.7789 Y4.6271 Z-0.2767
N13035 X2.7808 Y4.6288 Z-0.2768
N13040 X2.7826 Y4.6306
N13045 X2.7843 Y4.6325 Z-0.2769
N13050 X2.7859 Y4.6344 Z-0.277
N13055 X2.7875 Y4.6364 Z-0.2771
N13060 X2.7889 Y4.6385 Z-0.2772
N13065 X2.7903 Y4.6406 Z-0.2773
N13070 X2.7915 Y4.6428 Z-0.2774
N13075 X2.7921 Y4.644
N13080 X2.7927 Y4.6451 Z-0.2775
N13085 X2.7937 Y4.6474
N13090 X2.7946 Y4.6498 Z-0.2776
N13095 X2.7955 Y4.6522 Z-0.2777
N13100 X2.7962 Y4.6547 Z-0.2778
N13105 X2.7968 Y4.6571 Z-0.2779
N13110 X2.7973 Y4.6596 Z-0.278
N13115 X2.7976 Y4.6621 Z-0.2781
N13120 X2.7979 Y4.6646 Z-0.2782
N13125 X2.798 Y4.6671 Z-0.2783
N13130 Y4.6697
N13135 X2.7979 Y4.6722 Z-0.2784
N13140 X2.7977 Y4.6747 Z-0.2785
N13145 X2.7969 Y4.6797 Z-0.2787
N13150 X2.7963 Y4.6822 Z-0.2788
N13155 X2.7956 Y4.6846 Z-0.2789
N13160 X2.794 Y4.6894 Z-0.2791
N13165 X2.7929 Y4.6917
N13170 X2.7919 Y4.6939 Z-0.2792
N13175 X2.7893 Y4.6983 Z-0.2794
N13180 X2.7879 Y4.7004 Z-0.2795
N13185 X2.7864 Y4.7025 Z-0.2796
N13190 X2.7848 Y4.7044 Z-0.2797
N13195 X2.7831 Y4.7063 Z-0.2798
N13200 X2.7813 Y4.7081
N13205 X2.7795 Y4.7098 Z-0.2799
N13210 X2.7775 Y4.7115 Z-0.28
N13215 X2.7755 Y4.713 Z-0.2801
N13220 X2.7734 Y4.7144 Z-0.2802
N13225 X2.7724 Y4.7151
N13230 X2.7713 Y4.7158 Z-0.2803
N13235 X2.7691 Y4.717 Z-0.2804
N13240 X2.7668 Y4.7182 Z-0.2805
N13245 X2.7645 Y4.7192
N13250 X2.7622 Y4.7201 Z-0.2806
N13255 X2.7598 Y4.7209 Z-0.2807
N13260 X2.7574 Y4.7216 Z-0.2808
N13265 X2.7549 Y4.7222 Z-0.2809
N13270 X2.7525 Y4.7227 Z-0.281
N13275 X2.75 Y4.7231 Z-0.2811
N13280 X2.7474 Y4.7233 Z-0.2812
N13285 X2.7449 Y4.7235 Z-0.2813
N13290 X2.7424
N13295 X2.7399 Y4.7234 Z-0.2814
N13300 X2.7373 Y4.7231 Z-0.2815
N13305 X2.7349 Y4.7228 Z-0.2816
N13310 X2.7324 Y4.7224 Z-0.2817
N13315 X2.7299 Y4.7218 Z-0.2818
N13320 X2.7275 Y4.7211 Z-0.2819
N13325 X2.7251 Y4.7204 Z-0.282
N13330 X2.7228 Y4.7195
N13335 X2.7205 Y4.7185 Z-0.2821
N13340 X2.7182 Y4.7174 Z-0.2822
N13345 X2.716 Y4.7161 Z-0.2823
N13350 X2.7138 Y4.7148 Z-0.2824
N13355 X2.7118 Y4.7134 Z-0.2825
N13360 X2.7097 Y4.7119 Z-0.2826
N13365 X2.7078 Y4.7103 Z-0.2827
N13370 X2.7059 Y4.7086
N13375 X2.7041 Y4.7069 Z-0.2828
N13380 X2.7024 Y4.705 Z-0.2829
N13385 X2.7008 Y4.7031 Z-0.283
N13390 X2.6992 Y4.7011 Z-0.2831
N13395 X2.6978 Y4.699 Z-0.2832
N13400 X2.6965 Y4.6969 Z-0.2833
N13405 X2.6958 Y4.6958
N13410 X2.6952 Y4.6947 Z-0.2834
N13415 X2.6941 Y4.6924
N13420 X2.693 Y4.6901 Z-0.2835
N13425 X2.6921 Y4.6878 Z-0.2836
N13430 X2.6913 Y4.6854 Z-0.2837
N13435 X2.6906 Y4.683 Z-0.2838
N13440 X2.69 Y4.6805 Z-0.2839
N13445 X2.6895 Y4.6781 Z-0.284
N13450 X2.6892 Y4.6756 Z-0.2841
N13455 X2.6889 Y4.6731 Z-0.2842
N13460 X2.6888 Y4.6706
N13465 Y4.668 Z-0.2843
N13470 X2.6889 Y4.6655 Z-0.2844
N13475 X2.6891 Y4.663 Z-0.2845
N13480 X2.6894 Y4.6605 Z-0.2846
N13485 X2.6899 Y4.6581 Z-0.2847
N13490 X2.6904 Y4.6556 Z-0.2848
N13495 X2.6911 Y4.6532 Z-0.2849
N13500 X2.6919 Y4.6508
N13505 X2.6928 Y4.6485 Z-0.285
N13510 X2.6938 Y4.6462 Z-0.2851
N13515 X2.6949 Y4.6439 Z-0.2852
N13520 X2.6961 Y4.6417 Z-0.2853
N13525 X2.6974 Y4.6396 Z-0.2854
N13530 X2.6988 Y4.6375 Z-0.2855
N13535 X2.7003 Y4.6355 Z-0.2856
N13540 X2.7019 Y4.6335
N13545 X2.7036 Y4.6317 Z-0.2857
N13550 X2.7053 Y4.6299 Z-0.2858
N13555 X2.7072 Y4.6282 Z-0.2859
N13560 X2.7091 Y4.6266 Z-0.286
N13565 X2.7111 Y4.625 Z-0.2861
N13570 X2.7132 Y4.6236 Z-0.2862
N13575 X2.7153 Y4.6223 Z-0.2863
N13580 X2.7164 Y4.6216
N13585 X2.7175 Y4.621
N13590 X2.7197 Y4.6199 Z-0.2864
N13595 X2.722 Y4.6189 Z-0.2865
N13600 X2.7243 Y4.6179 Z-0.2866
N13605 X2.7267 Y4.6171 Z-0.2867
N13610 X2.7291 Y4.6164 Z-0.2868
N13615 X2.7316 Y4.6158 Z-0.2869
N13620 X2.7341 Y4.6154 Z-0.287
N13625 X2.7365 Y4.615
N13630 X2.739 Y4.6147 Z-0.2871
N13635 X2.7415 Y4.6146 Z-0.2872
N13640 X2.744 Z-0.2873
N13645 X2.7465 Y4.6147 Z-0.2874
N13650 X2.749 Y4.6149 Z-0.2875
N13655 X2.7515 Y4.6152 Z-0.2876
N13660 X2.7539 Y4.6157 Z-0.2877
N13665 X2.7564 Y4.6162
N13670 X2.7588 Y4.6169 Z-0.2878
N13675 X2.7612 Y4.6177 Z-0.2879
N13680 X2.7636 Y4.6186 Z-0.288
N13685 X2.7658 Y4.6196 Z-0.2881
N13690 X2.7681 Y4.6207 Z-0.2882
N13695 X2.7703 Y4.6219 Z-0.2883
N13700 X2.7724 Y4.6232 Z-0.2884
N13705 X2.7745 Y4.6246
N13710 X2.7765 Y4.6261 Z-0.2885
N13715 X2.7784 Y4.6277 Z-0.2886
N13720 X2.7803 Y4.6294 Z-0.2887
N13725 X2.7821 Y4.6311 Z-0.2888
N13730 X2.7838 Y4.633 Z-0.2889
N13735 X2.7854 Y4.6349 Z-0.289
N13740 X2.7869 Y4.6369 Z-0.2891
N13745 X2.7883 Y4.6389
N13750 X2.7896 Y4.641 Z-0.2892
N13755 X2.7909 Y4.6432 Z-0.2893
N13760 X2.7914 Y4.6443 Z-0.2894
N13765 X2.792 Y4.6454
N13770 X2.793 Y4.6477 Z-0.2895
N13775 X2.794 Y4.65 Z-0.2896
N13780 X2.7948 Y4.6524 Z-0.2897
N13785 X2.7955 Y4.6548
N13790 X2.7961 Y4.6573 Z-0.2898
N13795 X2.7965 Y4.6597 Z-0.2899
N13800 X2.7969 Y4.6622 Z-0.29
N13805 X2.7971 Y4.6646 Z-0.2901
N13810 X2.7973 Y4.6671 Z-0.2902
N13815 X2.7972 Y4.6696 Z-0.2903
N13820 X2.7969 Y4.6747 Z-0.2904
N13825 X2.7962 Y4.6796 Z-0.2906
N13830 X2.7956 Y4.682 Z-0.2907
N13835 X2.7949 Y4.6844 Z-0.2908
N13840 X2.7933 Y4.6891 Z-0.291
N13845 X2.7923 Y4.6914 Z-0.2911
N13850 X2.7912 Y4.6936
N13855 X2.7887 Y4.6979 Z-0.2913
N13860 X2.7873 Y4.7 Z-0.2914
N13865 X2.7858 Y4.702 Z-0.2915
N13870 X2.7842 Y4.704 Z-0.2916
N13875 X2.7826 Y4.7058 Z-0.2917
N13880 X2.7808 Y4.7076 Z-0.2918
N13885 X2.779 Y4.7093
N13890 X2.7771 Y4.7109 Z-0.2919
N13895 X2.7751 Y4.7124 Z-0.292
N13900 X2.773 Y4.7138 Z-0.2921
N13905 X2.772 Y4.7145
N13910 X2.7709 Y4.7152 Z-0.2922
N13915 X2.7688 Y4.7164 Z-0.2923
N13920 X2.7665 Y4.7175 Z-0.2924
N13925 X2.7643 Y4.7185
N13930 X2.7619 Y4.7194 Z-0.2925
N13935 X2.7596 Y4.7202 Z-0.2926
N13940 X2.7572 Y4.7209 Z-0.2927
N13945 X2.7548 Y4.7215 Z-0.2928
N13950 X2.7523 Y4.722 Z-0.2929
N13955 X2.7499 Y4.7223 Z-0.293
N13960 X2.7474 Y4.7226 Z-0.2931
N13965 X2.7449 Y4.7227
N13970 X2.7424 Z-0.2932
N13975 X2.7399 Y4.7226 Z-0.2933
N13980 X2.7374 Y4.7224 Z-0.2934
N13985 X2.735 Y4.7221 Z-0.2935
N13990 X2.7325 Y4.7216 Z-0.2936
N13995 X2.7301 Y4.7211 Z-0.2937
N14000 X2.7277 Y4.7204
N14005 X2.7254 Y4.7197 Z-0.2938
N14010 X2.723 Y4.7188 Z-0.2939
N14015 X2.7208 Y4.7178 Z-0.294
N14020 X2.7185 Y4.7167 Z-0.2941
N14025 X2.7164 Y4.7155 Z-0.2942
N14030 X2.7142 Y4.7142 Z-0.2943
N14035 X2.7122 Y4.7128 Z-0.2944
N14040 X2.7102 Y4.7113
N14045 X2.7082 Y4.7098 Z-0.2945
N14050 X2.7064 Y4.7081 Z-0.2946
N14055 X2.7046 Y4.7063 Z-0.2947
N14060 X2.7029 Y4.7045 Z-0.2948
N14065 X2.7013 Y4.7026 Z-0.2949
N14070 X2.6998 Y4.7006 Z-0.295
N14075 X2.6984 Y4.6986
N14080 X2.6971 Y4.6965 Z-0.2951
N14085 X2.6965 Y4.6954 Z-0.2952
N14090 X2.6959 Y4.6943
N14095 X2.6947 Y4.6921 Z-0.2953
N14100 X2.6937 Y4.6898 Z-0.2954
N14105 X2.6928 Y4.6875 Z-0.2955
N14110 X2.692 Y4.6852 Z-0.2956
N14115 X2.6913 Y4.6828 Z-0.2957
N14120 X2.6907 Y4.6804
N14125 X2.6903 Y4.6779 Z-0.2958
N14130 X2.6899 Y4.6755 Z-0.2959
N14135 X2.6897 Y4.673 Z-0.296
N14140 X2.6895 Y4.6705 Z-0.2961
N14145 Y4.6681 Z-0.2962
N14150 X2.6896 Y4.6656 Z-0.2963
N14155 X2.6898 Y4.6631
N14160 X2.6902 Y4.6606 Z-0.2964
N14165 X2.6906 Y4.6582 Z-0.2965
N14170 X2.6911 Y4.6558 Z-0.2966
N14175 X2.6918 Y4.6534 Z-0.2967
N14180 X2.6926 Y4.6511 Z-0.2968
N14185 X2.6935 Y4.6487 Z-0.2969
N14190 X2.6944 Y4.6465 Z-0.297
N14195 X2.6955 Y4.6443
N14200 X2.6967 Y4.6421 Z-0.2971
N14205 X2.698 Y4.64 Z-0.2972
N14210 X2.6994 Y4.6379 Z-0.2973
N14215 X2.7009 Y4.6359 Z-0.2974
N14220 X2.7024 Y4.634 Z-0.2975
N14225 X2.7041 Y4.6322 Z-0.2976
N14230 X2.7058 Y4.6304
N14235 X2.7077 Y4.6287 Z-0.2977
N14240 X2.7096 Y4.6271 Z-0.2978
N14245 X2.7115 Y4.6256 Z-0.2979
N14250 X2.7136 Y4.6242 Z-0.298
N14255 X2.7157 Y4.6229 Z-0.2981
N14260 X2.7167 Y4.6223
N14265 X2.7178 Y4.6217 Z-0.2982
N14270 X2.72 Y4.6205
N14275 X2.7223 Y4.6195 Z-0.2983
N14280 X2.7246 Y4.6186 Z-0.2984
N14285 X2.7269 Y4.6178 Z-0.2985
N14290 X2.7293 Y4.6171 Z-0.2986
N14295 X2.7317 Y4.6165 Z-0.2987
N14300 X2.7342 Y4.6161 Z-0.2988
N14305 X2.7366 Y4.6157 Z-0.2989
N14310 X2.7391 Y4.6155
N14315 X2.7415 Y4.6153 Z-0.299
N14320 X2.744 Z-0.2991
N14325 X2.7465 Y4.6154 Z-0.2992
N14330 X2.7489 Y4.6156 Z-0.2993
N14335 X2.7514 Y4.616 Z-0.2994
N14340 X2.7538 Y4.6164 Z-0.2995
N14345 X2.7562 Y4.617
N14350 X2.7586 Y4.6176 Z-0.2996
N14355 X2.7609 Y4.6184 Z-0.2997
N14360 X2.7633 Y4.6193 Z-0.2998
N14365 X2.7655 Y4.6203 Z-0.2999
N14370 X2.7677 Y4.6213 Z-0.3
N14375 X2.7699 Y4.6225 Z-0.3001
N14380 X2.772 Y4.6238
N14385 X2.7741 Y4.6252 Z-0.3002
N14390 X2.776 Y4.6267 Z-0.3003
N14395 X2.778 Y4.6282 Z-0.3004
N14400 X2.7798 Y4.6299 Z-0.3005
N14405 X2.7815 Y4.6316 Z-0.3006
N14410 X2.7832 Y4.6334 Z-0.3007
N14415 X2.7848 Y4.6353
N14420 X2.7863 Y4.6373 Z-0.3008
N14425 X2.7877 Y4.6393 Z-0.3009
N14430 X2.789 Y4.6414 Z-0.301
N14435 X2.7896 Y4.6425
N14440 X2.7902 Y4.6435 Z-0.3011
N14445 X2.7914 Y4.6457 Z-0.3012
N14450 X2.7924 Y4.648 Z-0.3013
N14455 X2.7933 Y4.6503
N14460 X2.7941 Y4.6526 Z-0.3014
N14465 X2.7948 Y4.655 Z-0.3015
N14470 X2.7953 Y4.6574 Z-0.3016
N14475 X2.7958 Y4.6598 Z-0.3017
N14480 X2.7962 Y4.6622 Z-0.3018
N14485 X2.7964 Y4.6647 Z-0.3019
N14490 X2.7965 Y4.6672 Z-0.302
N14495 Y4.6696
N14500 X2.7962 Y4.6746 Z-0.3022
N14505 X2.7955 Y4.6794 Z-0.3024
N14510 X2.7949 Y4.6818 Z-0.3025
N14515 X2.7942 Y4.6842 Z-0.3026
N14520 X2.7926 Y4.6888 Z-0.3027
N14525 X2.7916 Y4.6911 Z-0.3028
N14530 X2.7905 Y4.6933 Z-0.3029
N14535 X2.7881 Y4.6976 Z-0.3031
N14540 X2.7867 Y4.6996 Z-0.3032
N14545 X2.7852 Y4.7016
N14550 X2.7837 Y4.7035 Z-0.3033
N14555 X2.782 Y4.7053 Z-0.3034
N14560 X2.7803 Y4.7071 Z-0.3035
N14565 X2.7785 Y4.7087 Z-0.3036
N14570 X2.7766 Y4.7103 Z-0.3037
N14575 X2.7747 Y4.7118 Z-0.3038
N14580 X2.7726 Y4.7132
N14585 X2.7716 Y4.7139 Z-0.3039
N14590 X2.7706 Y4.7145
N14595 X2.7684 Y4.7157 Z-0.304
N14600 X2.7662 Y4.7168 Z-0.3041
N14605 X2.764 Y4.7178 Z-0.3042
N14610 X2.7617 Y4.7187 Z-0.3043
N14615 X2.7594 Y4.7195 Z-0.3044
N14620 X2.757 Y4.7202
N14625 X2.7546 Y4.7208 Z-0.3045
N14630 X2.7522 Y4.7213 Z-0.3046
N14635 X2.7498 Y4.7216 Z-0.3047
N14640 X2.7473 Y4.7219 Z-0.3048
N14645 X2.7449 Y4.722 Z-0.3049
N14650 X2.7424 Z-0.305
N14655 X2.74 Y4.7219
N14660 X2.7375 Y4.7217 Z-0.3051
N14665 X2.7351 Y4.7214 Z-0.3052
N14670 X2.7327 Y4.7209 Z-0.3053
N14675 X2.7303 Y4.7204 Z-0.3054
N14680 X2.7279 Y4.7197 Z-0.3055
N14685 X2.7256 Y4.719 Z-0.3056
N14690 X2.7233 Y4.7181
N14695 X2.7211 Y4.7171 Z-0.3057
N14700 X2.7189 Y4.716 Z-0.3058
N14705 X2.7167 Y4.7149 Z-0.3059
N14710 X2.7146 Y4.7136 Z-0.306
N14715 X2.7126 Y4.7122 Z-0.3061
N14720 X2.7106 Y4.7107 Z-0.3062
N14725 X2.7087 Y4.7092
N14730 X2.7069 Y4.7076 Z-0.3063
N14735 X2.7051 Y4.7058 Z-0.3064
N14740 X2.7035 Y4.704 Z-0.3065
N14745 X2.7019 Y4.7022 Z-0.3066
N14750 X2.7004 Y4.7002 Z-0.3067
N14755 X2.699 Y4.6982
N14760 X2.6983 Y4.6972 Z-0.3068
N14765 X2.6977 Y4.6961
N14770 X2.6965 Y4.694 Z-0.3069
N14775 X2.6954 Y4.6918 Z-0.307
N14780 X2.6944 Y4.6896 Z-0.3071
N14785 X2.6935 Y4.6873 Z-0.3072
N14790 X2.6927 Y4.685 Z-0.3073
N14795 X2.692 Y4.6826
N14800 X2.6914 Y4.6802 Z-0.3074
N14805 X2.691 Y4.6778 Z-0.3075
N14810 X2.6906 Y4.6754 Z-0.3076
N14815 X2.6904 Y4.673 Z-0.3077
N14820 X2.6903 Y4.6705 Z-0.3078
N14825 X2.6902 Y4.6681 Z-0.3079
N14830 X2.6903 Y4.6656
N14835 X2.6905 Y4.6632 Z-0.308
N14840 X2.6909 Y4.6608 Z-0.3081
N14845 X2.6913 Y4.6584 Z-0.3082
N14850 X2.6918 Y4.656 Z-0.3083
N14855 X2.6925 Y4.6536 Z-0.3084
N14860 X2.6933 Y4.6513 Z-0.3085
N14865 X2.6941 Y4.649
N14870 X2.6951 Y4.6468 Z-0.3086
N14875 X2.6962 Y4.6446 Z-0.3087
N14880 X2.6974 Y4.6424 Z-0.3088
N14885 X2.6986 Y4.6403 Z-0.3089
N14890 X2.7 Y4.6383 Z-0.309
N14895 X2.7015 Y4.6364 Z-0.3091
N14900 X2.703 Y4.6345
N14905 X2.7046 Y4.6327 Z-0.3092
N14910 X2.7064 Y4.6309 Z-0.3093
N14915 X2.7082 Y4.6292 Z-0.3094
N14920 X2.71 Y4.6277 Z-0.3095
N14925 X2.712 Y4.6262 Z-0.3096
N14930 X2.714 Y4.6248
N14935 X2.716 Y4.6235 Z-0.3097
N14940 X2.7171 Y4.6229 Z-0.3098
N14945 X2.7182 Y4.6223
N14950 X2.7203 Y4.6212 Z-0.3099
N14955 X2.7226 Y4.6202 Z-0.31
N14960 X2.7248 Y4.6193 Z-0.3101
N14965 X2.7271 Y4.6185 Z-0.3102
N14970 X2.7295 Y4.6178
N14975 X2.7319 Y4.6173 Z-0.3103
N14980 X2.7343 Y4.6168 Z-0.3104
N14985 X2.7367 Y4.6164 Z-0.3105
N14990 X2.7391 Y4.6162 Z-0.3106
N14995 X2.7415 Y4.6161 Z-0.3107
N15000 X2.744 Z-0.3108
N15005 X2.7464 Y4.6162
N15010 X2.7488 Y4.6164 Z-0.3109
N15015 X2.7513 Y4.6167 Z-0.311
N15020 X2.7537 Y4.6171 Z-0.3111
N15025 X2.756 Y4.6177 Z-0.3112
N15030 X2.7584 Y4.6183 Z-0.3113
N15035 X2.7607 Y4.6191 Z-0.3114
N15040 X2.763 Y4.6199
N15045 X2.7652 Y4.6209 Z-0.3115
N15050 X2.7674 Y4.622 Z-0.3116
N15055 X2.7695 Y4.6232 Z-0.3117
N15060 X2.7716 Y4.6244 Z-0.3118
N15065 X2.7736 Y4.6258 Z-0.3119
N15070 X2.7756 Y4.6272
N15075 X2.7775 Y4.6288 Z-0.312
N15080 X2.7793 Y4.6304 Z-0.3121
N15085 X2.781 Y4.6321 Z-0.3122
N15090 X2.7827 Y4.6339 Z-0.3123
N15095 X2.7842 Y4.6358 Z-0.3124
N15100 X2.7857 Y4.6377 Z-0.3125
N15105 X2.7871 Y4.6397
N15110 X2.7884 Y4.6418 Z-0.3126
N15115 X2.789 Y4.6428 Z-0.3127
N15120 X2.7896 Y4.6439
N15125 X2.7907 Y4.6461 Z-0.3128
N15130 X2.7917 Y4.6483 Z-0.3129
N15135 X2.7926 Y4.6505 Z-0.313
N15140 X2.7934 Y4.6528
N15145 X2.7941 Y4.6552 Z-0.3131
N15150 X2.7946 Y4.6575 Z-0.3132
N15155 X2.7951 Y4.6599 Z-0.3133
N15160 X2.7954 Y4.6623 Z-0.3134
N15165 X2.7957 Y4.6648 Z-0.3135
N15170 X2.7958 Y4.6672 Z-0.3136
N15175 Y4.6696
N15180 X2.7955 Y4.6745 Z-0.3138
N15185 X2.7948 Y4.6793 Z-0.314
N15190 X2.7942 Y4.6816 Z-0.3141
N15195 X2.7935 Y4.684 Z-0.3142
N15200 X2.7919 Y4.6886 Z-0.3143
N15205 X2.791 Y4.6908 Z-0.3144
N15210 X2.7899 Y4.693 Z-0.3145
N15215 X2.7875 Y4.6972 Z-0.3147
N15220 X2.7861 Y4.6992
N15225 X2.7847 Y4.7011 Z-0.3148
N15230 X2.7836 Y4.7024 Z-0.3149
N15235 X2.7826 Y4.7036
N15240 X2.7804 Y4.706 Z-0.3151
N15245 X2.7802 Y4.7061
N15250 X2.7797 Y4.7066
N15255 X2.7793 Y4.7071
N15260 X2.7783 Y4.7079 Z-0.3152
N15265 X2.7763 Y4.7096
N15270 X2.7742 Y4.7112 Z-0.3153
N15275 X2.7732 Y4.712 Z-0.3154
N15280 X2.7721 Y4.7127
N15285 X2.7699 Y4.7141 Z-0.3155
N15290 X2.7677 Y4.7153 Z-0.3156
N15295 X2.7654 Y4.7164 Z-0.3157
N15300 X2.763 Y4.7175 Z-0.3158
N15305 X2.7606 Y4.7184 Z-0.3159
N15310 X2.7582 Y4.7192 Z-0.316
N15315 X2.7557 Y4.7198 Z-0.3161
N15320 X2.7532 Y4.7204
N15325 X2.7507 Y4.7208 Z-0.3162
N15330 X2.7481 Y4.7211 Z-0.3163
N15335 X2.7468 Y4.7212 Z-0.3164
N15340 X2.7456 Y4.7213
N15345 X2.743 Z-0.3165
N15350 X2.7404 Y4.7212 Z-0.3166
N15355 X2.7378 Y4.721 Z-0.3167
N15360 X2.7353 Y4.7207 Z-0.3168
N15365 X2.7327 Y4.7202 Z-0.3169
N15370 X2.7302 Y4.7196
N15375 X2.7277 Y4.7189 Z-0.317
N15380 X2.7253 Y4.7181 Z-0.3171
N15385 X2.7229 Y4.7172 Z-0.3172
N15390 X2.7206 Y4.7161 Z-0.3173
N15395 X2.7194 Y4.7155 Z-0.3174
N15400 X2.7183 Y4.7149
N15405 X2.716 Y4.7136 Z-0.3175
N15410 X2.7139 Y4.7122 Z-0.3176
N15415 X2.7118 Y4.7107 Z-0.3177
N15420 X2.7098 Y4.7091 Z-0.3178
N15425 X2.7078 Y4.7074
N15430 X2.706 Y4.7057 Z-0.3179
N15435 X2.7042 Y4.7038 Z-0.318
N15440 X2.7026 Y4.7019 Z-0.3181
N15445 X2.701 Y4.6998 Z-0.3182
N15450 X2.6996 Y4.6978 Z-0.3183
N15455 X2.6989 Y4.6967
N15460 X2.6982 Y4.6956 Z-0.3184
N15465 X2.6969 Y4.6933 Z-0.3185
N15470 X2.6958 Y4.691 Z-0.3186
N15475 X2.6948 Y4.6886 Z-0.3187
N15480 X2.6939 Y4.6862
N15485 X2.6931 Y4.6838 Z-0.3188
N15490 X2.6924 Y4.6813 Z-0.3189
N15495 X2.6919 Y4.6788 Z-0.319
N15500 X2.6914 Y4.6763 Z-0.3191
N15505 X2.6911 Y4.6737 Z-0.3192
N15510 Y4.6724
N15515 X2.691 Y4.6711 Z-0.3193
N15520 X2.6909 Y4.6685 Z-0.3194
N15525 X2.691 Y4.666 Z-0.3195
N15530 X2.6912 Y4.6635
N15535 X2.6916 Y4.6609 Z-0.3196
N15540 X2.692 Y4.6584 Z-0.3197
N15545 X2.6926 Y4.6559 Z-0.3198
N15550 X2.6933 Y4.6534 Z-0.3199
N15555 X2.6941 Y4.651 Z-0.32
N15560 X2.6951 Y4.6486 Z-0.3201
N15565 X2.6961 Y4.6463 Z-0.3202
N15570 X2.6967 Y4.6451
N15575 X2.6973 Y4.644 Z-0.3203
N15580 X2.6986 Y4.6418 Z-0.3204
N15585 X2.7 Y4.6396
N15590 X2.7014 Y4.6376 Z-0.3205
N15595 X2.703 Y4.6356 Z-0.3206
N15600 X2.7047 Y4.6337 Z-0.3207
N15605 X2.7064 Y4.6318 Z-0.3208
N15610 X2.7083 Y4.6301 Z-0.3209
N15615 X2.7103 Y4.6284 Z-0.321
N15620 X2.7123 Y4.6268 Z-0.3211
N15625 X2.7134 Y4.6261
N15630 X2.7145 Y4.6253 Z-0.3212
N15635 X2.7166 Y4.624
N15640 X2.7188 Y4.6227 Z-0.3213
N15645 X2.7211 Y4.6216 Z-0.3214
N15650 X2.7235 Y4.6206 Z-0.3215
N15655 X2.7259 Y4.6197 Z-0.3216
N15660 X2.7283 Y4.6189 Z-0.3217
N15665 X2.7307 Y4.6182 Z-0.3218
N15670 X2.7332 Y4.6177 Z-0.3219
N15675 X2.7358 Y4.6173 Z-0.322
N15680 X2.7383 Y4.617
N15685 X2.7396 Y4.6169 Z-0.3221
N15690 X2.7409 Y4.6168
N15695 X2.7435 Z-0.3222
N15700 X2.746 Z-0.3223
N15705 X2.7485 Y4.617 Z-0.3224
N15710 X2.7511 Y4.6174 Z-0.3225
N15715 X2.7536 Y4.6178 Z-0.3226
N15720 X2.7561 Y4.6184 Z-0.3227
N15725 X2.7585 Y4.6191 Z-0.3228
N15730 X2.7609 Y4.6199
N15735 X2.7633 Y4.6208 Z-0.3229
N15740 X2.7657 Y4.6219 Z-0.323
N15745 X2.7668 Y4.6225 Z-0.3231
N15750 X2.768 Y4.6231
N15755 X2.7702 Y4.6244 Z-0.3232
N15760 X2.7724 Y4.6258 Z-0.3233
N15765 X2.7744 Y4.6273 Z-0.3234
N15770 X2.7764 Y4.6288 Z-0.3235
N15775 X2.7783 Y4.6305 Z-0.3236
N15780 X2.7802 Y4.6323 Z-0.3237
N15785 X2.7819 Y4.6341
N15790 X2.7836 Y4.6361 Z-0.3238
N15795 X2.7851 Y4.6381 Z-0.3239
N15800 X2.7859 Y4.6392 Z-0.324
N15805 X2.7866 Y4.6402
N15810 X2.7879 Y4.6424 Z-0.3241
N15815 X2.7892 Y4.6446 Z-0.3242
N15820 X2.7903 Y4.6469 Z-0.3243
N15825 X2.7913 Y4.6492 Z-0.3244
N15830 X2.7922 Y4.6516 Z-0.3245
N15835 X2.793 Y4.654
N15840 X2.7937 Y4.6565 Z-0.3246
N15845 X2.7942 Y4.659 Z-0.3247
N15850 X2.7946 Y4.6615 Z-0.3248
N15855 X2.7949 Y4.664 Z-0.3249
N15860 X2.795 Y4.6653
N15865 X2.7951 Y4.6666 Z-0.325
N15870 Y4.6692 Z-0.3251
N15875 X2.7948 Y4.6742 Z-0.3253
N15880 X2.7945 Y4.6767
N15885 X2.794 Y4.6792 Z-0.3254
N15890 X2.7934 Y4.6817 Z-0.3255
N15895 X2.7928 Y4.6841 Z-0.3256
N15900 X2.791 Y4.6888 Z-0.3258
N15905 X2.79 Y4.6912 Z-0.3259
N15910 X2.7888 Y4.6935 Z-0.326
N15915 X2.7875 Y4.6957
N15920 X2.7861 Y4.6979 Z-0.3261
N15925 X2.7847 Y4.7 Z-0.3262
N15930 X2.7831 Y4.7019 Z-0.3263
N15935 X2.7814 Y4.7038 Z-0.3264
N15940 X2.7797 Y4.7056 Z-0.3265
N15945 X2.7778 Y4.7074 Z-0.3266
N15950 X2.7759 Y4.7091 Z-0.3267
N15955 X2.7738 Y4.7106 Z-0.3268
N15960 X2.7728 Y4.7114
N15965 X2.7717 Y4.7121
N15970 X2.7696 Y4.7134 Z-0.3269
N15975 X2.7673 Y4.7146 Z-0.327
N15980 X2.7651 Y4.7158 Z-0.3271
N15985 X2.7627 Y4.7168 Z-0.3272
N15990 X2.7604 Y4.7177 Z-0.3273
N15995 X2.758 Y4.7184 Z-0.3274
N16000 X2.7555 Y4.7191 Z-0.3275
N16005 X2.753 Y4.7196 Z-0.3276
N16010 X2.7505 Y4.7201
N16015 X2.748 Y4.7203 Z-0.3277
N16020 X2.7468 Y4.7204 Z-0.3278
N16025 X2.7455 Y4.7205
N16030 X2.743 Y4.7206 Z-0.3279
N16035 X2.7404 Y4.7205 Z-0.328
N16040 X2.7379 Y4.7203 Z-0.3281
N16045 X2.7354 Y4.7199 Z-0.3282
N16050 X2.7329 Y4.7195 Z-0.3283
N16055 X2.7304 Y4.7189 Z-0.3284
N16060 X2.728 Y4.7182
N16065 X2.7256 Y4.7174 Z-0.3285
N16070 X2.7232 Y4.7165 Z-0.3286
N16075 X2.7209 Y4.7154 Z-0.3287
N16080 X2.7198 Y4.7149
N16085 X2.7186 Y4.7143 Z-0.3288
N16090 X2.7164 Y4.713 Z-0.3289
N16095 X2.7143 Y4.7116 Z-0.329
N16100 X2.7122 Y4.7101 Z-0.3291
N16105 X2.7103 Y4.7086
N16110 X2.7083 Y4.7069 Z-0.3292
N16115 X2.7065 Y4.7051 Z-0.3293
N16120 X2.7048 Y4.7033 Z-0.3294
N16125 X2.7032 Y4.7014 Z-0.3295
N16130 X2.7016 Y4.6994 Z-0.3296
N16135 X2.7009 Y4.6984
N16140 X2.7002 Y4.6973 Z-0.3297
N16145 X2.6989 Y4.6952 Z-0.3298
N16150 X2.6976 Y4.6929 Z-0.3299
N16155 X2.6965 Y4.6906
N16160 X2.6955 Y4.6883 Z-0.33
N16165 X2.6946 Y4.6859 Z-0.3301
N16170 X2.6938 Y4.6835 Z-0.3302
N16175 X2.6932 Y4.6811 Z-0.3303
N16180 X2.6926 Y4.6787 Z-0.3304
N16185 X2.6922 Y4.6761 Z-0.3305
N16190 X2.6919 Y4.6736 Z-0.3306
N16195 X2.6918 Y4.6724
N16200 Y4.6711
N16205 X2.6917 Y4.6686 Z-0.3307
N16210 X2.6918 Y4.666 Z-0.3308
N16215 X2.692 Y4.6635 Z-0.3309
N16220 X2.6923 Y4.6611 Z-0.331
N16225 X2.6928 Y4.6586 Z-0.3311
N16230 X2.6934 Y4.6561 Z-0.3312
N16235 X2.694 Y4.6537 Z-0.3313
N16240 X2.6949 Y4.6513 Z-0.3314
N16245 X2.6958 Y4.6489
N16250 X2.6968 Y4.6466 Z-0.3315
N16255 X2.6974 Y4.6455 Z-0.3316
N16260 X2.698 Y4.6444
N16265 X2.6992 Y4.6422 Z-0.3317
N16270 X2.7006 Y4.6401 Z-0.3318
N16275 X2.7021 Y4.638 Z-0.3319
N16280 X2.7036 Y4.6361 Z-0.332
N16285 X2.7053 Y4.6342 Z-0.3321
N16290 X2.707 Y4.6324
N16295 X2.7089 Y4.6306 Z-0.3322
N16300 X2.7108 Y4.629 Z-0.3323
N16305 X2.7128 Y4.6274 Z-0.3324
N16310 X2.7138 Y4.6267 Z-0.3325
N16315 X2.7149 Y4.626
N16320 X2.717 Y4.6247 Z-0.3326
N16325 X2.7192 Y4.6234 Z-0.3327
N16330 X2.7215 Y4.6223 Z-0.3328
N16335 X2.7238 Y4.6213
N16340 X2.7261 Y4.6204 Z-0.3329
N16345 X2.7285 Y4.6197 Z-0.333
N16350 X2.731 Y4.619 Z-0.3331
N16355 X2.7334 Y4.6185 Z-0.3332
N16360 X2.7359 Y4.6181 Z-0.3333
N16365 X2.7384 Y4.6178 Z-0.3334
N16370 X2.7397 Y4.6177
N16375 X2.7409 Y4.6176 Z-0.3335
N16380 X2.7435
N16385 X2.746 Z-0.3336
N16390 X2.7485 Y4.6178 Z-0.3337
N16395 X2.751 Y4.6182 Z-0.3338
N16400 X2.7534 Y4.6186 Z-0.3339
N16405 X2.7559 Y4.6192 Z-0.334
N16410 X2.7583 Y4.6199 Z-0.3341
N16415 X2.7607 Y4.6207 Z-0.3342
N16420 X2.763 Y4.6216
N16425 X2.7653 Y4.6226 Z-0.3343
N16430 X2.7665 Y4.6232 Z-0.3344
N16435 X2.7676 Y4.6238
N16440 X2.7698 Y4.6251 Z-0.3345
N16445 X2.7719 Y4.6264 Z-0.3346
N16450 X2.7739 Y4.6279 Z-0.3347
N16455 X2.7759 Y4.6295 Z-0.3348
N16460 X2.7778 Y4.6311 Z-0.3349
N16465 X2.7796 Y4.6328 Z-0.335
N16470 X2.7813 Y4.6347
N16475 X2.7829 Y4.6366 Z-0.3351
N16480 X2.7845 Y4.6386 Z-0.3352
N16485 X2.7859 Y4.6407 Z-0.3353
N16490 X2.7866 Y4.6417
N16495 X2.7872 Y4.6428 Z-0.3354
N16500 X2.7884 Y4.645 Z-0.3355
N16505 X2.7896 Y4.6472 Z-0.3356
N16510 X2.7906 Y4.6495 Z-0.3357
N16515 X2.7914 Y4.6519
N16520 X2.7922 Y4.6543 Z-0.3358
N16525 X2.7929 Y4.6567 Z-0.3359
N16530 X2.7934 Y4.6591 Z-0.336
N16535 X2.7938 Y4.6616 Z-0.3361
N16540 X2.7941 Y4.6641 Z-0.3362
N16545 X2.7943 Y4.6666 Z-0.3363
N16550 Y4.6679
N16555 Y4.6691 Z-0.3364
N16560 X2.794 Y4.6741 Z-0.3365
N16565 X2.7937 Y4.6766 Z-0.3366
N16570 X2.7932 Y4.679 Z-0.3367
N16575 X2.7926 Y4.6815 Z-0.3368
N16580 X2.792 Y4.6839 Z-0.3369
N16585 X2.7903 Y4.6885 Z-0.337
N16590 X2.7892 Y4.6908 Z-0.3371
N16595 X2.7881 Y4.6931 Z-0.3372
N16600 X2.7868 Y4.6953 Z-0.3373
N16605 X2.7855 Y4.6974 Z-0.3374
N16610 X2.784 Y4.6995 Z-0.3375
N16615 X2.7825 Y4.7014 Z-0.3376
N16620 X2.7808 Y4.7033 Z-0.3377
N16625 X2.7791 Y4.7051
N16630 X2.7773 Y4.7068 Z-0.3378
N16635 X2.7753 Y4.7084 Z-0.3379
N16640 X2.7733 Y4.71 Z-0.338
N16645 X2.7723 Y4.7107 Z-0.3381
N16650 X2.7713 Y4.7114
N16655 X2.7692 Y4.7127 Z-0.3382
N16660 X2.767 Y4.7139 Z-0.3383
N16665 X2.7647 Y4.715 Z-0.3384
N16670 X2.7624 Y4.716
N16675 X2.7601 Y4.7169 Z-0.3385
N16680 X2.7577 Y4.7176 Z-0.3386
N16685 X2.7553 Y4.7183 Z-0.3387
N16690 X2.7529 Y4.7188 Z-0.3388
N16695 X2.7504 Y4.7192 Z-0.3389
N16700 X2.748 Y4.7195 Z-0.339
N16705 X2.7467 Y4.7196
N16710 X2.7455 Y4.7197 Z-0.3391
N16715 X2.743
N16720 X2.7405 Y4.7196 Z-0.3392
N16725 X2.738 Y4.7194 Z-0.3393
N16730 X2.7355 Y4.7191 Z-0.3394
N16735 X2.733 Y4.7187 Z-0.3395
N16740 X2.7306 Y4.7181 Z-0.3396
N16745 X2.7282 Y4.7174 Z-0.3397
N16750 X2.7258 Y4.7166 Z-0.3398
N16755 X2.7235 Y4.7157
N16760 X2.7212 Y4.7147 Z-0.3399
N16765 X2.7201 Y4.7141 Z-0.34
N16770 X2.719 Y4.7135
N16775 X2.7169 Y4.7123 Z-0.3401
N16780 X2.7148 Y4.7109 Z-0.3402
N16785 X2.7127 Y4.7095 Z-0.3403
N16790 X2.7108 Y4.7079 Z-0.3404
N16795 X2.7089 Y4.7063
N16800 X2.7071 Y4.7046 Z-0.3405
N16805 X2.7054 Y4.7028 Z-0.3406
N16810 X2.7038 Y4.7009 Z-0.3407
N16815 X2.7023 Y4.6989 Z-0.3408
N16820 X2.7016 Y4.6979
N16825 X2.7009 Y4.6969 Z-0.3409
N16830 X2.6996 Y4.6947 Z-0.341
N16835 X2.6983 Y4.6925 Z-0.3411
N16840 X2.6972 Y4.6903
N16845 X2.6962 Y4.688 Z-0.3412
N16850 X2.6954 Y4.6857 Z-0.3413
N16855 X2.6946 Y4.6833 Z-0.3414
N16860 X2.694 Y4.6809 Z-0.3415
N16865 X2.6934 Y4.6785 Z-0.3416
N16870 X2.693 Y4.676 Z-0.3417
N16875 X2.6927 Y4.6736 Z-0.3418
N16880 X2.6926 Y4.6723
N16885 Y4.6711
