%
O08714 (Thermocyler_Block_4X4_4)
(Using high feed G1 F500. instead of G0.)
(T8 D=0.125 CR=0. - ZMIN=-0.748 - flat end mill)
N10 G90 G94 G17
N15 G20
N20 G53 G0 Z0.

(Ramp1)
N30 T8 M6
N35 S4000 M3
N40 G54
N45 M8
N60 G0 X2.7098 Y3.4461
N65 G43 Z0.5906 H8
N70 G0 Z0.076
N75 G1 Z0. F8.
N80 G3 X2.7008 Y3.4248 I-0.0001 J-0.0125
N85 G1 X2.7035 Y3.4224 Z-0.0001
N90 X2.7038 Y3.4221
N95 X2.7091 Y3.4181 Z-0.0004
N100 X2.7115 Y3.4166 Z-0.0005
N105 X2.7147 Y3.4147 Z-0.0006
N110 X2.7203 Y3.4122 Z-0.0008
N115 X2.7231 Y3.4111 Z-0.0009
N120 X2.7259 Y3.4102 Z-0.001
N125 X2.7315 Y3.4088 Z-0.0012
N130 X2.7371 Y3.408 Z-0.0014
N135 X2.7399 Y3.4078 Z-0.0015
N140 X2.7427 Y3.4077 Z-0.0016
N145 X2.7483 Y3.4079 Z-0.0018
N150 X2.7539 Y3.4086 Z-0.002
N155 X2.7595 Y3.4099 Z-0.0022
N160 X2.7632 Y3.4111 Z-0.0023
N165 X2.7651 Y3.4117 Z-0.0024
N170 X2.7679 Y3.4129 Z-0.0025
N175 X2.7707 Y3.4142 Z-0.0026
N180 X2.775 Y3.4166 Z-0.0028
N185 X2.7763 Y3.4174 Z-0.0029
N190 X2.7819 Y3.4215 Z-0.0031
N195 X2.7826 Y3.4221
N200 X2.7875 Y3.4267 Z-0.0034
N205 X2.7883 Y3.4276
N210 X2.7907 Y3.4303 Z-0.0035
N215 X2.7928 Y3.4331 Z-0.0037
N220 X2.7931 Y3.4335
N225 X2.7963 Y3.4386 Z-0.0039
N230 X2.7987 Y3.4432 Z-0.0041
N235 X2.7991 Y3.4441
N240 X2.8013 Y3.4496 Z-0.0043
N245 X2.8021 Y3.4523 Z-0.0044
N250 X2.8028 Y3.4551 Z-0.0045
N255 X2.8038 Y3.4606 Z-0.0047
N260 X2.8043 Y3.4661 Z-0.0049
N265 Y3.4663
N270 Y3.4714 Z-0.0051
N275 Y3.4716
N280 X2.8038 Y3.4771 Z-0.0053
N285 X2.8028 Y3.4826 Z-0.0055
N290 X2.8021 Y3.4854 Z-0.0056
N295 X2.8013 Y3.4881 Z-0.0057
N300 X2.7991 Y3.4936 Z-0.0059
N305 X2.7987 Y3.4945
N310 X2.7963 Y3.4991 Z-0.0061
N315 X2.7931 Y3.5042 Z-0.0063
N320 X2.7928 Y3.5046
N325 X2.7907 Y3.5074 Z-0.0064
N330 X2.7883 Y3.5101 Z-0.0066
N335 X2.7875 Y3.511
N340 X2.7826 Y3.5156 Z-0.0069
N345 X2.7819 Y3.5162
N350 X2.7763 Y3.5203 Z-0.0071
N355 X2.775 Y3.5211 Z-0.0072
N360 X2.7707 Y3.5235 Z-0.0074
N365 X2.7679 Y3.5248 Z-0.0075
N370 X2.7651 Y3.526 Z-0.0076
N375 X2.7632 Y3.5267
N380 X2.7595 Y3.5278 Z-0.0078
N385 X2.7539 Y3.5291 Z-0.008
N390 X2.7483 Y3.5298 Z-0.0082
N395 X2.7427 Y3.53 Z-0.0084
N400 X2.7399 Y3.5299 Z-0.0085
N405 X2.7371 Y3.5297 Z-0.0086
N410 X2.7315 Y3.5289 Z-0.0088
N415 X2.7259 Y3.5275 Z-0.009
N420 X2.7231 Y3.5267 Z-0.0091
N425 X2.7203 Y3.5255 Z-0.0092
N430 X2.7147 Y3.523 Z-0.0094
N435 X2.7115 Y3.5211 Z-0.0095
N440 X2.7091 Y3.5196 Z-0.0096
N445 X2.7038 Y3.5156 Z-0.0098
N450 X2.7035 Y3.5153 Z-0.0099
N455 X2.7008 Y3.5129 Z-0.01
N460 X2.6981 Y3.5101 Z-0.0101
N465 X2.6979 Y3.5099
N470 X2.6936 Y3.5046 Z-0.0104
N475 X2.6923 Y3.5027
N480 X2.69 Y3.4991 Z-0.0106
N485 X2.6886 Y3.4964 Z-0.0107
N490 X2.6873 Y3.4936 Z-0.0108
N495 X2.6867 Y3.4922 Z-0.0109
N500 X2.6852 Y3.4881 Z-0.011
N505 X2.6836 Y3.4826 Z-0.0112
N510 X2.6826 Y3.4771 Z-0.0114
N515 X2.6821 Y3.4716 Z-0.0116
N520 Y3.4689 Z-0.0117
N525 Y3.4661 Z-0.0118
N530 X2.6826 Y3.4606 Z-0.012
N535 X2.6836 Y3.4551 Z-0.0122
N540 X2.6852 Y3.4496 Z-0.0124
N545 X2.6867 Y3.4455 Z-0.0125
N550 X2.6873 Y3.4441 Z-0.0126
N555 X2.6886 Y3.4413 Z-0.0127
N560 X2.69 Y3.4386 Z-0.0128
N565 X2.6923 Y3.435 Z-0.013
N570 X2.6936 Y3.4331
N575 X2.6979 Y3.4278 Z-0.0133
N580 X2.6981 Y3.4276
N585 X2.7008 Y3.4248 Z-0.0134
N590 X2.7035 Y3.4224 Z-0.0135
N595 X2.7038 Y3.4221 Z-0.0136
N600 X2.7091 Y3.4181 Z-0.0138
N605 X2.7115 Y3.4166 Z-0.0139
N610 X2.7147 Y3.4147 Z-0.014
N615 X2.7203 Y3.4122 Z-0.0142
N620 X2.7231 Y3.4111 Z-0.0143
N625 X2.7259 Y3.4102 Z-0.0144
N630 X2.7315 Y3.4088 Z-0.0146
N635 X2.7371 Y3.408 Z-0.0148
N640 X2.7399 Y3.4078 Z-0.0149
N645 X2.7427 Y3.4077 Z-0.015
N650 X2.7483 Y3.4079 Z-0.0152
N655 X2.7539 Y3.4086 Z-0.0154
N660 X2.7595 Y3.4099 Z-0.0156
N665 X2.7632 Y3.4111 Z-0.0158
N670 X2.7651 Y3.4117
N675 X2.7679 Y3.4129 Z-0.0159
N680 X2.7707 Y3.4142 Z-0.0161
N685 X2.775 Y3.4166 Z-0.0162
N690 X2.7763 Y3.4174 Z-0.0163
N695 X2.7819 Y3.4215 Z-0.0165
N700 X2.7826 Y3.4221 Z-0.0166
N705 X2.7875 Y3.4267 Z-0.0168
N710 X2.7883 Y3.4276
N715 X2.7907 Y3.4303 Z-0.017
N720 X2.7928 Y3.4331 Z-0.0171
N725 X2.7931 Y3.4335
N730 X2.7963 Y3.4386 Z-0.0173
N735 X2.7987 Y3.4432 Z-0.0175
N740 X2.7991 Y3.4441
N745 X2.8013 Y3.4496 Z-0.0177
N750 X2.8021 Y3.4523 Z-0.0178
N755 X2.8028 Y3.4551 Z-0.0179
N760 X2.8038 Y3.4606 Z-0.0181
N765 X2.8043 Y3.4661 Z-0.0183
N770 Y3.4663
N775 Y3.4714 Z-0.0185
N780 Y3.4716
N785 X2.8038 Y3.4771 Z-0.0187
N790 X2.8028 Y3.4826 Z-0.0189
N795 X2.8021 Y3.4854 Z-0.019
N800 X2.8013 Y3.4881 Z-0.0191
N805 X2.7991 Y3.4936 Z-0.0193
N810 X2.7987 Y3.4945
N815 X2.7963 Y3.4991 Z-0.0195
N820 X2.7931 Y3.5042 Z-0.0197
N825 X2.7928 Y3.5046
N830 X2.7907 Y3.5074 Z-0.0199
N835 X2.7883 Y3.5101 Z-0.02
N840 X2.7875 Y3.511
N845 X2.7826 Y3.5156 Z-0.0203
N850 X2.7819 Y3.5162
N855 X2.7763 Y3.5203 Z-0.0205
N860 X2.775 Y3.5211 Z-0.0206
N865 X2.7707 Y3.5235 Z-0.0208
N870 X2.7679 Y3.5248 Z-0.0209
N875 X2.7651 Y3.526 Z-0.021
N880 X2.7632 Y3.5267 Z-0.0211
N885 X2.7595 Y3.5278 Z-0.0212
N890 X2.7539 Y3.5291 Z-0.0214
N895 X2.7483 Y3.5298 Z-0.0216
N900 X2.7427 Y3.53 Z-0.0218
N905 X2.7399 Y3.5299 Z-0.0219
N910 X2.7371 Y3.5297 Z-0.022
N915 X2.7315 Y3.5289 Z-0.0222
N920 X2.7259 Y3.5275 Z-0.0224
N925 X2.7231 Y3.5267 Z-0.0225
N930 X2.7203 Y3.5255 Z-0.0226
N935 X2.7147 Y3.523 Z-0.0228
N940 X2.7115 Y3.5211 Z-0.0229
N945 X2.7091 Y3.5196 Z-0.023
N950 X2.7038 Y3.5156 Z-0.0233
N955 X2.7035 Y3.5153
N960 X2.7008 Y3.5129 Z-0.0234
N965 X2.6981 Y3.5101 Z-0.0235
N970 X2.6979 Y3.5099
N975 X2.6936 Y3.5046 Z-0.0238
N980 X2.6923 Y3.5027 Z-0.0239
N985 X2.69 Y3.4991 Z-0.024
N990 X2.6886 Y3.4964 Z-0.0241
N995 X2.6873 Y3.4936 Z-0.0242
N1000 X2.6867 Y3.4922 Z-0.0243
N1005 X2.6852 Y3.4881 Z-0.0244
N1010 X2.6836 Y3.4826 Z-0.0246
N1015 X2.6826 Y3.4771 Z-0.0248
N1020 X2.6821 Y3.4716 Z-0.025
N1025 Y3.4689 Z-0.0251
N1030 Y3.4661 Z-0.0252
N1035 X2.6826 Y3.4606 Z-0.0254
N1040 X2.6836 Y3.4551 Z-0.0256
N1045 X2.6852 Y3.4496 Z-0.0258
N1050 X2.6867 Y3.4455 Z-0.026
N1055 X2.6873 Y3.4441
N1060 X2.6886 Y3.4413 Z-0.0261
N1065 X2.69 Y3.4386 Z-0.0262
N1070 X2.6923 Y3.435 Z-0.0264
N1075 X2.6936 Y3.4331 Z-0.0265
N1080 X2.6979 Y3.4278 Z-0.0267
N1085 X2.6981 Y3.4276
N1090 X2.7008 Y3.4248 Z-0.0268
N1095 X2.7035 Y3.4224 Z-0.027
N1100 X2.7038 Y3.4221
N1105 X2.7091 Y3.4181 Z-0.0272
N1110 X2.7115 Y3.4166 Z-0.0273
N1115 X2.7147 Y3.4147 Z-0.0274
N1120 X2.7203 Y3.4122 Z-0.0277
N1125 X2.7231 Y3.4111 Z-0.0278
N1130 X2.7259 Y3.4102 Z-0.0279
N1135 X2.7315 Y3.4088 Z-0.0281
N1140 X2.7371 Y3.408 Z-0.0283
N1145 X2.7399 Y3.4078 Z-0.0284
N1150 X2.7427 Y3.4077 Z-0.0285
N1155 X2.7483 Y3.4079 Z-0.0286
N1160 X2.7539 Y3.4086 Z-0.0288
N1165 X2.7595 Y3.4099 Z-0.029
N1170 X2.7632 Y3.4111 Z-0.0292
N1175 X2.7651 Y3.4117 Z-0.0293
N1180 X2.7679 Y3.4129 Z-0.0294
N1185 X2.7707 Y3.4142 Z-0.0295
N1190 X2.775 Y3.4166 Z-0.0296
N1195 X2.7763 Y3.4174 Z-0.0297
N1200 X2.7819 Y3.4215 Z-0.0299
N1205 X2.7826 Y3.4221 Z-0.03
N1210 X2.7875 Y3.4267 Z-0.0302
N1215 X2.7883 Y3.4276
N1220 X2.7907 Y3.4303 Z-0.0304
N1225 X2.7928 Y3.4331 Z-0.0305
N1230 X2.7931 Y3.4335
N1235 X2.7963 Y3.4386 Z-0.0307
N1240 X2.7987 Y3.4432 Z-0.0309
N1245 X2.7991 Y3.4441
N1250 X2.8013 Y3.4496 Z-0.0311
N1255 X2.8021 Y3.4523 Z-0.0312
N1260 X2.8028 Y3.4551 Z-0.0313
N1265 X2.8038 Y3.4606 Z-0.0315
N1270 X2.8043 Y3.4661 Z-0.0317
N1275 Y3.4663
N1280 Y3.4714 Z-0.0319
N1285 Y3.4716
N1290 X2.8038 Y3.4771 Z-0.0321
N1295 X2.8028 Y3.4826 Z-0.0323
N1300 X2.8021 Y3.4854 Z-0.0324
N1305 X2.8013 Y3.4881 Z-0.0325
N1310 X2.7991 Y3.4936 Z-0.0327
N1315 X2.7987 Y3.4945 Z-0.0328
N1320 X2.7963 Y3.4991 Z-0.0329
N1325 X2.7931 Y3.5042 Z-0.0331
N1330 X2.7928 Y3.5046 Z-0.0332
N1335 X2.7907 Y3.5074 Z-0.0333
N1340 X2.7883 Y3.5101 Z-0.0334
N1345 X2.7875 Y3.511 Z-0.0335
N1350 X2.7826 Y3.5156 Z-0.0337
N1355 X2.7819 Y3.5162
N1360 X2.7763 Y3.5203 Z-0.034
N1365 X2.775 Y3.5211
N1370 X2.7707 Y3.5235 Z-0.0342
N1375 X2.7679 Y3.5248 Z-0.0343
N1380 X2.7651 Y3.526 Z-0.0344
N1385 X2.7632 Y3.5267 Z-0.0345
N1390 X2.7595 Y3.5278 Z-0.0346
N1395 X2.7539 Y3.5291 Z-0.0348
N1400 X2.7483 Y3.5298 Z-0.035
N1405 X2.7427 Y3.53 Z-0.0352
N1410 X2.7399 Y3.5299 Z-0.0353
N1415 X2.7371 Y3.5297 Z-0.0354
N1420 X2.7315 Y3.5289 Z-0.0356
N1425 X2.7259 Y3.5275 Z-0.0358
N1430 X2.7231 Y3.5267 Z-0.0359
N1435 X2.7203 Y3.5255 Z-0.036
N1440 X2.7147 Y3.523 Z-0.0362
N1445 X2.7115 Y3.5211 Z-0.0363
N1450 X2.7091 Y3.5196 Z-0.0364
N1455 X2.7038 Y3.5156 Z-0.0367
N1460 X2.7035 Y3.5153
N1465 X2.7008 Y3.5129 Z-0.0368
N1470 X2.6981 Y3.5101 Z-0.037
N1475 X2.6979 Y3.5099
N1480 X2.6936 Y3.5046 Z-0.0372
N1485 X2.6923 Y3.5027 Z-0.0373
N1490 X2.69 Y3.4991 Z-0.0374
N1495 X2.6886 Y3.4964 Z-0.0375
N1500 X2.6873 Y3.4936 Z-0.0376
N1505 X2.6867 Y3.4922 Z-0.0377
N1510 X2.6852 Y3.4881 Z-0.0379
N1515 X2.6836 Y3.4826 Z-0.0381
N1520 X2.6826 Y3.4771 Z-0.0382
N1525 X2.6821 Y3.4716 Z-0.0384
N1530 Y3.4689 Z-0.0385
N1535 Y3.4661 Z-0.0386
N1540 X2.6826 Y3.4606 Z-0.0388
N1545 X2.6836 Y3.4551 Z-0.039
N1550 X2.6852 Y3.4496 Z-0.0392
N1555 X2.6867 Y3.4455 Z-0.0394
N1560 X2.6876 Y3.4433 Z-0.0395
N1565 X2.6887 Y3.4411
N1570 X2.6911 Y3.4368 Z-0.0397
N1575 X2.6939 Y3.4327 Z-0.0399
N1580 X2.697 Y3.4288 Z-0.0401
N1585 X2.7003 Y3.4252 Z-0.0402
N1590 X2.704 Y3.4219 Z-0.0404
N1595 X2.7079 Y3.4189 Z-0.0406
N1600 X2.712 Y3.4163 Z-0.0407
N1605 X2.7164 Y3.4139 Z-0.0409
N1610 X2.7209 Y3.4119 Z-0.0411
N1615 X2.7255 Y3.4103 Z-0.0413
N1620 X2.7303 Y3.4091 Z-0.0414
N1625 X2.7351 Y3.4082 Z-0.0416
N1630 X2.74 Y3.4078 Z-0.0418
N1635 X2.745 Y3.4077 Z-0.0419
N1640 X2.7499 Y3.4081 Z-0.0421
N1645 X2.7547 Y3.4088 Z-0.0423
N1650 X2.7595 Y3.4099 Z-0.0425
N1655 X2.7642 Y3.4114 Z-0.0426
N1660 X2.7688 Y3.4133 Z-0.0428
N1665 X2.7732 Y3.4155 Z-0.043
N1670 X2.7774 Y3.4181 Z-0.0432
N1675 X2.7813 Y3.421 Z-0.0433
N1680 X2.7851 Y3.4242 Z-0.0435
N1685 X2.7885 Y3.4278 Z-0.0437
N1690 X2.7917 Y3.4315 Z-0.0438
N1695 X2.7945 Y3.4356 Z-0.044
N1700 X2.797 Y3.4398 Z-0.0442
N1705 X2.7992 Y3.4442 Z-0.0444
N1710 X2.801 Y3.4488 Z-0.0445
N1715 X2.8024 Y3.4535 Z-0.0447
N1720 X2.8035 Y3.4583 Z-0.0449
N1725 X2.8041 Y3.4632 Z-0.045
N1730 X2.8044 Y3.4681 Z-0.0452
N1735 X2.8042 Y3.4731 Z-0.0454
N1740 X2.8037 Y3.478 Z-0.0456
N1745 X2.8028 Y3.4828 Z-0.0457
N1750 X2.8015 Y3.4875 Z-0.0459
N1755 X2.7998 Y3.4922 Z-0.0461
N1760 X2.7977 Y3.4967 Z-0.0462
N1765 X2.7953 Y3.501 Z-0.0464
N1770 X2.7926 Y3.505 Z-0.0466
N1775 X2.7895 Y3.5089 Z-0.0468
N1780 X2.7861 Y3.5125 Z-0.0469
N1785 X2.7825 Y3.5158 Z-0.0471
N1790 X2.7805 Y3.5173 Z-0.0472
N1795 X2.7786 Y3.5188 Z-0.0473
N1800 X2.7744 Y3.5215 Z-0.0474
N1805 X2.7701 Y3.5238 Z-0.0476
N1810 X2.7656 Y3.5258 Z-0.0478
N1815 X2.7609 Y3.5274 Z-0.048
N1820 X2.7561 Y3.5287 Z-0.0481
N1825 X2.7513 Y3.5295 Z-0.0483
N1830 X2.7464 Y3.53 Z-0.0485
N1835 X2.7415 Z-0.0487
N1840 X2.7365 Y3.5297 Z-0.0488
N1845 X2.7317 Y3.5289 Z-0.049
N1850 X2.7269 Y3.5278 Z-0.0492
N1855 X2.7222 Y3.5263 Z-0.0493
N1860 X2.7176 Y3.5244 Z-0.0495
N1865 X2.7132 Y3.5222 Z-0.0497
N1870 X2.7091 Y3.5196 Z-0.0499
N1875 X2.7051 Y3.5167 Z-0.05
N1880 X2.7014 Y3.5135 Z-0.0502
N1885 X2.6979 Y3.5099 Z-0.0504
N1890 X2.6947 Y3.5062 Z-0.0505
N1895 X2.6919 Y3.5021 Z-0.0507
N1900 X2.6894 Y3.4979 Z-0.0509
N1905 X2.6872 Y3.4935 Z-0.0511
N1910 X2.6854 Y3.4889 Z-0.0512
N1915 X2.684 Y3.4842 Z-0.0514
N1920 X2.683 Y3.4794 Z-0.0516
N1925 X2.6823 Y3.4745 Z-0.0517
N1930 X2.6821 Y3.4696 Z-0.0519
N1935 X2.6822 Y3.4646 Z-0.0521
N1940 X2.6827 Y3.4597 Z-0.0523
N1945 X2.6837 Y3.4549 Z-0.0524
N1950 X2.685 Y3.4502 Z-0.0526
N1955 X2.6867 Y3.4455 Z-0.0528
N1960 X2.6887 Y3.4411 Z-0.0529
N1965 X2.6911 Y3.4368 Z-0.0531
N1970 X2.6939 Y3.4327 Z-0.0533
N1975 X2.697 Y3.4288 Z-0.0535
N1980 X2.7003 Y3.4252 Z-0.0536
N1985 X2.704 Y3.4219 Z-0.0538
N1990 X2.7079 Y3.4189 Z-0.054
N1995 X2.712 Y3.4163 Z-0.0542
N2000 X2.7164 Y3.4139 Z-0.0543
N2005 X2.7209 Y3.4119 Z-0.0545
N2010 X2.7255 Y3.4103 Z-0.0547
N2015 X2.7303 Y3.4091 Z-0.0548
N2020 X2.7351 Y3.4082 Z-0.055
N2025 X2.74 Y3.4078 Z-0.0552
N2030 X2.745 Y3.4077 Z-0.0554
N2035 X2.7499 Y3.4081 Z-0.0555
N2040 X2.7547 Y3.4088 Z-0.0557
N2045 X2.7595 Y3.4099 Z-0.0559
N2050 X2.7642 Y3.4114 Z-0.056
N2055 X2.7688 Y3.4133 Z-0.0562
N2060 X2.7732 Y3.4155 Z-0.0564
N2065 X2.7774 Y3.4181 Z-0.0566
N2070 X2.7813 Y3.421 Z-0.0567
N2075 X2.7851 Y3.4242 Z-0.0569
N2080 X2.7885 Y3.4278 Z-0.0571
N2085 X2.7917 Y3.4315 Z-0.0572
N2090 X2.7945 Y3.4356 Z-0.0574
N2095 X2.797 Y3.4398 Z-0.0576
N2100 X2.7992 Y3.4442 Z-0.0578
N2105 X2.801 Y3.4488 Z-0.0579
N2110 X2.8024 Y3.4535 Z-0.0581
N2115 X2.8035 Y3.4583 Z-0.0583
N2120 X2.8041 Y3.4632 Z-0.0584
N2125 X2.8044 Y3.4681 Z-0.0586
N2130 X2.8042 Y3.4731 Z-0.0588
N2135 X2.8037 Y3.478 Z-0.059
N2140 X2.8028 Y3.4828 Z-0.0591
N2145 X2.8015 Y3.4875 Z-0.0593
N2150 X2.7998 Y3.4922 Z-0.0595
N2155 X2.7977 Y3.4967 Z-0.0597
N2160 X2.7953 Y3.501 Z-0.0598
N2165 X2.7926 Y3.505 Z-0.06
N2170 X2.7895 Y3.5089 Z-0.0602
N2175 X2.7861 Y3.5125 Z-0.0603
N2180 X2.7825 Y3.5158 Z-0.0605
N2185 X2.7805 Y3.5173 Z-0.0606
N2190 X2.7786 Y3.5188 Z-0.0607
N2195 X2.7744 Y3.5215 Z-0.0609
N2200 X2.7701 Y3.5238 Z-0.061
N2205 X2.7656 Y3.5258 Z-0.0612
N2210 X2.7609 Y3.5274 Z-0.0614
N2215 X2.7561 Y3.5287 Z-0.0615
N2220 X2.7513 Y3.5295 Z-0.0617
N2225 X2.7464 Y3.53 Z-0.0619
N2230 X2.7415 Z-0.0621
N2235 X2.7365 Y3.5297 Z-0.0622
N2240 X2.7317 Y3.5289 Z-0.0624
N2245 X2.7269 Y3.5278 Z-0.0626
N2250 X2.7222 Y3.5263 Z-0.0627
N2255 X2.7176 Y3.5244 Z-0.0629
N2260 X2.7132 Y3.5222 Z-0.0631
N2265 X2.7091 Y3.5196 Z-0.0633
N2270 X2.7051 Y3.5167 Z-0.0634
N2275 X2.7014 Y3.5135 Z-0.0636
N2280 X2.6979 Y3.5099 Z-0.0638
N2285 X2.6947 Y3.5062 Z-0.0639
N2290 X2.6919 Y3.5021 Z-0.0641
N2295 X2.6894 Y3.4979 Z-0.0643
N2300 X2.6872 Y3.4935 Z-0.0645
N2305 X2.6854 Y3.4889 Z-0.0646
N2310 X2.684 Y3.4842 Z-0.0648
N2315 X2.683 Y3.4794 Z-0.065
N2320 X2.6823 Y3.4745 Z-0.0652
N2325 X2.6821 Y3.4696 Z-0.0653
N2330 X2.6822 Y3.4646 Z-0.0655
N2335 X2.6827 Y3.4597 Z-0.0657
N2340 X2.6837 Y3.4549 Z-0.0658
N2345 X2.685 Y3.4502 Z-0.066
N2350 X2.6867 Y3.4455 Z-0.0662
N2355 X2.6887 Y3.4411 Z-0.0664
N2360 X2.6911 Y3.4368 Z-0.0665
N2365 X2.6939 Y3.4327 Z-0.0667
N2370 X2.697 Y3.4288 Z-0.0669
N2375 X2.7003 Y3.4252 Z-0.067
N2380 X2.704 Y3.4219 Z-0.0672
N2385 X2.7079 Y3.4189 Z-0.0674
N2390 X2.712 Y3.4163 Z-0.0676
N2395 X2.7164 Y3.4139 Z-0.0677
N2400 X2.7209 Y3.4119 Z-0.0679
N2405 X2.7255 Y3.4103 Z-0.0681
N2410 X2.7303 Y3.4091 Z-0.0682
N2415 X2.7351 Y3.4082 Z-0.0684
N2420 X2.74 Y3.4078 Z-0.0686
N2425 X2.745 Y3.4077 Z-0.0688
N2430 X2.7499 Y3.4081 Z-0.0689
N2435 X2.7547 Y3.4088 Z-0.0691
N2440 X2.7595 Y3.4099 Z-0.0693
N2445 X2.7642 Y3.4114 Z-0.0694
N2450 X2.7688 Y3.4133 Z-0.0696
N2455 X2.7732 Y3.4155 Z-0.0698
N2460 X2.7774 Y3.4181 Z-0.07
N2465 X2.7813 Y3.421 Z-0.0701
N2470 X2.7851 Y3.4242 Z-0.0703
N2475 X2.7885 Y3.4278 Z-0.0705
N2480 X2.7917 Y3.4315 Z-0.0706
N2485 X2.7945 Y3.4356 Z-0.0708
N2490 X2.797 Y3.4398 Z-0.071
N2495 X2.7992 Y3.4442 Z-0.0712
N2500 X2.801 Y3.4488 Z-0.0713
N2505 X2.8024 Y3.4535 Z-0.0715
N2510 X2.8035 Y3.4583 Z-0.0717
N2515 X2.8041 Y3.4632 Z-0.0719
N2520 X2.8044 Y3.4681 Z-0.072
N2525 X2.8042 Y3.4731 Z-0.0722
N2530 X2.8037 Y3.478 Z-0.0724
N2535 X2.8028 Y3.4828 Z-0.0725
N2540 X2.8015 Y3.4875 Z-0.0727
N2545 X2.7998 Y3.4922 Z-0.0729
N2550 X2.7977 Y3.4967 Z-0.0731
N2555 X2.7953 Y3.501 Z-0.0732
N2560 X2.7926 Y3.505 Z-0.0734
N2565 X2.7895 Y3.5089 Z-0.0736
N2570 X2.7861 Y3.5125 Z-0.0737
N2575 X2.7825 Y3.5158 Z-0.0739
N2580 X2.7805 Y3.5173 Z-0.074
N2585 X2.7786 Y3.5188 Z-0.0741
N2590 X2.7744 Y3.5215 Z-0.0743
N2595 X2.7701 Y3.5238 Z-0.0744
N2600 X2.7656 Y3.5258 Z-0.0746
N2605 X2.7609 Y3.5274 Z-0.0748
N2610 X2.7561 Y3.5287 Z-0.0749
N2615 X2.7513 Y3.5295 Z-0.0751
N2620 X2.7464 Y3.53 Z-0.0753
N2625 X2.7415 Z-0.0755
N2630 X2.7365 Y3.5297 Z-0.0756
N2635 X2.7317 Y3.5289 Z-0.0758
N2640 X2.7269 Y3.5278 Z-0.076
N2645 X2.7222 Y3.5263 Z-0.0762
N2650 X2.7176 Y3.5244 Z-0.0763
N2655 X2.7132 Y3.5222 Z-0.0765
N2660 X2.7091 Y3.5196 Z-0.0767
N2665 X2.7051 Y3.5167 Z-0.0768
N2670 X2.7014 Y3.5135 Z-0.077
N2675 X2.6979 Y3.5099 Z-0.0772
N2680 X2.6947 Y3.5062 Z-0.0774
N2685 X2.6919 Y3.5021 Z-0.0775
N2690 X2.6894 Y3.4979 Z-0.0777
N2695 X2.6872 Y3.4935 Z-0.0779
N2700 X2.6854 Y3.4889 Z-0.078
N2705 X2.684 Y3.4842 Z-0.0782
N2710 X2.683 Y3.4794 Z-0.0784
N2715 X2.6823 Y3.4745 Z-0.0786
N2720 X2.6821 Y3.4693 Z-0.0787
N2725 Y3.4691
N2730 Y3.4666 Z-0.0788
N2735 X2.6822 Y3.4641 Z-0.0789
N2740 X2.6828 Y3.4592 Z-0.0791
N2745 X2.6838 Y3.4544 Z-0.0793
N2750 X2.6851 Y3.4497 Z-0.0794
N2755 X2.6869 Y3.4451 Z-0.0796
N2760 X2.689 Y3.4406 Z-0.0798
N2765 X2.6914 Y3.4363 Z-0.0799
N2770 X2.6942 Y3.4323 Z-0.0801
N2775 X2.6973 Y3.4285 Z-0.0803
N2780 X2.7007 Y3.4249 Z-0.0805
N2785 X2.7044 Y3.4216 Z-0.0806
N2790 X2.7083 Y3.4186 Z-0.0808
N2795 X2.7124 Y3.416 Z-0.081
N2800 X2.7168 Y3.4137 Z-0.0811
N2805 X2.7213 Y3.4117 Z-0.0813
N2810 X2.726 Y3.4102 Z-0.0815
N2815 X2.7308 Y3.409 Z-0.0817
N2820 X2.7356 Y3.4082 Z-0.0818
N2825 X2.7405 Y3.4077 Z-0.082
N2830 X2.7454 Z-0.0822
N2835 X2.7504 Y3.4081 Z-0.0823
N2840 X2.7552 Y3.4089 Z-0.0825
N2845 X2.76 Y3.41 Z-0.0827
N2850 X2.7647 Y3.4116 Z-0.0829
N2855 X2.7692 Y3.4135 Z-0.083
N2860 X2.7736 Y3.4158 Z-0.0832
N2865 X2.7778 Y3.4184 Z-0.0834
N2870 X2.7817 Y3.4213 Z-0.0836
N2875 X2.7854 Y3.4246 Z-0.0837
N2880 X2.7889 Y3.4281 Z-0.0839
N2885 X2.792 Y3.4319 Z-0.0841
N2890 X2.7948 Y3.436 Z-0.0842
N2895 X2.7973 Y3.4402 Z-0.0844
N2900 X2.7994 Y3.4447 Z-0.0846
N2905 X2.8012 Y3.4493 Z-0.0848
N2910 X2.8026 Y3.454 Z-0.0849
N2915 X2.8036 Y3.4588 Z-0.0851
N2920 X2.8042 Y3.4637 Z-0.0853
N2925 X2.8044 Y3.4686 Z-0.0854
N2930 X2.8043 Y3.4711 Z-0.0855
N2935 X2.8042 Y3.4736 Z-0.0856
N2940 X2.8036 Y3.4785 Z-0.0858
N2945 X2.8026 Y3.4833 Z-0.086
N2950 X2.8013 Y3.488 Z-0.0861
N2955 X2.7996 Y3.4926 Z-0.0863
N2960 X2.7985 Y3.4949 Z-0.0864
N2965 X2.7975 Y3.4971 Z-0.0865
N2970 X2.795 Y3.5014 Z-0.0866
N2975 X2.7937 Y3.5034 Z-0.0867
N2980 X2.7922 Y3.5054 Z-0.0868
N2985 X2.7907 Y3.5074 Z-0.0869
N2990 X2.7891 Y3.5093 Z-0.087
N2995 X2.7875 Y3.5111 Z-0.0871
N3000 X2.7857 Y3.5128 Z-0.0872
N3005 X2.782 Y3.5161 Z-0.0873
N3010 X2.7801 Y3.5176 Z-0.0874
N3015 X2.7781 Y3.5191 Z-0.0875
N3020 X2.7761 Y3.5204 Z-0.0876
N3025 X2.774 Y3.5217 Z-0.0877
N3030 X2.7718 Y3.5229 Z-0.0878
N3035 X2.7696 Y3.524
N3040 X2.7651 Y3.526 Z-0.088
N3045 X2.7604 Y3.5276 Z-0.0882
N3050 X2.758 Y3.5282 Z-0.0883
N3055 X2.7556 Y3.5287 Z-0.0884
N3060 X2.7532 Y3.5292
N3065 X2.7508 Y3.5296 Z-0.0885
N3070 X2.7459 Y3.53 Z-0.0887
N3075 X2.741 Z-0.0889
N3080 X2.736 Y3.5296 Z-0.089
N3085 X2.7336 Y3.5293 Z-0.0891
N3090 X2.7312 Y3.5288 Z-0.0892
N3095 X2.7288 Y3.5283 Z-0.0893
N3100 X2.7264 Y3.5277 Z-0.0894
N3105 X2.7217 Y3.5261 Z-0.0896
N3110 X2.7172 Y3.5242 Z-0.0897
N3115 X2.7128 Y3.5219 Z-0.0899
N3120 X2.7107 Y3.5206 Z-0.09
N3125 X2.7086 Y3.5193 Z-0.0901
N3130 X2.7066 Y3.5179 Z-0.0902
N3135 X2.7047 Y3.5164 Z-0.0903
N3140 X2.701 Y3.5131 Z-0.0904
N3145 X2.6976 Y3.5096 Z-0.0906
N3150 X2.6944 Y3.5058 Z-0.0908
N3155 X2.693 Y3.5038 Z-0.0909
N3160 X2.6916 Y3.5017
N3165 X2.6892 Y3.4975 Z-0.0911
N3170 X2.687 Y3.493 Z-0.0913
N3175 X2.6853 Y3.4884 Z-0.0915
N3180 X2.6845 Y3.4861
N3185 X2.6839 Y3.4837 Z-0.0916
N3190 X2.6833 Y3.4813 Z-0.0917
N3195 X2.6829 Y3.4789 Z-0.0918
N3200 X2.6823 Y3.474 Z-0.092
N3205 X2.6821 Y3.4691 Z-0.0921
N3210 X2.6822 Y3.4641 Z-0.0923
N3215 X2.6825 Y3.4617 Z-0.0924
N3220 X2.6828 Y3.4592 Z-0.0925
N3225 X2.6833 Y3.4568 Z-0.0926
N3230 X2.6838 Y3.4544 Z-0.0927
N3235 X2.6844 Y3.452
N3240 X2.6851 Y3.4497 Z-0.0928
N3245 X2.6869 Y3.4451 Z-0.093
N3250 X2.6879 Y3.4428 Z-0.0931
N3255 X2.689 Y3.4406 Z-0.0932
N3260 X2.6902 Y3.4385 Z-0.0933
N3265 X2.6914 Y3.4364
N3270 X2.6928 Y3.4343 Z-0.0934
N3275 X2.6942 Y3.4323 Z-0.0935
N3280 X2.6957 Y3.4304 Z-0.0936
N3285 X2.6973 Y3.4285 Z-0.0937
N3290 X2.7007 Y3.4249 Z-0.0939
N3295 X2.7025 Y3.4232
N3300 X2.7044 Y3.4216 Z-0.094
N3305 X2.7063 Y3.4201 Z-0.0941
N3310 X2.7083 Y3.4187 Z-0.0942
N3315 X2.7104 Y3.4173 Z-0.0943
N3320 X2.7125 Y3.416 Z-0.0944
N3325 X2.7146 Y3.4148 Z-0.0945
N3330 X2.7168 Y3.4137
N3335 X2.7213 Y3.4118 Z-0.0947
N3340 X2.7237 Y3.411 Z-0.0948
N3345 X2.726 Y3.4102 Z-0.0949
N3350 X2.7284 Y3.4096 Z-0.095
N3355 X2.7308 Y3.409 Z-0.0951
N3360 X2.7332 Y3.4086
N3365 X2.7356 Y3.4082 Z-0.0952
N3370 X2.7381 Y3.408 Z-0.0953
N3375 X2.7405 Y3.4078 Z-0.0954
N3380 X2.7454 Z-0.0956
N3385 X2.7479 Y3.4079 Z-0.0957
N3390 X2.7504 Y3.4082
N3395 X2.7528 Y3.4085 Z-0.0958
N3400 X2.7552 Y3.409 Z-0.0959
N3405 X2.7576 Y3.4095 Z-0.096
N3410 X2.76 Y3.4101 Z-0.0961
N3415 X2.7623 Y3.4108 Z-0.0962
N3420 X2.7647 Y3.4116 Z-0.0963
N3425 X2.7692 Y3.4136 Z-0.0964
N3430 X2.7714 Y3.4147 Z-0.0965
N3435 X2.7736 Y3.4158 Z-0.0966
N3440 X2.7757 Y3.4171 Z-0.0967
N3445 X2.7777 Y3.4185 Z-0.0968
N3450 X2.7797 Y3.4199 Z-0.0969
N3455 X2.7817 Y3.4214
N3460 X2.7854 Y3.4246 Z-0.0971
N3465 X2.7871 Y3.4264 Z-0.0972
N3470 X2.7888 Y3.4282 Z-0.0973
N3475 X2.7904 Y3.4301 Z-0.0974
N3480 X2.7919 Y3.432 Z-0.0975
N3485 X2.7933 Y3.434
N3490 X2.7947 Y3.436 Z-0.0976
N3495 X2.796 Y3.4381 Z-0.0977
N3500 X2.7972 Y3.4403 Z-0.0978
N3505 X2.7993 Y3.4447 Z-0.098
N3510 X2.8002 Y3.447 Z-0.0981
N3515 X2.8011 Y3.4493
N3520 X2.8018 Y3.4517 Z-0.0982
N3525 X2.8024 Y3.454 Z-0.0983
N3530 X2.803 Y3.4564 Z-0.0984
N3535 X2.8034 Y3.4588 Z-0.0985
N3540 X2.8038 Y3.4613 Z-0.0986
N3545 X2.804 Y3.4637 Z-0.0987
N3550 X2.8042 Y3.4662
N3555 Y3.4686 Z-0.0988
N3560 X2.804 Y3.4735 Z-0.099
N3565 X2.8034 Y3.4784 Z-0.0992
N3570 X2.8025 Y3.4833 Z-0.0993
N3575 X2.8011 Y3.488 Z-0.0995
N3580 X2.7994 Y3.4926 Z-0.0997
N3585 X2.7984 Y3.4948 Z-0.0998
N3590 X2.7973 Y3.497 Z-0.0999
N3595 X2.7949 Y3.5013 Z-0.1
N3600 X2.7935 Y3.5033 Z-0.1001
N3605 X2.7921 Y3.5053 Z-0.1002
N3610 X2.7906 Y3.5073 Z-0.1003
N3615 X2.789 Y3.5092 Z-0.1004
N3620 X2.7856 Y3.5127 Z-0.1005
N3625 X2.7838 Y3.5144 Z-0.1006
N3630 X2.7819 Y3.516 Z-0.1007
N3635 X2.78 Y3.5175 Z-0.1008
N3640 X2.778 Y3.5189 Z-0.1009
N3645 X2.776 Y3.5203 Z-0.101
N3650 X2.7739 Y3.5216 Z-0.1011
N3655 X2.7717 Y3.5228
N3660 X2.7695 Y3.5239 Z-0.1012
N3665 X2.765 Y3.5258 Z-0.1014
N3670 X2.7627 Y3.5266 Z-0.1015
N3675 X2.7604 Y3.5274 Z-0.1016
N3680 X2.758 Y3.528 Z-0.1017
N3685 X2.7556 Y3.5286
N3690 X2.7532 Y3.529 Z-0.1018
N3695 X2.7508 Y3.5294 Z-0.1019
N3700 X2.7483 Y3.5296 Z-0.102
N3705 X2.7459 Y3.5298 Z-0.1021
N3710 X2.741 Z-0.1023
N3715 X2.7385 Y3.5296
N3720 X2.7361 Y3.5294 Z-0.1024
N3725 X2.7336 Y3.5291 Z-0.1025
N3730 X2.7312 Y3.5286 Z-0.1026
N3735 X2.7288 Y3.5281 Z-0.1027
N3740 X2.7264 Y3.5275 Z-0.1028
N3745 X2.7241 Y3.5268 Z-0.1029
N3750 X2.7218 Y3.5259
N3755 X2.7173 Y3.524 Z-0.1031
N3760 X2.7151 Y3.5229 Z-0.1032
N3765 X2.7129 Y3.5217 Z-0.1033
N3770 X2.7108 Y3.5205 Z-0.1034
N3775 X2.7087 Y3.5191 Z-0.1035
N3780 X2.7068 Y3.5177
N3785 X2.7048 Y3.5162 Z-0.1036
N3790 X2.7029 Y3.5146 Z-0.1037
N3795 X2.7011 Y3.513 Z-0.1038
N3800 X2.6977 Y3.5094 Z-0.104
N3805 X2.6961 Y3.5076 Z-0.1041
N3810 X2.6946 Y3.5056
N3815 X2.6932 Y3.5036 Z-0.1042
N3820 X2.6918 Y3.5016 Z-0.1043
N3825 X2.6905 Y3.4995 Z-0.1044
N3830 X2.6893 Y3.4974 Z-0.1045
N3835 X2.6872 Y3.4929 Z-0.1046
N3840 X2.6863 Y3.4907 Z-0.1047
N3845 X2.6855 Y3.4883 Z-0.1048
N3850 X2.6847 Y3.486 Z-0.1049
N3855 X2.6841 Y3.4836 Z-0.105
N3860 X2.6836 Y3.4812 Z-0.1051
N3865 X2.6831 Y3.4788 Z-0.1052
N3870 X2.6828 Y3.4764
N3875 X2.6825 Y3.474 Z-0.1053
N3880 X2.6823 Y3.4691 Z-0.1055
N3885 Y3.4666 Z-0.1056
N3890 X2.6825 Y3.4642 Z-0.1057
N3895 X2.6827 Y3.4617 Z-0.1058
N3900 X2.6831 Y3.4593
N3905 X2.6835 Y3.4569 Z-0.1059
N3910 X2.684 Y3.4545 Z-0.106
N3915 X2.6846 Y3.4521 Z-0.1061
N3920 X2.6854 Y3.4498 Z-0.1062
N3925 X2.6871 Y3.4452 Z-0.1064
N3930 X2.6881 Y3.4429
N3935 X2.6892 Y3.4407 Z-0.1065
N3940 X2.6904 Y3.4386 Z-0.1066
N3945 X2.6916 Y3.4365 Z-0.1067
N3950 X2.693 Y3.4344 Z-0.1068
N3955 X2.6944 Y3.4324 Z-0.1069
N3960 X2.6959 Y3.4305 Z-0.107
N3965 X2.6975 Y3.4286
N3970 X2.7009 Y3.4251 Z-0.1072
N3975 X2.7027 Y3.4234 Z-0.1073
N3980 X2.7045 Y3.4218 Z-0.1074
N3985 X2.7065 Y3.4203 Z-0.1075
N3990 X2.7084 Y3.4189 Z-0.1076
N3995 X2.7105 Y3.4175
N4000 X2.7126 Y3.4162 Z-0.1077
N4005 X2.7147 Y3.415 Z-0.1078
N4010 X2.7169 Y3.4139 Z-0.1079
N4015 X2.7214 Y3.412 Z-0.1081
N4020 X2.7237 Y3.4112 Z-0.1082
N4025 X2.7261 Y3.4104
N4030 X2.7284 Y3.4098 Z-0.1083
N4035 X2.7308 Y3.4093 Z-0.1084
N4040 X2.7332 Y3.4088 Z-0.1085
N4045 X2.7357 Y3.4085 Z-0.1086
N4050 X2.7381 Y3.4082 Z-0.1087
N4055 X2.7405 Y3.408 Z-0.1088
N4060 X2.7454 Z-0.1089
N4065 X2.7479 Y3.4082 Z-0.109
N4070 X2.7503 Y3.4084 Z-0.1091
N4075 X2.7528 Y3.4088 Z-0.1092
N4080 X2.7552 Y3.4092 Z-0.1093
N4085 X2.7576 Y3.4097 Z-0.1094
N4090 X2.7599 Y3.4103
N4095 X2.7623 Y3.4111 Z-0.1095
N4100 X2.7646 Y3.4119 Z-0.1096
N4105 X2.7691 Y3.4138 Z-0.1098
N4110 X2.7713 Y3.4149 Z-0.1099
N4115 X2.7734 Y3.4161 Z-0.11
N4120 X2.7755 Y3.4173
N4125 X2.7776 Y3.4187 Z-0.1101
N4130 X2.7796 Y3.4201 Z-0.1102
N4135 X2.7815 Y3.4216 Z-0.1103
N4140 X2.7852 Y3.4248 Z-0.1105
N4145 X2.7869 Y3.4266 Z-0.1106
N4150 X2.7886 Y3.4284
N4155 X2.7902 Y3.4302 Z-0.1107
N4160 X2.7917 Y3.4321 Z-0.1108
N4165 X2.7931 Y3.4341 Z-0.1109
N4170 X2.7945 Y3.4362 Z-0.111
N4175 X2.7958 Y3.4383 Z-0.1111
N4180 X2.797 Y3.4404
N4185 X2.7991 Y3.4448 Z-0.1113
N4190 X2.8 Y3.4471 Z-0.1114
N4195 X2.8008 Y3.4494 Z-0.1115
N4200 X2.8016 Y3.4517 Z-0.1116
N4205 X2.8022 Y3.4541 Z-0.1117
N4210 X2.8027 Y3.4565
N4215 X2.8032 Y3.4589 Z-0.1118
N4220 X2.8036 Y3.4613 Z-0.1119
N4225 X2.8038 Y3.4637 Z-0.112
N4230 X2.804 Y3.4662 Z-0.1121
N4235 Y3.4686 Z-0.1122
N4240 X2.8038 Y3.4735 Z-0.1123
N4245 X2.8032 Y3.4784 Z-0.1125
N4250 X2.8022 Y3.4832 Z-0.1127
N4255 X2.8009 Y3.4879 Z-0.1129
N4260 X2.7992 Y3.4925 Z-0.113
N4265 X2.7982 Y3.4947 Z-0.1131
N4270 X2.7971 Y3.4969 Z-0.1132
N4275 X2.7947 Y3.5012 Z-0.1134
N4280 X2.7933 Y3.5032 Z-0.1135
N4285 X2.7919 Y3.5052
N4290 X2.7904 Y3.5071 Z-0.1136
N4295 X2.7888 Y3.509 Z-0.1137
N4300 X2.7855 Y3.5126 Z-0.1139
N4305 X2.7837 Y3.5142 Z-0.114
N4310 X2.7818 Y3.5158 Z-0.1141
N4315 X2.7799 Y3.5173
N4320 X2.7779 Y3.5188 Z-0.1142
N4325 X2.7759 Y3.5201 Z-0.1143
N4330 X2.7738 Y3.5214 Z-0.1144
N4335 X2.7716 Y3.5226 Z-0.1145
N4340 X2.7694 Y3.5237 Z-0.1146
N4345 X2.7649 Y3.5256 Z-0.1147
N4350 X2.7626 Y3.5264 Z-0.1148
N4355 X2.7603 Y3.5272 Z-0.1149
N4360 X2.7579 Y3.5278 Z-0.115
N4365 X2.7556 Y3.5283 Z-0.1151
N4370 X2.7532 Y3.5288 Z-0.1152
N4375 X2.7507 Y3.5291
N4380 X2.7483 Y3.5294 Z-0.1153
N4385 X2.7459 Y3.5296 Z-0.1154
N4390 X2.741 Z-0.1156
N4395 X2.7385 Y3.5294 Z-0.1157
N4400 X2.7361 Y3.5292 Z-0.1158
N4405 X2.7337 Y3.5288
N4410 X2.7313 Y3.5284 Z-0.1159
N4415 X2.7289 Y3.5279 Z-0.116
N4420 X2.7265 Y3.5272 Z-0.1161
N4425 X2.7242 Y3.5265 Z-0.1162
N4430 X2.7219 Y3.5257 Z-0.1163
N4435 X2.7174 Y3.5238 Z-0.1164
N4440 X2.7152 Y3.5227 Z-0.1165
N4445 X2.713 Y3.5215 Z-0.1166
N4450 X2.7109 Y3.5203 Z-0.1167
N4455 X2.7089 Y3.5189 Z-0.1168
N4460 X2.7069 Y3.5175 Z-0.1169
N4465 X2.705 Y3.516 Z-0.117
N4470 X2.7031 Y3.5144
N4475 X2.7013 Y3.5128 Z-0.1171
N4480 X2.6979 Y3.5093 Z-0.1173
N4485 X2.6963 Y3.5074 Z-0.1174
N4490 X2.6948 Y3.5055 Z-0.1175
N4495 X2.6934 Y3.5035 Z-0.1176
N4500 X2.692 Y3.5015
N4505 X2.6907 Y3.4994 Z-0.1177
N4510 X2.6895 Y3.4972 Z-0.1178
N4515 X2.6877 Y3.4934 Z-0.118
N4520 X2.6869 Y3.4914
N4525 X2.6861 Y3.4894 Z-0.1181
N4530 X2.686 Y3.4893
N4535 X2.6856 Y3.4881 Z-0.1182
N4540 X2.6852 Y3.4869
N4545 X2.6845 Y3.4845 Z-0.1183
N4550 X2.684 Y3.482 Z-0.1184
N4555 X2.6835 Y3.4795 Z-0.1185
N4560 X2.6828 Y3.4746 Z-0.1186
N4565 X2.6826 Y3.4721 Z-0.1187
N4570 X2.6825 Y3.4696 Z-0.1188
N4575 Y3.4671 Z-0.1189
N4580 X2.6827 Y3.4646 Z-0.119
N4585 X2.6829 Y3.4621 Z-0.1191
N4590 X2.6832 Y3.4596 Z-0.1192
N4595 X2.6837 Y3.4571
N4600 X2.6842 Y3.4547 Z-0.1193
N4605 X2.6848 Y3.4522 Z-0.1194
N4610 X2.6856 Y3.4499 Z-0.1195
N4615 X2.6873 Y3.4451 Z-0.1197
N4620 X2.6884 Y3.4428 Z-0.1198
N4625 X2.6895 Y3.4406 Z-0.1199
N4630 X2.6907 Y3.4384
N4635 X2.692 Y3.4363 Z-0.12
N4640 X2.6934 Y3.4342 Z-0.1201
N4645 X2.6949 Y3.4322 Z-0.1202
N4650 X2.6965 Y3.4302 Z-0.1203
N4655 X2.6981 Y3.4283 Z-0.1204
N4660 X2.6998 Y3.4265 Z-0.1205
N4665 X2.7016 Y3.4247 Z-0.1206
N4670 X2.7035 Y3.423
N4675 X2.7054 Y3.4214 Z-0.1207
N4680 X2.7094 Y3.4185 Z-0.1209
N4685 X2.7115 Y3.4171 Z-0.121
N4690 X2.7137 Y3.4159 Z-0.1211
N4695 X2.7159 Y3.4147 Z-0.1212
N4700 X2.7182 Y3.4136 Z-0.1213
N4705 X2.7205 Y3.4126
N4710 X2.7228 Y3.4117 Z-0.1214
N4715 X2.7252 Y3.4109 Z-0.1215
N4720 X2.7276 Y3.4102 Z-0.1216
N4725 X2.7301 Y3.4096 Z-0.1217
N4730 X2.7325 Y3.4092 Z-0.1218
N4735 X2.7375 Y3.4085 Z-0.122
N4740 X2.74 Y3.4083
N4745 X2.7425 Y3.4082 Z-0.1221
N4750 X2.745 Z-0.1222
N4755 X2.7475 Y3.4084 Z-0.1223
N4760 X2.75 Y3.4086 Z-0.1224
N4765 X2.7525 Y3.4089 Z-0.1225
N4770 X2.7549 Y3.4094 Z-0.1226
N4775 X2.7574 Y3.4099 Z-0.1227
N4780 X2.7598 Y3.4105
N4785 X2.7622 Y3.4113 Z-0.1228
N4790 X2.7669 Y3.413 Z-0.123
N4795 X2.7692 Y3.4141 Z-0.1231
N4800 X2.7714 Y3.4152 Z-0.1232
N4805 X2.7736 Y3.4164 Z-0.1233
N4810 X2.7757 Y3.4177 Z-0.1234
N4815 X2.7778 Y3.4191
N4820 X2.7799 Y3.4206 Z-0.1235
N4825 X2.7818 Y3.4221 Z-0.1236
N4830 X2.7837 Y3.4238 Z-0.1237
N4835 X2.7855 Y3.4255 Z-0.1238
N4840 X2.7873 Y3.4273 Z-0.1239
N4845 X2.789 Y3.4291 Z-0.124
N4850 X2.7906 Y3.4311 Z-0.1241
N4855 X2.7935 Y3.4351 Z-0.1242
N4860 X2.7949 Y3.4372 Z-0.1243
N4865 X2.7961 Y3.4394 Z-0.1244
N4870 X2.7973 Y3.4416 Z-0.1245
N4875 X2.7984 Y3.4438 Z-0.1246
N4880 X2.7994 Y3.4461 Z-0.1247
N4885 X2.8003 Y3.4485 Z-0.1248
N4890 X2.8011 Y3.4509
N4895 X2.8018 Y3.4533 Z-0.1249
N4900 X2.8024 Y3.4557 Z-0.125
N4905 X2.8029 Y3.4582 Z-0.1251
N4910 X2.8035 Y3.4631 Z-0.1253
N4915 X2.8037 Y3.4656 Z-0.1254
N4920 X2.8038 Y3.4681 Z-0.1255
N4925 X2.8037 Y3.4706
N4930 X2.8036 Y3.4731 Z-0.1256
N4935 X2.803 Y3.4781 Z-0.1258
N4940 X2.8021 Y3.483 Z-0.126
N4945 X2.8007 Y3.4878 Z-0.1262
N4950 X2.799 Y3.4925 Z-0.1263
N4955 X2.7979 Y3.4948 Z-0.1264
N4960 X2.7968 Y3.497 Z-0.1265
N4965 X2.7943 Y3.5014 Z-0.1267
N4970 X2.7929 Y3.5035 Z-0.1268
N4975 X2.7914 Y3.5055 Z-0.1269
N4980 X2.7899 Y3.5074
N4985 X2.7882 Y3.5093 Z-0.127
N4990 X2.7865 Y3.5111 Z-0.1271
N4995 X2.7848 Y3.5129 Z-0.1272
N5000 X2.7829 Y3.5146 Z-0.1273
N5005 X2.781 Y3.5162 Z-0.1274
N5010 X2.7769 Y3.5191 Z-0.1275
N5015 X2.7748 Y3.5205 Z-0.1276
N5020 X2.7727 Y3.5217 Z-0.1277
N5025 X2.7704 Y3.5229 Z-0.1278
N5030 X2.7682 Y3.524 Z-0.1279
N5035 X2.7659 Y3.525 Z-0.128
N5040 X2.7635 Y3.5259 Z-0.1281
N5045 X2.7612 Y3.5267 Z-0.1282
N5050 X2.7588 Y3.5273
N5055 X2.7563 Y3.5279 Z-0.1283
N5060 X2.7539 Y3.5284 Z-0.1284
N5065 X2.7489 Y3.5291 Z-0.1286
N5070 X2.7464 Y3.5293 Z-0.1287
N5075 X2.7439 Y3.5294 Z-0.1288
N5080 X2.7414 Y3.5293 Z-0.1289
N5085 X2.7389 Y3.5292
N5090 X2.7364 Y3.529 Z-0.129
N5095 X2.734 Y3.5286 Z-0.1291
N5100 X2.7315 Y3.5282 Z-0.1292
N5105 X2.7291 Y3.5277 Z-0.1293
N5110 X2.7266 Y3.527 Z-0.1294
N5115 X2.7242 Y3.5263 Z-0.1295
N5120 X2.7196 Y3.5245 Z-0.1296
N5125 X2.7173 Y3.5235 Z-0.1297
N5130 X2.715 Y3.5224 Z-0.1298
N5135 X2.7129 Y3.5212 Z-0.1299
N5140 X2.7107 Y3.5199 Z-0.13
N5145 X2.7086 Y3.5185 Z-0.1301
N5150 X2.7066 Y3.517 Z-0.1302
N5155 X2.7047 Y3.5155 Z-0.1303
N5160 X2.7028 Y3.5138
N5165 X2.7009 Y3.5121 Z-0.1304
N5170 X2.6992 Y3.5103 Z-0.1305
N5175 X2.6975 Y3.5085 Z-0.1306
N5180 X2.6959 Y3.5066 Z-0.1307
N5185 X2.693 Y3.5025 Z-0.1309
N5190 X2.6916 Y3.5004 Z-0.131
N5195 X2.6904 Y3.4983
N5200 X2.6892 Y3.4961 Z-0.1311
N5205 X2.6881 Y3.4938 Z-0.1312
N5210 X2.6871 Y3.4915 Z-0.1313
N5215 X2.6863 Y3.4892 Z-0.1314
N5220 X2.6855 Y3.4868 Z-0.1315
N5225 X2.6848 Y3.4844 Z-0.1316
N5230 X2.6842 Y3.482 Z-0.1317
N5235 X2.6837 Y3.4795
N5240 X2.683 Y3.4746 Z-0.1319
N5245 X2.6828 Y3.4721 Z-0.132
N5250 Y3.4696 Z-0.1321
N5255 Y3.4671 Z-0.1322
N5260 X2.6829 Y3.4646 Z-0.1323
N5265 X2.6831 Y3.4621
N5270 X2.6835 Y3.4596 Z-0.1324
N5275 X2.6839 Y3.4572 Z-0.1325
N5280 X2.6844 Y3.4547 Z-0.1326
N5285 X2.6851 Y3.4523 Z-0.1327
N5290 X2.6858 Y3.4499 Z-0.1328
N5295 X2.6876 Y3.4452 Z-0.133
N5300 X2.6886 Y3.443
N5305 X2.6897 Y3.4407 Z-0.1331
N5310 X2.6909 Y3.4385 Z-0.1332
N5315 X2.6922 Y3.4364 Z-0.1333
N5320 X2.6936 Y3.4343 Z-0.1334
N5325 X2.6951 Y3.4323 Z-0.1335
N5330 X2.6966 Y3.4303 Z-0.1336
N5335 X2.6983 Y3.4285 Z-0.1337
N5340 X2.7 Y3.4266
N5345 X2.7018 Y3.4249 Z-0.1338
N5350 X2.7036 Y3.4232 Z-0.1339
N5355 X2.7055 Y3.4216 Z-0.134
N5360 X2.7096 Y3.4187 Z-0.1342
N5365 X2.7117 Y3.4173 Z-0.1343
N5370 X2.7138 Y3.4161 Z-0.1344
N5375 X2.716 Y3.4149
N5380 X2.7183 Y3.4138 Z-0.1345
N5385 X2.7206 Y3.4128 Z-0.1346
N5390 X2.7229 Y3.412 Z-0.1347
N5395 X2.7253 Y3.4112 Z-0.1348
N5400 X2.7277 Y3.4105 Z-0.1349
N5405 X2.7301 Y3.4099 Z-0.135
N5410 X2.7326 Y3.4094
N5415 X2.7375 Y3.4087 Z-0.1352
N5420 X2.74 Y3.4085 Z-0.1353
N5425 X2.7425 Z-0.1354
N5430 X2.745 Z-0.1355
N5435 X2.7475 Y3.4086 Z-0.1356
N5440 X2.7499 Y3.4088 Z-0.1357
N5445 X2.7524 Y3.4092
N5450 X2.7549 Y3.4096 Z-0.1358
N5455 X2.7573 Y3.4101 Z-0.1359
N5460 X2.7597 Y3.4108 Z-0.136
N5465 X2.7621 Y3.4115 Z-0.1361
N5470 X2.7668 Y3.4133 Z-0.1363
N5475 X2.7691 Y3.4143 Z-0.1364
N5480 X2.7713 Y3.4154
N5485 X2.7735 Y3.4166 Z-0.1365
N5490 X2.7756 Y3.4179 Z-0.1366
N5495 X2.7777 Y3.4193 Z-0.1367
N5500 X2.7797 Y3.4208 Z-0.1368
N5505 X2.7817 Y3.4223 Z-0.1369
N5510 X2.7836 Y3.4239 Z-0.137
N5515 X2.7854 Y3.4256
N5520 X2.7871 Y3.4274 Z-0.1371
N5525 X2.7888 Y3.4293 Z-0.1372
N5530 X2.7904 Y3.4312 Z-0.1373
N5535 X2.7933 Y3.4352 Z-0.1375
N5540 X2.7947 Y3.4373 Z-0.1376
N5545 X2.7959 Y3.4395 Z-0.1377
N5550 X2.7971 Y3.4417
N5555 X2.7982 Y3.4439 Z-0.1378
N5560 X2.7992 Y3.4462 Z-0.1379
N5565 X2.8 Y3.4486 Z-0.138
N5570 X2.8008 Y3.4509 Z-0.1381
N5575 X2.8015 Y3.4533 Z-0.1382
N5580 X2.8021 Y3.4558 Z-0.1383
N5585 X2.8026 Y3.4582 Z-0.1384
N5590 X2.8033 Y3.4631 Z-0.1385
N5595 X2.8035 Y3.4656 Z-0.1386
N5600 Y3.4681 Z-0.1387
N5605 Y3.4706 Z-0.1388
N5610 X2.8034 Y3.4731 Z-0.1389
N5615 X2.8028 Y3.4781 Z-0.1391
N5620 X2.8018 Y3.4829 Z-0.1392
N5625 X2.8005 Y3.4877 Z-0.1394
N5630 X2.7987 Y3.4924 Z-0.1396
N5635 X2.7977 Y3.4947 Z-0.1397
N5640 X2.7966 Y3.4969
N5645 X2.7941 Y3.5012 Z-0.1399
N5650 X2.7927 Y3.5033 Z-0.14
N5655 X2.7912 Y3.5053 Z-0.1401
N5660 X2.7897 Y3.5073 Z-0.1402
N5665 X2.7881 Y3.5092 Z-0.1403
N5670 X2.7864 Y3.511 Z-0.1404
N5675 X2.7846 Y3.5127
N5680 X2.7827 Y3.5144 Z-0.1405
N5685 X2.7808 Y3.516 Z-0.1406
N5690 X2.7768 Y3.5189 Z-0.1408
N5695 X2.7747 Y3.5203 Z-0.1409
N5700 X2.7725 Y3.5215 Z-0.141
N5705 X2.7703 Y3.5227
N5710 X2.7681 Y3.5238 Z-0.1411
N5715 X2.7658 Y3.5247 Z-0.1412
N5720 X2.7634 Y3.5256 Z-0.1413
N5725 X2.7611 Y3.5264 Z-0.1414
N5730 X2.7587 Y3.5271 Z-0.1415
N5735 X2.7563 Y3.5277 Z-0.1416
N5740 X2.7538 Y3.5282 Z-0.1417
N5745 X2.7489 Y3.5288 Z-0.1418
N5750 X2.7464 Y3.529 Z-0.1419
N5755 X2.7439 Y3.5291 Z-0.142
N5760 X2.7414 Z-0.1421
N5765 X2.7389 Y3.5289 Z-0.1422
N5770 X2.7365 Y3.5287 Z-0.1423
N5775 X2.734 Y3.5284 Z-0.1424
N5780 X2.7316 Y3.528
N5785 X2.7291 Y3.5274 Z-0.1425
N5790 X2.7267 Y3.5268 Z-0.1426
N5795 X2.7243 Y3.5261 Z-0.1427
N5800 X2.7197 Y3.5243 Z-0.1429
N5805 X2.7174 Y3.5233 Z-0.143
N5810 X2.7152 Y3.5222
N5815 X2.713 Y3.5209 Z-0.1431
N5820 X2.7109 Y3.5196 Z-0.1432
N5825 X2.7088 Y3.5183 Z-0.1433
N5830 X2.7068 Y3.5168 Z-0.1434
N5835 X2.7048 Y3.5153 Z-0.1435
N5840 X2.703 Y3.5136 Z-0.1436
N5845 X2.7011 Y3.5119 Z-0.1437
N5850 X2.6994 Y3.5102
N5855 X2.6977 Y3.5083 Z-0.1438
N5860 X2.6961 Y3.5064 Z-0.1439
N5865 X2.6932 Y3.5024 Z-0.1441
N5870 X2.6919 Y3.5003 Z-0.1442
N5875 X2.6906 Y3.4981 Z-0.1443
N5880 X2.6895 Y3.4959
N5885 X2.6884 Y3.4937 Z-0.1444
N5890 X2.6874 Y3.4914 Z-0.1445
N5895 X2.6865 Y3.4891 Z-0.1446
N5900 X2.6857 Y3.4867 Z-0.1447
N5905 X2.6851 Y3.4843 Z-0.1448
N5910 X2.6845 Y3.4819 Z-0.1449
N5915 X2.684 Y3.4795 Z-0.145
N5920 X2.6833 Y3.4745 Z-0.1451
N5925 X2.6831 Y3.4721 Z-0.1452
N5930 Y3.4696 Z-0.1453
N5935 Y3.4671 Z-0.1454
N5940 X2.6832 Y3.4646 Z-0.1455
N5945 X2.6834 Y3.4621 Z-0.1456
N5950 X2.6838 Y3.4597
N5955 X2.6842 Y3.4572 Z-0.1457
N5960 X2.6847 Y3.4548 Z-0.1458
N5965 X2.6854 Y3.4524 Z-0.1459
N5970 X2.6861 Y3.45 Z-0.146
N5975 X2.6878 Y3.4454 Z-0.1462
N5980 X2.6889 Y3.4431 Z-0.1463
N5985 X2.69 Y3.4409
N5990 X2.6912 Y3.4387 Z-0.1464
N5995 X2.6925 Y3.4366 Z-0.1465
N6000 X2.6939 Y3.4345 Z-0.1466
N6005 X2.6953 Y3.4325 Z-0.1467
N6010 X2.6969 Y3.4305 Z-0.1468
N6015 X2.6985 Y3.4287 Z-0.1469
N6020 X2.7002 Y3.4269
N6025 X2.702 Y3.4251 Z-0.147
N6030 X2.7038 Y3.4234 Z-0.1471
N6035 X2.7057 Y3.4219 Z-0.1472
N6040 X2.7097 Y3.4189 Z-0.1474
N6045 X2.7118 Y3.4176 Z-0.1475
N6050 X2.714 Y3.4163 Z-0.1476
N6055 X2.7162 Y3.4152
N6060 X2.7184 Y3.4141 Z-0.1477
N6065 X2.7207 Y3.4131 Z-0.1478
N6070 X2.723 Y3.4123 Z-0.1479
N6075 X2.7254 Y3.4115 Z-0.148
N6080 X2.7278 Y3.4108 Z-0.1481
N6085 X2.7302 Y3.4102 Z-0.1482
N6090 X2.7326 Y3.4097
N6095 X2.7375 Y3.409 Z-0.1484
N6100 X2.74 Y3.4089 Z-0.1485
N6105 X2.7425 Y3.4088 Z-0.1486
N6110 X2.745 Z-0.1487
N6115 X2.7474 Y3.4089 Z-0.1488
N6120 X2.7499 Y3.4092 Z-0.1489
N6125 X2.7524 Y3.4095
N6130 X2.7548 Y3.4099 Z-0.149
N6135 X2.7572 Y3.4105 Z-0.1491
N6140 X2.7596 Y3.4111 Z-0.1492
N6145 X2.762 Y3.4118 Z-0.1493
N6150 X2.7667 Y3.4136 Z-0.1495
N6155 X2.7689 Y3.4146
N6160 X2.7711 Y3.4157 Z-0.1496
N6165 X2.7733 Y3.4169 Z-0.1497
N6170 X2.7754 Y3.4182 Z-0.1498
N6175 X2.7775 Y3.4196 Z-0.1499
N6180 X2.7795 Y3.421 Z-0.15
N6185 X2.7814 Y3.4226 Z-0.1501
N6190 X2.7833 Y3.4242 Z-0.1502
N6195 X2.7851 Y3.4259
N6200 X2.7869 Y3.4277 Z-0.1503
N6205 X2.7901 Y3.4314 Z-0.1505
N6210 X2.7916 Y3.4334 Z-0.1506
N6215 X2.793 Y3.4354 Z-0.1507
N6220 X2.7944 Y3.4375 Z-0.1508
N6225 X2.7956 Y3.4397
N6230 X2.7968 Y3.4418 Z-0.1509
N6235 X2.7979 Y3.4441 Z-0.151
N6240 X2.7988 Y3.4464 Z-0.1511
N6245 X2.7997 Y3.4487 Z-0.1512
N6250 X2.8005 Y3.451 Z-0.1513
N6255 X2.8012 Y3.4534 Z-0.1514
N6260 X2.8018 Y3.4558 Z-0.1515
N6265 X2.8023 Y3.4583
N6270 X2.8029 Y3.4632 Z-0.1517
N6275 X2.8031 Y3.4656 Z-0.1518
N6280 X2.8032 Y3.4681 Z-0.1519
N6285 X2.8031 Y3.4706 Z-0.152
N6290 X2.803 Y3.4731 Z-0.1521
N6295 X2.8024 Y3.478 Z-0.1522
N6300 X2.8015 Y3.4829 Z-0.1524
N6305 X2.8001 Y3.4876 Z-0.1526
N6310 X2.7984 Y3.4923 Z-0.1527
N6315 X2.7973 Y3.4945 Z-0.1528
N6320 X2.7962 Y3.4967 Z-0.1529
N6325 X2.7938 Y3.501 Z-0.1531
N6330 X2.7924 Y3.5031 Z-0.1532
N6335 X2.7909 Y3.5051 Z-0.1533
N6340 X2.7894 Y3.507 Z-0.1534
N6345 X2.7878 Y3.5089
N6350 X2.7861 Y3.5107 Z-0.1535
N6355 X2.7843 Y3.5125 Z-0.1536
N6360 X2.7825 Y3.5141 Z-0.1537
N6365 X2.7806 Y3.5157 Z-0.1538
N6370 X2.7766 Y3.5186 Z-0.154
N6375 X2.7745 Y3.52
N6380 X2.7723 Y3.5212 Z-0.1541
N6385 X2.7702 Y3.5224 Z-0.1542
N6390 X2.7679 Y3.5234 Z-0.1543
N6395 X2.7656 Y3.5244 Z-0.1544
N6400 X2.7633 Y3.5253 Z-0.1545
N6405 X2.761 Y3.526 Z-0.1546
N6410 X2.7586 Y3.5267 Z-0.1547
N6415 X2.7562 Y3.5273
N6420 X2.7538 Y3.5278 Z-0.1548
N6425 X2.7489 Y3.5285 Z-0.155
N6430 X2.7464 Y3.5287 Z-0.1551
N6435 X2.7439 Z-0.1552
N6440 X2.7414 Z-0.1553
N6445 X2.739 Y3.5286
N6450 X2.7365 Y3.5283 Z-0.1554
N6455 X2.7341 Y3.528 Z-0.1555
N6460 X2.7316 Y3.5276 Z-0.1556
N6465 X2.7292 Y3.5271 Z-0.1557
N6470 X2.7268 Y3.5264 Z-0.1558
N6475 X2.7244 Y3.5257 Z-0.1559
N6480 X2.7198 Y3.524 Z-0.156
N6485 X2.7176 Y3.5229 Z-0.1561
N6490 X2.7154 Y3.5218 Z-0.1562
N6495 X2.7132 Y3.5206 Z-0.1563
N6500 X2.7111 Y3.5193 Z-0.1564
N6505 X2.709 Y3.518 Z-0.1565
N6510 X2.707 Y3.5165
N6515 X2.7051 Y3.515 Z-0.1566
N6520 X2.7032 Y3.5134 Z-0.1567
N6525 X2.7014 Y3.5117 Z-0.1568
N6530 X2.6997 Y3.5099 Z-0.1569
N6535 X2.698 Y3.5081 Z-0.157
N6540 X2.6964 Y3.5062 Z-0.1571
N6545 X2.6935 Y3.5022 Z-0.1572
N6550 X2.6922 Y3.5001 Z-0.1573
N6555 X2.6909 Y3.4979 Z-0.1574
N6560 X2.6905 Y3.4971
N6565 X2.69 Y3.4962 Z-0.1575
N6570 X2.6895 Y3.4951
N6575 X2.6889 Y3.494 Z-0.1576
N6580 X2.688 Y3.4917 Z-0.1577
N6585 X2.6871 Y3.4894
N6590 X2.6863 Y3.4871 Z-0.1578
N6595 X2.6849 Y3.4824 Z-0.158
N6600 X2.6844 Y3.4799 Z-0.1581
N6605 X2.684 Y3.4775 Z-0.1582
N6610 X2.6837 Y3.475 Z-0.1583
N6615 X2.6835 Y3.4726
N6620 X2.6834 Y3.4701 Z-0.1584
N6625 Y3.4676 Z-0.1585
N6630 X2.6835 Y3.4652 Z-0.1586
N6635 X2.6837 Y3.4627 Z-0.1587
N6640 X2.6841 Y3.4603 Z-0.1588
N6645 X2.6845 Y3.4578 Z-0.1589
N6650 X2.685 Y3.4554
N6655 X2.6856 Y3.453 Z-0.159
N6660 X2.6871 Y3.4483 Z-0.1592
N6665 X2.688 Y3.446 Z-0.1593
N6670 X2.689 Y3.4437 Z-0.1594
N6675 X2.6901 Y3.4415 Z-0.1595
N6680 X2.6913 Y3.4393
N6685 X2.6925 Y3.4372 Z-0.1596
N6690 X2.6939 Y3.4352 Z-0.1597
N6695 X2.6953 Y3.4332 Z-0.1598
N6700 X2.6968 Y3.4312 Z-0.1599
N6705 X2.6984 Y3.4293 Z-0.16
N6710 X2.7001 Y3.4275 Z-0.1601
N6715 X2.7037 Y3.4241 Z-0.1602
N6720 X2.7056 Y3.4225 Z-0.1603
N6725 X2.7075 Y3.421 Z-0.1604
N6730 X2.7095 Y3.4195 Z-0.1605
N6735 X2.7116 Y3.4182 Z-0.1606
N6740 X2.7137 Y3.4169 Z-0.1607
N6745 X2.7159 Y3.4157 Z-0.1608
N6750 X2.7181 Y3.4147
N6755 X2.7204 Y3.4137 Z-0.1609
N6760 X2.7227 Y3.4128 Z-0.161
N6765 X2.725 Y3.412 Z-0.1611
N6770 X2.7297 Y3.4107 Z-0.1613
N6775 X2.7322 Y3.4102 Z-0.1614
N6780 X2.7346 Y3.4098
N6785 X2.737 Y3.4095 Z-0.1615
N6790 X2.7395 Y3.4093 Z-0.1616
N6795 X2.742 Y3.4092 Z-0.1617
N6800 X2.7444 Z-0.1618
N6805 X2.7469 Y3.4093 Z-0.1619
N6810 X2.7494 Y3.4095 Z-0.162
N6815 X2.7518 Y3.4098
N6820 X2.7542 Y3.4102 Z-0.1621
N6825 X2.759 Y3.4113 Z-0.1623
N6830 X2.7614 Y3.412 Z-0.1624
N6835 X2.7637 Y3.4128 Z-0.1625
N6840 X2.766 Y3.4137 Z-0.1626
N6845 X2.7683 Y3.4147
N6850 X2.7705 Y3.4158 Z-0.1627
N6855 X2.7727 Y3.417 Z-0.1628
N6860 X2.7748 Y3.4182 Z-0.1629
N6865 X2.7768 Y3.4196 Z-0.163
N6870 X2.7788 Y3.421 Z-0.1631
N6875 X2.7808 Y3.4225 Z-0.1632
N6880 X2.7827 Y3.4241
N6885 X2.7845 Y3.4258 Z-0.1633
N6890 X2.7879 Y3.4294 Z-0.1635
N6895 X2.7895 Y3.4312 Z-0.1636
N6900 X2.791 Y3.4332 Z-0.1637
N6905 X2.7924 Y3.4352 Z-0.1638
N6910 X2.7938 Y3.4373 Z-0.1639
N6915 X2.7951 Y3.4394
N6920 X2.7962 Y3.4416 Z-0.164
N6925 X2.7973 Y3.4438 Z-0.1641
N6930 X2.7983 Y3.446 Z-0.1642
N6935 X2.7992 Y3.4483 Z-0.1643
N6940 X2.8 Y3.4507 Z-0.1644
N6945 X2.8013 Y3.4554 Z-0.1645
N6950 X2.8018 Y3.4578 Z-0.1646
N6955 X2.8022 Y3.4602 Z-0.1647
N6960 X2.8025 Y3.4627 Z-0.1648
N6965 X2.8027 Y3.4651 Z-0.1649
N6970 X2.8028 Y3.4676 Z-0.165
N6975 Y3.4701 Z-0.1651
N6980 X2.8024 Y3.475 Z-0.1652
N6985 X2.8017 Y3.4799 Z-0.1654
N6990 X2.8012 Y3.4823 Z-0.1655
N6995 X2.8006 Y3.4847 Z-0.1656
N7000 X2.7991 Y3.4894 Z-0.1657
N7005 X2.7972 Y3.4939 Z-0.1659
N7010 X2.795 Y3.4983 Z-0.1661
N7015 X2.7937 Y3.5004 Z-0.1662
N7020 X2.7924 Y3.5024 Z-0.1663
N7025 X2.791 Y3.5045
N7030 X2.7894 Y3.5064 Z-0.1664
N7035 X2.7879 Y3.5083 Z-0.1665
N7040 X2.7862 Y3.5101 Z-0.1666
N7045 X2.7827 Y3.5135 Z-0.1668
N7050 X2.7808 Y3.5151 Z-0.1669
N7055 X2.7788 Y3.5166
N7060 X2.7768 Y3.518 Z-0.167
N7065 X2.7747 Y3.5193 Z-0.1671
N7070 X2.7726 Y3.5206 Z-0.1672
N7075 X2.7705 Y3.5218 Z-0.1673
N7080 X2.7683 Y3.5229 Z-0.1674
N7085 X2.766 Y3.5238 Z-0.1675
N7090 X2.7637 Y3.5247
N7095 X2.7614 Y3.5255 Z-0.1676
N7100 X2.7566 Y3.5269 Z-0.1678
N7105 X2.7542 Y3.5273 Z-0.1679
N7110 X2.7518 Y3.5277 Z-0.168
N7115 X2.7493 Y3.528 Z-0.1681
N7120 X2.7469 Y3.5282
N7125 X2.7444 Y3.5283 Z-0.1682
N7130 X2.742 Z-0.1683
N7135 X2.7395 Y3.5282 Z-0.1684
N7140 X2.7371 Y3.528 Z-0.1685
N7145 X2.7346 Y3.5277 Z-0.1686
N7150 X2.7322 Y3.5273 Z-0.1687
N7155 X2.7298 Y3.5268
N7160 X2.7274 Y3.5262 Z-0.1688
N7165 X2.7227 Y3.5247 Z-0.169
N7170 X2.7205 Y3.5238 Z-0.1691
N7175 X2.7182 Y3.5228 Z-0.1692
N7180 X2.716 Y3.5217 Z-0.1693
N7185 X2.7138 Y3.5206
N7190 X2.7117 Y3.5193 Z-0.1694
N7195 X2.7097 Y3.518 Z-0.1695
N7200 X2.7077 Y3.5165 Z-0.1696
N7205 X2.7057 Y3.515 Z-0.1697
N7210 X2.7039 Y3.5134 Z-0.1698
N7215 X2.702 Y3.5118 Z-0.1699
N7220 X2.6986 Y3.5082 Z-0.17
N7225 X2.6971 Y3.5063 Z-0.1701
N7230 X2.6955 Y3.5044 Z-0.1702
N7235 X2.6941 Y3.5024 Z-0.1703
N7240 X2.6928 Y3.5003 Z-0.1704
N7245 X2.6915 Y3.4982 Z-0.1705
N7250 X2.6904 Y3.496
N7255 X2.6893 Y3.4938 Z-0.1706
N7260 X2.6883 Y3.4916 Z-0.1707
N7265 X2.6874 Y3.4893 Z-0.1708
N7270 X2.6866 Y3.487 Z-0.1709
N7275 X2.6853 Y3.4823 Z-0.1711
N7280 X2.6848 Y3.4799
N7285 X2.6844 Y3.4774 Z-0.1712
N7290 X2.6841 Y3.475 Z-0.1713
N7295 X2.6839 Y3.4725 Z-0.1714
N7300 X2.6838 Y3.4701 Z-0.1715
N7305 Y3.4676 Z-0.1716
N7310 X2.6839 Y3.4652 Z-0.1717
N7315 X2.6841 Y3.4627
N7320 X2.6844 Y3.4603 Z-0.1718
N7325 X2.6848 Y3.4579 Z-0.1719
N7330 X2.6853 Y3.4555 Z-0.172
N7335 X2.6859 Y3.4531 Z-0.1721
N7340 X2.6874 Y3.4484 Z-0.1723
N7345 X2.6883 Y3.4461
N7350 X2.6893 Y3.4439 Z-0.1724
N7355 X2.6904 Y3.4417 Z-0.1725
N7360 X2.6916 Y3.4395 Z-0.1726
N7365 X2.6928 Y3.4374 Z-0.1727
N7370 X2.6942 Y3.4354 Z-0.1728
N7375 X2.6956 Y3.4334 Z-0.1729
N7380 X2.6971 Y3.4314
N7385 X2.6987 Y3.4296 Z-0.173
N7390 X2.7004 Y3.4278 Z-0.1731
N7395 X2.7039 Y3.4244 Z-0.1733
N7400 X2.7058 Y3.4228 Z-0.1734
N7405 X2.7077 Y3.4213 Z-0.1735
N7410 X2.7097 Y3.4198
N7415 X2.7118 Y3.4185 Z-0.1736
N7420 X2.7139 Y3.4172 Z-0.1737
N7425 X2.7161 Y3.4161 Z-0.1738
N7430 X2.7183 Y3.415 Z-0.1739
N7435 X2.7205 Y3.414 Z-0.174
N7440 X2.7228 Y3.4131 Z-0.1741
N7445 X2.7251 Y3.4123
N7450 X2.7298 Y3.411 Z-0.1743
N7455 X2.7322 Y3.4105 Z-0.1744
N7460 X2.7346 Y3.4101 Z-0.1745
N7465 X2.7371 Y3.4098 Z-0.1746
N7470 X2.7395 Y3.4096 Z-0.1747
N7475 X2.742 Y3.4095
N7480 X2.7444 Z-0.1748
N7485 X2.7469 Y3.4097 Z-0.1749
N7490 X2.7493 Y3.4099 Z-0.175
N7495 X2.7518 Y3.4102 Z-0.1751
N7500 X2.7542 Y3.4106 Z-0.1752
N7505 X2.7589 Y3.4117 Z-0.1753
N7510 X2.7613 Y3.4124 Z-0.1754
N7515 X2.7636 Y3.4132 Z-0.1755
N7520 X2.7659 Y3.4141 Z-0.1756
N7525 X2.7681 Y3.4151 Z-0.1757
N7530 X2.7703 Y3.4161 Z-0.1758
N7535 X2.7725 Y3.4173 Z-0.1759
N7540 X2.7746 Y3.4185
N7545 X2.7766 Y3.4199 Z-0.176
N7550 X2.7786 Y3.4213 Z-0.1761
N7555 X2.7806 Y3.4228 Z-0.1762
N7560 X2.7824 Y3.4244 Z-0.1763
N7565 X2.7842 Y3.4261 Z-0.1764
N7570 X2.7876 Y3.4296 Z-0.1765
N7575 X2.7892 Y3.4315 Z-0.1766
N7580 X2.7907 Y3.4334 Z-0.1767
N7585 X2.7921 Y3.4354 Z-0.1768
N7590 X2.7935 Y3.4375 Z-0.1769
N7595 X2.7947 Y3.4396 Z-0.177
N7600 X2.7959 Y3.4417
N7605 X2.797 Y3.4439 Z-0.1771
N7610 X2.7979 Y3.4462 Z-0.1772
N7615 X2.7988 Y3.4485 Z-0.1773
N7620 X2.7996 Y3.4508 Z-0.1774
N7625 X2.8009 Y3.4555 Z-0.1776
N7630 X2.8014 Y3.4579
N7635 X2.8018 Y3.4603 Z-0.1777
N7640 X2.8021 Y3.4627 Z-0.1778
N7645 X2.8023 Y3.4652 Z-0.1779
N7650 X2.8024 Y3.4676 Z-0.178
N7655 Y3.4701 Z-0.1781
N7660 X2.8021 Y3.4749 Z-0.1782
N7665 X2.8014 Y3.4798 Z-0.1784
N7670 X2.8009 Y3.4822 Z-0.1785
N7675 X2.8003 Y3.4846 Z-0.1786
N7680 X2.7988 Y3.4892 Z-0.1788
N7685 X2.7969 Y3.4937 Z-0.1789
N7690 X2.7947 Y3.4981 Z-0.1791
N7695 X2.7934 Y3.5002 Z-0.1792
N7700 X2.7921 Y3.5022 Z-0.1793
N7705 X2.7907 Y3.5042 Z-0.1794
N7710 X2.7892 Y3.5062
N7715 X2.7876 Y3.508 Z-0.1795
N7720 X2.7859 Y3.5098 Z-0.1796
N7725 X2.7824 Y3.5132 Z-0.1798
N7730 X2.7805 Y3.5148 Z-0.1799
N7735 X2.7786 Y3.5163 Z-0.18
N7740 X2.7766 Y3.5177
N7745 X2.7745 Y3.519 Z-0.1801
N7750 X2.7724 Y3.5203 Z-0.1802
N7755 X2.7703 Y3.5214 Z-0.1803
N7760 X2.7681 Y3.5225 Z-0.1804
N7765 X2.7659 Y3.5235 Z-0.1805
N7770 X2.7636 Y3.5244
N7775 X2.7613 Y3.5252 Z-0.1806
N7780 X2.7565 Y3.5265 Z-0.1808
N7785 X2.7541 Y3.527 Z-0.1809
N7790 X2.7517 Y3.5274 Z-0.181
N7795 X2.7493 Y3.5277 Z-0.1811
N7800 X2.7469 Y3.5279
N7805 X2.7444 Y3.528 Z-0.1812
N7810 X2.742 Z-0.1813
N7815 X2.7396 Y3.5279 Z-0.1814
N7820 X2.7371 Y3.5277 Z-0.1815
N7825 X2.7347 Y3.5274 Z-0.1816
N7830 X2.7323 Y3.527 Z-0.1817
N7835 X2.7299 Y3.5265
N7840 X2.7275 Y3.5259 Z-0.1818
N7845 X2.7229 Y3.5244 Z-0.182
N7850 X2.7206 Y3.5235 Z-0.1821
N7855 X2.7184 Y3.5225 Z-0.1822
N7860 X2.7162 Y3.5214 Z-0.1823
N7865 X2.714 Y3.5202
N7870 X2.7119 Y3.519 Z-0.1824
N7875 X2.7099 Y3.5177 Z-0.1825
N7880 X2.7079 Y3.5162 Z-0.1826
N7885 X2.706 Y3.5147 Z-0.1827
N7890 X2.7041 Y3.5131 Z-0.1828
N7895 X2.7023 Y3.5115 Z-0.1829
N7900 X2.6989 Y3.508 Z-0.183
N7905 X2.6973 Y3.5061 Z-0.1831
N7910 X2.6958 Y3.5042 Z-0.1832
N7915 X2.6944 Y3.5022 Z-0.1833
N7920 X2.6931 Y3.5001 Z-0.1834
N7925 X2.6919 Y3.498
N7930 X2.6907 Y3.4959 Z-0.1835
N7935 X2.6896 Y3.4937 Z-0.1836
N7940 X2.6886 Y3.4915 Z-0.1837
N7945 X2.6878 Y3.4892 Z-0.1838
N7950 X2.687 Y3.4869 Z-0.1839
N7955 X2.6857 Y3.4822 Z-0.184
N7960 X2.6852 Y3.4798 Z-0.1841
N7965 X2.6848 Y3.4774 Z-0.1842
N7970 X2.6845 Y3.475 Z-0.1843
N7975 X2.6843 Y3.4725 Z-0.1844
N7980 X2.6842 Y3.4701 Z-0.1845
N7985 Y3.4676 Z-0.1846
N7990 X2.6843 Y3.4652
N7995 X2.6845 Y3.4628 Z-0.1847
N8000 X2.6848 Y3.4604 Z-0.1848
N8005 X2.6852 Y3.458 Z-0.1849
N8010 X2.6857 Y3.4556 Z-0.185
N8015 X2.6863 Y3.4532 Z-0.1851
N8020 X2.6878 Y3.4485 Z-0.1852
N8025 X2.6887 Y3.4463 Z-0.1853
N8030 X2.6897 Y3.444 Z-0.1854
N8035 X2.6907 Y3.4418 Z-0.1855
N8040 X2.6919 Y3.4397 Z-0.1856
N8045 X2.6932 Y3.4376 Z-0.1857
N8050 X2.6945 Y3.4356
N8055 X2.6959 Y3.4336 Z-0.1858
N8060 X2.6974 Y3.4317 Z-0.1859
N8065 X2.699 Y3.4298 Z-0.186
N8070 X2.7006 Y3.428 Z-0.1861
N8075 X2.7042 Y3.4246 Z-0.1863
N8080 X2.706 Y3.4231
N8085 X2.708 Y3.4216 Z-0.1864
N8090 X2.7099 Y3.4202 Z-0.1865
N8095 X2.712 Y3.4188 Z-0.1866
N8100 X2.7141 Y3.4176 Z-0.1867
N8105 X2.7162 Y3.4164 Z-0.1868
N8110 X2.7184 Y3.4154
N8115 X2.7206 Y3.4144 Z-0.1869
N8120 X2.7229 Y3.4135 Z-0.187
N8125 X2.7252 Y3.4127 Z-0.1871
N8130 X2.7299 Y3.4114 Z-0.1873
N8135 X2.7323 Y3.4109 Z-0.1874
N8140 X2.7347 Y3.4105
N8145 X2.7371 Y3.4102 Z-0.1875
N8150 X2.7395 Y3.41 Z-0.1876
N8155 X2.742 Y3.4099 Z-0.1877
N8160 X2.7444 Z-0.1878
N8165 X2.7468 Y3.41 Z-0.1879
N8170 X2.7493 Y3.4102 Z-0.188
N8175 X2.7517 Y3.4106
N8180 X2.7541 Y3.411 Z-0.1881
N8185 X2.7588 Y3.412 Z-0.1883
N8190 X2.7612 Y3.4127 Z-0.1884
N8195 X2.7635 Y3.4135 Z-0.1885
N8200 X2.7657 Y3.4144
N8205 X2.768 Y3.4154 Z-0.1886
N8210 X2.7701 Y3.4165 Z-0.1887
N8215 X2.7723 Y3.4177 Z-0.1888
N8220 X2.7744 Y3.4189 Z-0.1889
N8225 X2.7764 Y3.4202 Z-0.189
N8230 X2.7784 Y3.4216 Z-0.1891
N8235 X2.7803 Y3.4231
N8240 X2.7822 Y3.4247 Z-0.1892
N8245 X2.784 Y3.4264 Z-0.1893
N8250 X2.7873 Y3.4299 Z-0.1895
N8255 X2.7889 Y3.4317 Z-0.1896
N8260 X2.7904 Y3.4337 Z-0.1897
N8265 X2.7918 Y3.4356
N8270 X2.7931 Y3.4377 Z-0.1898
N8275 X2.7944 Y3.4398 Z-0.1899
N8280 X2.7955 Y3.4419 Z-0.19
N8285 X2.7966 Y3.4441 Z-0.1901
N8290 X2.7976 Y3.4463 Z-0.1902
N8295 X2.7984 Y3.4486
N8300 X2.7992 Y3.4509 Z-0.1903
N8305 X2.8005 Y3.4556 Z-0.1905
N8310 X2.801 Y3.458 Z-0.1906
N8315 X2.8014 Y3.4604 Z-0.1907
N8320 X2.8017 Y3.4628 Z-0.1908
N8325 X2.8019 Y3.4652
N8330 X2.802 Y3.4676 Z-0.1909
N8335 Y3.4701 Z-0.191
N8340 X2.8016 Y3.4749 Z-0.1912
N8345 X2.8009 Y3.4797 Z-0.1913
N8350 X2.8004 Y3.4821 Z-0.1914
N8355 X2.7999 Y3.4844 Z-0.1915
N8360 X2.7984 Y3.4891 Z-0.1917
N8365 X2.7965 Y3.4935 Z-0.1919
N8370 X2.7943 Y3.4979 Z-0.192
N8375 X2.793 Y3.5 Z-0.1921
N8380 X2.7917 Y3.502 Z-0.1922
N8385 X2.7903 Y3.504 Z-0.1923
N8390 X2.7888 Y3.5059 Z-0.1924
N8395 X2.7872 Y3.5077
N8400 X2.7856 Y3.5095 Z-0.1925
N8405 X2.7821 Y3.5129 Z-0.1927
N8410 X2.7802 Y3.5144 Z-0.1928
N8415 X2.7783 Y3.5159 Z-0.1929
N8420 X2.7763 Y3.5173 Z-0.193
N8425 X2.7743 Y3.5187
N8430 X2.7722 Y3.5199 Z-0.1931
N8435 X2.7701 Y3.521 Z-0.1932
N8440 X2.7679 Y3.5221 Z-0.1933
N8445 X2.7657 Y3.5231 Z-0.1934
N8450 X2.7634 Y3.524 Z-0.1935
N8455 X2.7611 Y3.5248 Z-0.1936
N8460 X2.7564 Y3.526 Z-0.1937
N8465 X2.7541 Y3.5265 Z-0.1938
N8470 X2.7517 Y3.5269 Z-0.1939
N8475 X2.7493 Y3.5272 Z-0.194
N8480 X2.7468 Y3.5274 Z-0.1941
N8485 X2.7444 Y3.5275
N8490 X2.742 Z-0.1942
N8495 X2.7396 Y3.5274 Z-0.1943
N8500 X2.7372 Y3.5272 Z-0.1944
N8505 X2.7348 Y3.5269 Z-0.1945
N8510 X2.7324 Y3.5265 Z-0.1946
N8515 X2.73 Y3.526
N8520 X2.7276 Y3.5254 Z-0.1947
N8525 X2.723 Y3.5239 Z-0.1949
N8530 X2.7208 Y3.523 Z-0.195
N8535 X2.7186 Y3.522 Z-0.1951
N8540 X2.7164 Y3.521 Z-0.1952
N8545 X2.7143 Y3.5198
N8550 X2.7122 Y3.5186 Z-0.1953
N8555 X2.7101 Y3.5173 Z-0.1954
N8560 X2.7082 Y3.5158 Z-0.1955
N8565 X2.7063 Y3.5144 Z-0.1956
N8570 X2.7044 Y3.5128 Z-0.1957
N8575 X2.7026 Y3.5111
N8580 X2.6993 Y3.5076 Z-0.1959
N8585 X2.6977 Y3.5058 Z-0.196
N8590 X2.6962 Y3.5039 Z-0.1961
N8595 X2.6948 Y3.5019 Z-0.1962
N8600 X2.6935 Y3.4999 Z-0.1963
N8605 X2.6923 Y3.4978
N8610 X2.6911 Y3.4957 Z-0.1964
N8615 X2.6901 Y3.4935 Z-0.1965
N8620 X2.6891 Y3.4913 Z-0.1966
N8625 X2.6882 Y3.489 Z-0.1967
N8630 X2.6874 Y3.4867 Z-0.1968
N8635 X2.6867 Y3.4844
N8640 Y3.4842 Z-0.1969
N8645 X2.6864 Y3.483
N8650 X2.6861 Y3.4817
N8655 X2.6856 Y3.4793 Z-0.197
N8660 X2.6849 Y3.4744 Z-0.1972
N8665 X2.6847 Y3.4719 Z-0.1973
N8670 Y3.4694 Z-0.1974
N8675 Y3.4669 Z-0.1975
N8680 X2.6848 Y3.4644
N8685 X2.6851 Y3.462 Z-0.1976
N8690 X2.6854 Y3.4595 Z-0.1977
N8695 X2.6859 Y3.457 Z-0.1978
N8700 X2.6864 Y3.4546 Z-0.1979
N8705 X2.6871 Y3.4522 Z-0.198
N8710 X2.6879 Y3.4499 Z-0.1981
N8715 X2.6887 Y3.4476 Z-0.1982
N8720 X2.6897 Y3.4453
N8725 X2.6907 Y3.443 Z-0.1983
N8730 X2.6919 Y3.4408 Z-0.1984
N8735 X2.6931 Y3.4387 Z-0.1985
N8740 X2.6944 Y3.4366 Z-0.1986
N8745 X2.6974 Y3.4325 Z-0.1988
N8750 X2.6989 Y3.4306
N8755 X2.7006 Y3.4288 Z-0.1989
N8760 X2.7023 Y3.427 Z-0.199
N8765 X2.7041 Y3.4253 Z-0.1991
N8770 X2.706 Y3.4237 Z-0.1992
N8775 X2.708 Y3.4222 Z-0.1993
N8780 X2.71 Y3.4208 Z-0.1994
N8785 X2.7121 Y3.4194
N8790 X2.7142 Y3.4181 Z-0.1995
N8795 X2.7164 Y3.4169 Z-0.1996
N8800 X2.7186 Y3.4158 Z-0.1997
N8805 X2.7209 Y3.4148 Z-0.1998
N8810 X2.7232 Y3.4139 Z-0.1999
N8815 X2.7256 Y3.4131 Z-0.2
N8820 X2.728 Y3.4124 Z-0.2001
N8825 X2.7304 Y3.4118
N8830 X2.7352 Y3.411 Z-0.2003
N8835 X2.7377 Y3.4107 Z-0.2004
N8840 X2.7402 Y3.4105 Z-0.2005
N8845 X2.7426 Y3.4104 Z-0.2006
N8850 X2.7451 Y3.4105 Z-0.2007
N8855 X2.7476 Y3.4106
N8860 X2.7501 Y3.4109 Z-0.2008
N8865 X2.7525 Y3.4112 Z-0.2009
N8870 X2.755 Y3.4117 Z-0.201
N8875 X2.7574 Y3.4122 Z-0.2011
N8880 X2.7598 Y3.4129 Z-0.2012
N8885 X2.7621 Y3.4136 Z-0.2013
N8890 X2.7644 Y3.4145 Z-0.2014
N8895 X2.7667 Y3.4154
N8900 X2.769 Y3.4165 Z-0.2015
N8905 X2.7712 Y3.4176 Z-0.2016
N8910 X2.7733 Y3.4188 Z-0.2017
N8915 X2.7775 Y3.4216 Z-0.2019
N8920 X2.7794 Y3.4231 Z-0.202
N8925 X2.7813 Y3.4247
N8930 X2.7832 Y3.4263 Z-0.2021
N8935 X2.7849 Y3.4281 Z-0.2022
N8940 X2.7866 Y3.4299 Z-0.2023
N8945 X2.7882 Y3.4317 Z-0.2024
N8950 X2.7898 Y3.4337 Z-0.2025
N8955 X2.7912 Y3.4357 Z-0.2026
N8960 X2.7926 Y3.4378
N8965 X2.7938 Y3.4399 Z-0.2027
N8970 X2.795 Y3.4421 Z-0.2028
N8975 X2.7961 Y3.4443 Z-0.2029
N8980 X2.7971 Y3.4466 Z-0.203
N8985 X2.798 Y3.4489 Z-0.2031
N8990 X2.7988 Y3.4512 Z-0.2032
N8995 X2.7995 Y3.4536 Z-0.2033
N9000 X2.8001 Y3.456
N9005 X2.8006 Y3.4585 Z-0.2034
N9010 X2.8013 Y3.4634 Z-0.2036
N9015 X2.8014 Y3.4658 Z-0.2037
N9020 X2.8015 Y3.4683 Z-0.2038
N9025 X2.8014 Y3.4708 Z-0.2039
N9030 X2.8013 Y3.4732
N9035 X2.8007 Y3.4782 Z-0.2041
N9040 X2.7997 Y3.483 Z-0.2043
N9045 X2.7983 Y3.4877 Z-0.2045
N9050 X2.7974 Y3.49
N9055 X2.7965 Y3.4923 Z-0.2046
N9060 X2.7943 Y3.4967 Z-0.2048
N9065 X2.7931 Y3.4989 Z-0.2049
N9070 X2.7925 Y3.4999
N9075 X2.7918 Y3.501 Z-0.205
N9080 X2.7889 Y3.505 Z-0.2052
N9085 X2.7873 Y3.5069
N9090 X2.7856 Y3.5087 Z-0.2053
N9095 X2.7839 Y3.5105 Z-0.2054
N9100 X2.7821 Y3.5122 Z-0.2055
N9105 X2.7802 Y3.5138 Z-0.2056
N9110 X2.7783 Y3.5153 Z-0.2057
N9115 X2.7763 Y3.5168 Z-0.2058
N9120 X2.7742 Y3.5181
N9125 X2.7721 Y3.5194 Z-0.2059
N9130 X2.7699 Y3.5206 Z-0.206
N9135 X2.7677 Y3.5217 Z-0.2061
N9140 X2.7654 Y3.5226 Z-0.2062
N9145 X2.7631 Y3.5235 Z-0.2063
N9150 X2.7608 Y3.5243 Z-0.2064
N9155 X2.7584 Y3.525
N9160 X2.756 Y3.5256 Z-0.2065
N9165 X2.7512 Y3.5265 Z-0.2067
N9170 X2.7487 Y3.5268 Z-0.2068
N9175 X2.7462 Y3.5269 Z-0.2069
N9180 X2.7438 Y3.527 Z-0.207
N9185 X2.7413
N9190 X2.7388 Y3.5268 Z-0.2071
N9195 X2.7364 Y3.5266 Z-0.2072
N9200 X2.7339 Y3.5263 Z-0.2073
N9205 X2.7315 Y3.5258 Z-0.2074
N9210 X2.7291 Y3.5253 Z-0.2075
N9215 X2.7267 Y3.5246 Z-0.2076
N9220 X2.7244 Y3.5238
N9225 X2.7221 Y3.523 Z-0.2077
N9230 X2.7198 Y3.5221 Z-0.2078
N9235 X2.7176 Y3.521 Z-0.2079
N9240 X2.7154 Y3.5199 Z-0.208
N9245 X2.7132 Y3.5186 Z-0.2081
N9250 X2.7111 Y3.5173 Z-0.2082
N9255 X2.7091 Y3.5159 Z-0.2083
N9260 X2.7052 Y3.5128 Z-0.2084
N9265 X2.7034 Y3.5112 Z-0.2085
N9270 X2.7016 Y3.5094 Z-0.2086
N9275 X2.7 Y3.5076 Z-0.2087
N9280 X2.6984 Y3.5058 Z-0.2088
N9285 X2.6968 Y3.5038 Z-0.2089
N9290 X2.6954 Y3.5018
N9295 X2.694 Y3.4998 Z-0.209
N9300 X2.6928 Y3.4976 Z-0.2091
N9305 X2.6916 Y3.4955 Z-0.2092
N9310 X2.6905 Y3.4933 Z-0.2093
N9315 X2.6895 Y3.491 Z-0.2094
N9320 X2.6886 Y3.4887 Z-0.2095
N9325 X2.6879 Y3.4864
N9330 X2.6872 Y3.484 Z-0.2096
N9335 X2.6866 Y3.4816 Z-0.2097
N9340 X2.6861 Y3.4792 Z-0.2098
N9345 X2.6854 Y3.4743 Z-0.21
N9350 X2.6852 Y3.4719 Z-0.2101
N9355 Y3.4694
N9360 Y3.4669 Z-0.2102
N9365 X2.6853 Y3.4645 Z-0.2103
N9370 X2.6856 Y3.462 Z-0.2104
N9375 X2.6859 Y3.4596 Z-0.2105
N9380 X2.6864 Y3.4572 Z-0.2106
N9385 X2.6869 Y3.4547 Z-0.2107
N9390 X2.6876 Y3.4524
N9395 X2.6883 Y3.45 Z-0.2108
N9400 X2.6892 Y3.4477 Z-0.2109
N9405 X2.6901 Y3.4455 Z-0.211
N9410 X2.6912 Y3.4432 Z-0.2111
N9415 X2.6923 Y3.4411 Z-0.2112
N9420 X2.6935 Y3.4389 Z-0.2113
N9425 X2.6948 Y3.4368
N9430 X2.6977 Y3.4329 Z-0.2115
N9435 X2.6993 Y3.431 Z-0.2116
N9440 X2.701 Y3.4291 Z-0.2117
N9445 X2.7027 Y3.4274 Z-0.2118
N9450 X2.7045 Y3.4257 Z-0.2119
N9455 X2.7064 Y3.4241
N9460 X2.7083 Y3.4226 Z-0.212
N9465 X2.7103 Y3.4212 Z-0.2121
N9470 X2.7123 Y3.4198 Z-0.2122
N9475 X2.7144 Y3.4185 Z-0.2123
N9480 X2.7166 Y3.4174 Z-0.2124
N9485 X2.7188 Y3.4163 Z-0.2125
N9490 X2.7211 Y3.4153
N9495 X2.7234 Y3.4144 Z-0.2126
N9500 X2.7257 Y3.4136 Z-0.2127
N9505 X2.7281 Y3.4129 Z-0.2128
N9510 X2.7305 Y3.4123 Z-0.2129
N9515 X2.7353 Y3.4115 Z-0.2131
N9520 X2.7377 Y3.4112
N9525 X2.7402 Y3.411 Z-0.2132
N9530 X2.7426 Y3.4109 Z-0.2133
N9535 X2.7451 Y3.411 Z-0.2134
N9540 X2.7476 Y3.4111 Z-0.2135
N9545 X2.75 Y3.4114 Z-0.2136
N9550 X2.7524 Y3.4117 Z-0.2137
N9555 X2.7549 Y3.4121
N9560 X2.7573 Y3.4127 Z-0.2138
N9565 X2.7596 Y3.4133 Z-0.2139
N9570 X2.762 Y3.4141 Z-0.214
N9575 X2.7643 Y3.4149 Z-0.2141
N9580 X2.7665 Y3.4159 Z-0.2142
N9585 X2.7688 Y3.4169 Z-0.2143
N9590 X2.7709 Y3.418
N9595 X2.7731 Y3.4193 Z-0.2144
N9600 X2.7772 Y3.422 Z-0.2146
N9605 X2.7791 Y3.4235 Z-0.2147
N9610 X2.781 Y3.4251 Z-0.2148
N9615 X2.7828 Y3.4267 Z-0.2149
N9620 X2.7846 Y3.4284
N9625 X2.7862 Y3.4302 Z-0.215
N9630 X2.7878 Y3.4321 Z-0.2151
N9635 X2.7894 Y3.434 Z-0.2152
N9640 X2.7908 Y3.436 Z-0.2153
N9645 X2.7921 Y3.438 Z-0.2154
N9650 X2.7934 Y3.4401 Z-0.2155
N9655 X2.7946 Y3.4423
N9660 X2.7957 Y3.4445 Z-0.2156
N9665 X2.7966 Y3.4468 Z-0.2157
N9670 X2.7975 Y3.449 Z-0.2158
N9675 X2.7983 Y3.4514 Z-0.2159
N9680 X2.799 Y3.4537 Z-0.216
N9685 X2.7996 Y3.4561 Z-0.2161
N9690 X2.8001 Y3.4585
N9695 X2.8007 Y3.4634 Z-0.2163
N9700 X2.801 Y3.4683 Z-0.2165
N9705 X2.8009 Y3.4707 Z-0.2166
N9710 X2.8008 Y3.4732 Z-0.2167
N9715 X2.8002 Y3.4781 Z-0.2168
N9720 X2.7992 Y3.4829 Z-0.217
N9725 X2.7978 Y3.4876 Z-0.2172
N9730 X2.797 Y3.4898 Z-0.2173
N9735 X2.796 Y3.4921
N9740 X2.7939 Y3.4965 Z-0.2175
N9745 X2.7927 Y3.4986 Z-0.2176
N9750 X2.792 Y3.4997
N9755 X2.7914 Y3.5007 Z-0.2177
N9760 X2.7885 Y3.5047 Z-0.2179
N9765 X2.7869 Y3.5066
N9770 X2.7853 Y3.5084 Z-0.218
N9775 X2.7835 Y3.5101 Z-0.2181
N9780 X2.7817 Y3.5118 Z-0.2182
N9785 X2.7799 Y3.5134 Z-0.2183
N9790 X2.778 Y3.5149 Z-0.2184
N9795 X2.776 Y3.5163 Z-0.2185
N9800 X2.7739 Y3.5177
N9805 X2.7718 Y3.5189 Z-0.2186
N9810 X2.7697 Y3.5201 Z-0.2187
N9815 X2.7675 Y3.5212 Z-0.2188
N9820 X2.7652 Y3.5222 Z-0.2189
N9825 X2.7629 Y3.5231 Z-0.219
N9830 X2.7606 Y3.5238 Z-0.2191
N9835 X2.7583 Y3.5245
N9840 X2.7559 Y3.5251 Z-0.2192
N9845 X2.7511 Y3.526 Z-0.2194
N9850 X2.7487 Y3.5263 Z-0.2195
N9855 X2.7462 Y3.5264 Z-0.2196
N9860 X2.7438 Y3.5265
N9865 X2.7413 Z-0.2197
N9870 X2.7389 Y3.5263 Z-0.2198
N9875 X2.7364 Y3.5261 Z-0.2199
N9880 X2.734 Y3.5258 Z-0.22
N9885 X2.7316 Y3.5253 Z-0.2201
N9890 X2.7292 Y3.5248 Z-0.2202
N9895 X2.7269 Y3.5241
N9900 X2.7245 Y3.5234 Z-0.2203
N9905 X2.7222 Y3.5225 Z-0.2204
N9910 X2.72 Y3.5216 Z-0.2205
N9915 X2.7178 Y3.5206 Z-0.2206
N9920 X2.7156 Y3.5194 Z-0.2207
N9925 X2.7135 Y3.5182 Z-0.2208
N9930 X2.7114 Y3.5169
N9935 X2.7094 Y3.5155 Z-0.2209
N9940 X2.7056 Y3.5125 Z-0.2211
N9945 X2.7038 Y3.5108 Z-0.2212
N9950 X2.702 Y3.5091 Z-0.2213
N9955 X2.7003 Y3.5073 Z-0.2214
N9960 X2.6987 Y3.5054
N9965 X2.6972 Y3.5035 Z-0.2215
N9970 X2.6958 Y3.5015 Z-0.2216
N9975 X2.6945 Y3.4995 Z-0.2217
N9980 X2.6932 Y3.4974 Z-0.2218
N9985 X2.6921 Y3.4953 Z-0.2219
N9990 X2.691 Y3.4931 Z-0.222
N9995 X2.69 Y3.4908
N10000 X2.6891 Y3.4885 Z-0.2221
N10005 X2.6883 Y3.4862 Z-0.2222
N10010 X2.6877 Y3.4839 Z-0.2223
N10015 X2.6871 Y3.4815 Z-0.2224
N10020 X2.6866 Y3.4791 Z-0.2225
N10025 X2.6859 Y3.4743 Z-0.2226
N10030 X2.6857 Y3.4718 Z-0.2227
N10035 Y3.4694 Z-0.2228
N10040 Y3.467 Z-0.2229
N10045 X2.6858 Y3.4645 Z-0.223
N10050 X2.6861 Y3.4621 Z-0.2231
N10055 X2.6864 Y3.4597
N10060 X2.6869 Y3.4573 Z-0.2232
N10065 X2.6874 Y3.4549 Z-0.2233
N10070 X2.6881 Y3.4525 Z-0.2234
N10075 X2.6888 Y3.4502 Z-0.2235
N10080 X2.6897 Y3.4479 Z-0.2236
N10085 X2.6906 Y3.4457 Z-0.2237
N10090 X2.6916 Y3.4435
N10095 X2.6927 Y3.4413 Z-0.2238
N10100 X2.694 Y3.4392 Z-0.2239
N10105 X2.6953 Y3.4371 Z-0.224
N10110 X2.6981 Y3.4332 Z-0.2242
N10115 X2.6997 Y3.4313 Z-0.2243
N10120 X2.7013 Y3.4295
N10125 X2.703 Y3.4277 Z-0.2244
N10130 X2.7048 Y3.4261 Z-0.2245
N10135 X2.7067 Y3.4245 Z-0.2246
N10140 X2.7086 Y3.423 Z-0.2247
N10145 X2.7106 Y3.4216 Z-0.2248
N10150 X2.7126 Y3.4202
N10155 X2.7147 Y3.419 Z-0.2249
N10160 X2.7168 Y3.4178 Z-0.225
N10165 X2.719 Y3.4167 Z-0.2251
N10170 X2.7213 Y3.4158 Z-0.2252
N10175 X2.7236 Y3.4149 Z-0.2253
N10180 X2.7259 Y3.4141 Z-0.2254
N10185 X2.7282 Y3.4134
N10190 X2.7306 Y3.4128 Z-0.2255
N10195 X2.7354 Y3.412 Z-0.2257
N10200 X2.7378 Y3.4117 Z-0.2258
N10205 X2.7402 Y3.4115 Z-0.2259
N10210 X2.7426 Y3.4114 Z-0.226
N10215 X2.7451 Y3.4115
N10220 X2.7475 Y3.4116 Z-0.2261
N10225 X2.7499 Y3.4119 Z-0.2262
N10230 X2.7524 Y3.4122 Z-0.2263
N10235 X2.7548 Y3.4126 Z-0.2264
N10240 X2.7571 Y3.4132 Z-0.2265
N10245 X2.7595 Y3.4138
N10250 X2.7618 Y3.4146 Z-0.2266
N10255 X2.7641 Y3.4154 Z-0.2267
N10260 X2.7663 Y3.4163 Z-0.2268
N10265 X2.7685 Y3.4174 Z-0.2269
N10270 X2.7707 Y3.4185 Z-0.227
N10275 X2.7728 Y3.4197 Z-0.2271
N10280 X2.7769 Y3.4224 Z-0.2272
N10285 X2.7788 Y3.4239 Z-0.2273
N10290 X2.7807 Y3.4254 Z-0.2274
N10295 X2.7825 Y3.4271 Z-0.2275
N10300 X2.7842 Y3.4288 Z-0.2276
N10305 X2.7859 Y3.4305 Z-0.2277
N10310 X2.7875 Y3.4324
N10315 X2.789 Y3.4343 Z-0.2278
N10320 X2.7904 Y3.4363 Z-0.2279
N10325 X2.7917 Y3.4383 Z-0.228
N10330 X2.793 Y3.4404 Z-0.2281
N10335 X2.7941 Y3.4425 Z-0.2282
N10340 X2.7952 Y3.4447
N10345 X2.7962 Y3.447 Z-0.2283
N10350 X2.7971 Y3.4492 Z-0.2284
N10355 X2.7978 Y3.4515 Z-0.2285
N10360 X2.7985 Y3.4539 Z-0.2286
N10365 X2.7991 Y3.4562 Z-0.2287
N10370 X2.7996 Y3.4586 Z-0.2288
N10375 X2.8003 Y3.4634 Z-0.2289
N10380 X2.8005 Y3.4683 Z-0.2291
N10385 X2.8004 Y3.4707 Z-0.2292
N10390 X2.8003 Y3.4732 Z-0.2293
N10395 X2.7997 Y3.478 Z-0.2294
N10400 X2.7987 Y3.4827 Z-0.2296
N10405 X2.7974 Y3.4874 Z-0.2298
N10410 X2.7965 Y3.4897 Z-0.2299
N10415 X2.7956 Y3.4919
N10420 X2.7934 Y3.4963 Z-0.2301
N10425 X2.7922 Y3.4984 Z-0.2302
N10430 X2.7916 Y3.4994
N10435 X2.7909 Y3.5005 Z-0.2303
N10440 X2.7881 Y3.5044 Z-0.2305
N10445 X2.7865 Y3.5063
N10450 X2.7849 Y3.5081 Z-0.2306
N10455 X2.7832 Y3.5098 Z-0.2307
N10460 X2.7814 Y3.5114 Z-0.2308
N10465 X2.7796 Y3.513 Z-0.2309
N10470 X2.7777 Y3.5145 Z-0.231
N10475 X2.7757 Y3.5159
N10480 X2.7737 Y3.5173 Z-0.2311
N10485 X2.7716 Y3.5185 Z-0.2312
N10490 X2.7694 Y3.5197 Z-0.2313
N10495 X2.7673 Y3.5207 Z-0.2314
N10500 X2.765 Y3.5217 Z-0.2315
N10505 X2.7628 Y3.5226 Z-0.2316
N10510 X2.7605 Y3.5234
N10515 X2.7581 Y3.5241 Z-0.2317
N10520 X2.7558 Y3.5246 Z-0.2318
N10525 X2.751 Y3.5255 Z-0.232
N10530 X2.7486 Y3.5258 Z-0.2321
N10535 X2.7462 Y3.5259
N10540 X2.7438 Y3.526 Z-0.2322
N10545 X2.7413 Z-0.2323
N10550 X2.7389 Y3.5258 Z-0.2324
N10555 X2.7365 Y3.5256 Z-0.2325
N10560 X2.7341 Y3.5253 Z-0.2326
N10565 X2.7317 Y3.5248 Z-0.2327
N10570 X2.7293 Y3.5243
N10575 X2.727 Y3.5236 Z-0.2328
N10580 X2.7247 Y3.5229 Z-0.2329
N10585 X2.7224 Y3.522 Z-0.233
N10590 X2.7202 Y3.5211 Z-0.2331
N10595 X2.718 Y3.5201 Z-0.2332
N10600 X2.7158 Y3.519
N10605 X2.7137 Y3.5178 Z-0.2333
N10610 X2.7117 Y3.5165 Z-0.2334
N10615 X2.7097 Y3.5151 Z-0.2335
N10620 X2.7059 Y3.5121 Z-0.2337
N10625 X2.7041 Y3.5104 Z-0.2338
N10630 X2.7024 Y3.5087
N10635 X2.7007 Y3.507 Z-0.2339
N10640 X2.6992 Y3.5051 Z-0.234
N10645 X2.6977 Y3.5032 Z-0.2341
N10650 X2.6962 Y3.5012 Z-0.2342
N10655 X2.6949 Y3.4992 Z-0.2343
N10660 X2.6937 Y3.4971
N10665 X2.6925 Y3.495 Z-0.2344
N10670 X2.6915 Y3.4928 Z-0.2345
N10675 X2.6905 Y3.4906 Z-0.2346
N10680 X2.6896 Y3.4884 Z-0.2347
N10685 X2.6888 Y3.4861 Z-0.2348
N10690 X2.6882 Y3.4838 Z-0.2349
N10695 X2.6876 Y3.4814
N10700 X2.6871 Y3.479 Z-0.235
N10705 X2.6865 Y3.4742 Z-0.2352
N10710 X2.6863 Y3.4718 Z-0.2353
N10715 X2.6862 Y3.4694 Z-0.2354
N10720 Y3.467
N10725 X2.6864 Y3.4646 Z-0.2355
N10730 X2.6866 Y3.4622 Z-0.2356
N10735 X2.687 Y3.4598 Z-0.2357
N10740 X2.6874 Y3.4574 Z-0.2358
N10745 X2.6879 Y3.455 Z-0.2359
N10750 X2.6886 Y3.4527
N10755 X2.6893 Y3.4504 Z-0.236
N10760 X2.6902 Y3.4481 Z-0.2361
N10765 X2.6911 Y3.4459 Z-0.2362
N10770 X2.6913 Y3.4454
N10775 X2.6914 Y3.4452
N10780 X2.6917 Y3.4446
N10785 X2.6919 Y3.444 Z-0.2363
N10790 X2.6925 Y3.4429
N10795 X2.6937 Y3.4407 Z-0.2364
N10800 X2.6951 Y3.4385 Z-0.2365
N10805 X2.6965 Y3.4363 Z-0.2366
N10810 X2.698 Y3.4343 Z-0.2367
N10815 X2.6996 Y3.4323 Z-0.2368
N10820 X2.7013 Y3.4304
N10825 X2.703 Y3.4285 Z-0.2369
N10830 X2.7049 Y3.4268 Z-0.237
N10835 X2.7068 Y3.4251 Z-0.2371
N10840 X2.7088 Y3.4235 Z-0.2372
N10845 X2.7109 Y3.422 Z-0.2373
N10850 X2.713 Y3.4206 Z-0.2374
N10855 X2.7152 Y3.4193 Z-0.2375
N10860 X2.7175 Y3.4181 Z-0.2376
N10865 X2.7198 Y3.417
N10870 X2.7221 Y3.416 Z-0.2377
N10875 X2.7245 Y3.4151 Z-0.2378
N10880 X2.7269 Y3.4144 Z-0.2379
N10885 X2.7294 Y3.4137 Z-0.238
N10890 X2.7319 Y3.4131 Z-0.2381
N10895 X2.7344 Y3.4127 Z-0.2382
N10900 X2.7369 Y3.4124 Z-0.2383
N10905 X2.7394 Y3.4121 Z-0.2384
N10910 X2.742 Y3.412
N10915 X2.7445 Z-0.2385
N10920 X2.7471 Y3.4122 Z-0.2386
N10925 X2.7496 Y3.4124 Z-0.2387
N10930 X2.7522 Y3.4127 Z-0.2388
N10935 X2.7547 Y3.4132 Z-0.2389
N10940 X2.7571 Y3.4138 Z-0.239
N10945 X2.7596 Y3.4145 Z-0.2391
N10950 X2.762 Y3.4153 Z-0.2392
N10955 X2.7644 Y3.4162
N10960 X2.7668 Y3.4172 Z-0.2393
N10965 X2.7691 Y3.4183 Z-0.2394
N10970 X2.7713 Y3.4195 Z-0.2395
N10975 X2.7735 Y3.4208 Z-0.2396
N10980 X2.7756 Y3.4222 Z-0.2397
N10985 X2.7777 Y3.4237 Z-0.2398
N10990 X2.7796 Y3.4253 Z-0.2399
N10995 X2.7816 Y3.427 Z-0.24
N11000 X2.7834 Y3.4288
N11005 X2.7851 Y3.4306 Z-0.2401
N11010 X2.7868 Y3.4325 Z-0.2402
N11015 X2.7884 Y3.4345 Z-0.2403
N11020 X2.7899 Y3.4366 Z-0.2404
N11025 X2.7913 Y3.4387 Z-0.2405
N11030 X2.7926 Y3.4409 Z-0.2406
N11035 X2.7938 Y3.4432 Z-0.2407
N11040 X2.7949 Y3.4455 Z-0.2408
N11045 X2.7959 Y3.4478
N11050 X2.7968 Y3.4502 Z-0.2409
N11055 X2.7975 Y3.4526 Z-0.241
N11060 X2.7982 Y3.4551 Z-0.2411
N11065 X2.7988 Y3.4576 Z-0.2412
N11070 X2.7992 Y3.4601 Z-0.2413
N11075 X2.7996 Y3.4626 Z-0.2414
N11080 X2.7998 Y3.4651 Z-0.2415
N11085 X2.7999 Y3.4677 Z-0.2416
N11090 X2.7998 Y3.4702
N11095 X2.7997 Y3.4728 Z-0.2417
N11100 X2.7991 Y3.4778 Z-0.2419
N11105 X2.7981 Y3.4828 Z-0.2421
N11110 X2.7974 Y3.4852 Z-0.2422
N11115 X2.7966 Y3.4876 Z-0.2423
N11120 X2.7947 Y3.4923 Z-0.2424
N11125 X2.7924 Y3.4968 Z-0.2426
N11130 X2.7911 Y3.499 Z-0.2427
N11135 X2.7897 Y3.5011 Z-0.2428
N11140 X2.7882 Y3.5032 Z-0.2429
N11145 X2.7866 Y3.5052 Z-0.243
N11150 X2.785 Y3.5071 Z-0.2431
N11155 X2.7832 Y3.5089
N11160 X2.7814 Y3.5107 Z-0.2432
N11165 X2.7794 Y3.5123 Z-0.2433
N11170 X2.7774 Y3.5139 Z-0.2434
N11175 X2.7754 Y3.5154 Z-0.2435
N11180 X2.7732 Y3.5168 Z-0.2436
N11185 X2.771 Y3.5181 Z-0.2437
N11190 X2.7688 Y3.5193 Z-0.2438
N11195 X2.7665 Y3.5204 Z-0.2439
N11200 X2.7642 Y3.5214
N11205 X2.7618 Y3.5223 Z-0.244
N11210 X2.7594 Y3.523 Z-0.2441
N11215 X2.757 Y3.5237 Z-0.2442
N11220 X2.7545 Y3.5243 Z-0.2443
N11225 X2.752 Y3.5247 Z-0.2444
N11230 X2.7495 Y3.525 Z-0.2445
N11235 X2.7469 Y3.5253 Z-0.2446
N11240 X2.7444 Y3.5254 Z-0.2447
N11245 X2.7419
N11250 X2.7393 Y3.5252 Z-0.2448
N11255 X2.7368 Y3.525 Z-0.2449
N11260 X2.7343 Y3.5246 Z-0.245
N11265 X2.7318 Y3.5242 Z-0.2451
N11270 X2.7293 Y3.5236 Z-0.2452
N11275 X2.7269 Y3.5229 Z-0.2453
N11280 X2.7245 Y3.5221 Z-0.2454
N11285 X2.7221 Y3.5212 Z-0.2455
N11290 X2.7198 Y3.5202
N11295 X2.7175 Y3.5191 Z-0.2456
N11300 X2.7153 Y3.5179 Z-0.2457
N11305 X2.7131 Y3.5166 Z-0.2458
N11310 X2.711 Y3.5152 Z-0.2459
N11315 X2.7089 Y3.5137 Z-0.246
N11320 X2.707 Y3.5121 Z-0.2461
N11325 X2.7051 Y3.5105 Z-0.2462
N11330 X2.7032 Y3.5087
N11335 X2.7015 Y3.5069 Z-0.2463
N11340 X2.6998 Y3.5049 Z-0.2464
N11345 X2.6983 Y3.503 Z-0.2465
N11350 X2.6968 Y3.5009 Z-0.2466
N11355 X2.6954 Y3.4988 Z-0.2467
N11360 X2.6941 Y3.4967 Z-0.2468
N11365 X2.6929 Y3.4944 Z-0.2469
N11370 X2.6918 Y3.4921 Z-0.247
N11375 X2.6908 Y3.4898
N11380 X2.69 Y3.4874 Z-0.2471
N11385 X2.6892 Y3.485 Z-0.2472
N11390 X2.6885 Y3.4826 Z-0.2473
N11395 X2.688 Y3.4801 Z-0.2474
N11400 X2.6875 Y3.4776 Z-0.2475
N11405 X2.6872 Y3.4751 Z-0.2476
N11410 X2.687 Y3.4726 Z-0.2477
N11415 X2.6869 Y3.4701
N11420 Y3.4675 Z-0.2478
N11425 X2.687 Y3.465 Z-0.2479
N11430 X2.6872 Y3.4625 Z-0.248
N11435 X2.6876 Y3.46 Z-0.2481
N11440 X2.688 Y3.4575 Z-0.2482
N11445 X2.6886 Y3.4551 Z-0.2483
N11450 X2.6893 Y3.4526 Z-0.2484
N11455 X2.6901 Y3.4502 Z-0.2485
N11460 X2.691 Y3.4478
N11465 X2.692 Y3.4455 Z-0.2486
N11470 X2.6931 Y3.4432 Z-0.2487
N11475 X2.6943 Y3.441 Z-0.2488
N11480 X2.6956 Y3.4388 Z-0.2489
N11485 X2.697 Y3.4367 Z-0.249
N11490 X2.6985 Y3.4347 Z-0.2491
N11495 X2.7001 Y3.4327 Z-0.2492
N11500 X2.7017 Y3.4308
N11505 X2.7035 Y3.429 Z-0.2493
N11510 X2.7053 Y3.4272 Z-0.2494
N11515 X2.7072 Y3.4256 Z-0.2495
N11520 X2.7092 Y3.424 Z-0.2496
N11525 X2.7112 Y3.4225 Z-0.2497
N11530 X2.7134 Y3.4212 Z-0.2498
N11535 X2.7155 Y3.4199 Z-0.2499
N11540 X2.7178 Y3.4187
N11545 X2.72 Y3.4176 Z-0.25
N11550 X2.7223 Y3.4166 Z-0.2501
N11555 X2.7247 Y3.4157 Z-0.2502
N11560 X2.7271 Y3.415 Z-0.2503
N11565 X2.7295 Y3.4143 Z-0.2504
N11570 X2.732 Y3.4138 Z-0.2505
N11575 X2.7345 Y3.4133 Z-0.2506
N11580 X2.737 Y3.413 Z-0.2507
N11585 X2.7395 Y3.4128
N11590 X2.742 Y3.4127 Z-0.2508
N11595 X2.7445 Z-0.2509
N11600 X2.7471 Y3.4128 Z-0.251
N11605 X2.7496 Y3.413 Z-0.2511
N11610 X2.7521 Y3.4134 Z-0.2512
N11615 X2.7545 Y3.4138 Z-0.2513
N11620 X2.757 Y3.4144 Z-0.2514
N11625 X2.7594 Y3.4151
N11630 X2.7618 Y3.4158 Z-0.2515
N11635 X2.7642 Y3.4167 Z-0.2516
N11640 X2.7665 Y3.4177 Z-0.2517
N11645 X2.7688 Y3.4189 Z-0.2518
N11650 X2.771 Y3.4201 Z-0.2519
N11655 X2.7731 Y3.4213 Z-0.252
N11660 X2.7752 Y3.4227 Z-0.2521
N11665 X2.7773 Y3.4242
N11670 X2.7792 Y3.4258 Z-0.2522
N11675 X2.7811 Y3.4275 Z-0.2523
N11680 X2.7829 Y3.4292 Z-0.2524
N11685 X2.7847 Y3.431 Z-0.2525
N11690 X2.7863 Y3.4329 Z-0.2526
N11695 X2.7879 Y3.4349 Z-0.2527
N11700 X2.7894 Y3.437 Z-0.2528
N11705 X2.7908 Y3.4391
N11710 X2.792 Y3.4412 Z-0.2529
N11715 X2.7932 Y3.4434 Z-0.253
N11720 X2.7943 Y3.4457 Z-0.2531
N11725 X2.7953 Y3.448 Z-0.2532
N11730 X2.7962 Y3.4504 Z-0.2533
N11735 X2.7969 Y3.4528 Z-0.2534
N11740 X2.7976 Y3.4552 Z-0.2535
N11745 X2.7982 Y3.4577 Z-0.2536
N11750 X2.7986 Y3.4602
N11755 X2.7989 Y3.4626 Z-0.2537
N11760 X2.7993 Y3.4677 Z-0.2539
N11765 X2.7992 Y3.4702 Z-0.254
N11770 X2.7991 Y3.4727 Z-0.2541
N11775 X2.7985 Y3.4777 Z-0.2543
N11780 X2.7975 Y3.4826 Z-0.2544
N11785 X2.7968 Y3.485 Z-0.2545
N11790 X2.7961 Y3.4874 Z-0.2546
N11795 X2.7941 Y3.4921 Z-0.2548
N11800 X2.7919 Y3.4965 Z-0.255
N11805 X2.7906 Y3.4987
N11810 X2.7892 Y3.5008 Z-0.2551
N11815 X2.7877 Y3.5028 Z-0.2552
N11820 X2.7862 Y3.5048 Z-0.2553
N11825 X2.7845 Y3.5067 Z-0.2554
N11830 X2.7827 Y3.5085 Z-0.2555
N11835 X2.7809 Y3.5102 Z-0.2556
N11840 X2.779 Y3.5119 Z-0.2557
N11845 X2.7771 Y3.5134
N11850 X2.775 Y3.5149 Z-0.2558
N11855 X2.7729 Y3.5163 Z-0.2559
N11860 X2.7707 Y3.5176 Z-0.256
N11865 X2.7685 Y3.5187 Z-0.2561
N11870 X2.7663 Y3.5198 Z-0.2562
N11875 X2.764 Y3.5208 Z-0.2563
N11880 X2.7616 Y3.5217 Z-0.2564
N11885 X2.7592 Y3.5224
N11890 X2.7568 Y3.5231 Z-0.2565
N11895 X2.7544 Y3.5236 Z-0.2566
N11900 X2.7519 Y3.5241 Z-0.2567
N11905 X2.7494 Y3.5244 Z-0.2568
N11910 X2.7469 Y3.5246 Z-0.2569
N11915 X2.7444 Y3.5247 Z-0.257
N11920 X2.7419 Z-0.2571
N11925 X2.7394 Y3.5246
N11930 X2.7369 Y3.5244 Z-0.2572
N11935 X2.7344 Y3.524 Z-0.2573
N11940 X2.7319 Y3.5236 Z-0.2574
N11945 X2.7295 Y3.523 Z-0.2575
N11950 X2.7271 Y3.5223 Z-0.2576
N11955 X2.7247 Y3.5216 Z-0.2577
N11960 X2.7223 Y3.5207 Z-0.2578
N11965 X2.72 Y3.5197
N11970 X2.7178 Y3.5186 Z-0.2579
N11975 X2.7156 Y3.5174 Z-0.258
N11980 X2.7134 Y3.5161 Z-0.2581
N11985 X2.7113 Y3.5147 Z-0.2582
N11990 X2.7093 Y3.5132 Z-0.2583
N11995 X2.7074 Y3.5117 Z-0.2584
N12000 X2.7055 Y3.51 Z-0.2585
N12005 X2.7037 Y3.5083
N12010 X2.702 Y3.5065 Z-0.2586
N12015 X2.7003 Y3.5046 Z-0.2587
N12020 X2.6988 Y3.5026 Z-0.2588
N12025 X2.6973 Y3.5006 Z-0.2589
N12030 X2.6959 Y3.4985 Z-0.259
N12035 X2.6947 Y3.4963 Z-0.2591
N12040 X2.6935 Y3.4941 Z-0.2592
N12045 X2.6924 Y3.4919
N12050 X2.6914 Y3.4896 Z-0.2593
N12055 X2.6905 Y3.4872 Z-0.2594
N12060 X2.6898 Y3.4848 Z-0.2595
N12065 X2.6891 Y3.4824 Z-0.2596
N12070 X2.6886 Y3.48 Z-0.2597
N12075 X2.6881 Y3.4775 Z-0.2598
N12080 X2.6878 Y3.475 Z-0.2599
N12085 X2.6876 Y3.4725
N12090 X2.6875 Y3.47 Z-0.26
N12095 Y3.4675 Z-0.2601
N12100 X2.6876 Y3.465 Z-0.2602
N12105 X2.6878 Y3.4625 Z-0.2603
N12110 X2.6882 Y3.4601 Z-0.2604
N12115 X2.6886 Y3.4576 Z-0.2605
N12120 X2.6892 Y3.4552
N12125 X2.6899 Y3.4528 Z-0.2606
N12130 X2.6907 Y3.4504 Z-0.2607
N12135 X2.6915 Y3.448 Z-0.2608
N12140 X2.6925 Y3.4457 Z-0.2609
N12145 X2.6936 Y3.4435 Z-0.261
N12150 X2.6948 Y3.4413 Z-0.2611
N12155 X2.6961 Y3.4392 Z-0.2612
N12160 X2.6975 Y3.4371
N12165 X2.699 Y3.4351 Z-0.2613
N12170 X2.7005 Y3.4331 Z-0.2614
N12175 X2.7022 Y3.4312 Z-0.2615
N12180 X2.7039 Y3.4294 Z-0.2616
N12185 X2.7057 Y3.4277 Z-0.2617
N12190 X2.7076 Y3.4261 Z-0.2618
N12195 X2.7096 Y3.4245 Z-0.2619
N12200 X2.7116 Y3.4231
N12205 X2.7137 Y3.4217 Z-0.262
N12210 X2.7158 Y3.4204 Z-0.2621
N12215 X2.718 Y3.4192 Z-0.2622
N12220 X2.7203 Y3.4182 Z-0.2623
N12225 X2.7226 Y3.4172 Z-0.2624
N12230 X2.7249 Y3.4163 Z-0.2625
N12235 X2.7273 Y3.4156 Z-0.2626
N12240 X2.7297 Y3.4149
N12245 X2.7321 Y3.4144 Z-0.2627
N12250 X2.7346 Y3.4139 Z-0.2628
N12255 X2.737 Y3.4136 Z-0.2629
N12260 X2.7395 Y3.4134 Z-0.263
N12265 X2.742 Y3.4133 Z-0.2631
N12270 X2.7445 Z-0.2632
N12275 X2.747 Y3.4134
N12280 X2.7495 Y3.4136 Z-0.2633
N12285 X2.752 Y3.414 Z-0.2634
N12290 X2.7544 Y3.4144 Z-0.2635
N12295 X2.7568 Y3.415 Z-0.2636
N12300 X2.7592 Y3.4157 Z-0.2637
N12305 X2.7616 Y3.4164 Z-0.2638
N12310 X2.7639 Y3.4173 Z-0.2639
N12315 X2.7662 Y3.4183
N12320 X2.7685 Y3.4194 Z-0.264
N12325 X2.7707 Y3.4206 Z-0.2641
N12330 X2.7728 Y3.4219 Z-0.2642
N12335 X2.7749 Y3.4232 Z-0.2643
N12340 X2.7769 Y3.4247 Z-0.2644
N12345 X2.7788 Y3.4263 Z-0.2645
N12350 X2.7807 Y3.4279 Z-0.2646
N12355 X2.7825 Y3.4296
N12360 X2.7842 Y3.4315 Z-0.2647
N12365 X2.7859 Y3.4333 Z-0.2648
N12370 X2.7874 Y3.4353 Z-0.2649
N12375 X2.7889 Y3.4373 Z-0.265
N12380 X2.7902 Y3.4394 Z-0.2651
N12385 X2.7915 Y3.4415 Z-0.2652
N12390 X2.7927 Y3.4437
N12395 X2.7937 Y3.446 Z-0.2653
N12400 X2.7947 Y3.4483 Z-0.2654
N12405 X2.7956 Y3.4506 Z-0.2655
N12410 X2.7963 Y3.453 Z-0.2656
N12415 X2.797 Y3.4554 Z-0.2657
N12420 X2.7975 Y3.4578 Z-0.2658
N12425 X2.798 Y3.4602 Z-0.2659
N12430 X2.7983 Y3.4627
N12435 X2.7986 Y3.4677 Z-0.2661
N12440 Y3.4702 Z-0.2662
N12445 X2.7985 Y3.4726 Z-0.2663
N12450 X2.7979 Y3.4776 Z-0.2665
N12455 X2.7969 Y3.4825 Z-0.2666
N12460 X2.7962 Y3.4848 Z-0.2667
N12465 X2.7955 Y3.4872 Z-0.2668
N12470 X2.7936 Y3.4918 Z-0.267
N12475 X2.7913 Y3.4962 Z-0.2672
N12480 X2.7901 Y3.4984
N12485 X2.7887 Y3.5004 Z-0.2673
N12490 X2.7872 Y3.5024 Z-0.2674
N12495 X2.7857 Y3.5044 Z-0.2675
N12500 X2.784 Y3.5062 Z-0.2676
N12505 X2.7823 Y3.508 Z-0.2677
N12510 X2.7805 Y3.5097 Z-0.2678
N12515 X2.7786 Y3.5114
N12520 X2.7767 Y3.5129 Z-0.2679
N12525 X2.7747 Y3.5144 Z-0.268
N12530 X2.7726 Y3.5157 Z-0.2681
N12535 X2.7704 Y3.517 Z-0.2682
N12540 X2.7683 Y3.5182 Z-0.2683
N12545 X2.766 Y3.5192 Z-0.2684
N12550 X2.7637 Y3.5202 Z-0.2685
N12555 X2.7614 Y3.5211
N12560 X2.7591 Y3.5218 Z-0.2686
N12565 X2.7567 Y3.5225 Z-0.2687
N12570 X2.7542 Y3.523 Z-0.2688
N12575 X2.7518 Y3.5235 Z-0.2689
N12580 X2.7493 Y3.5238 Z-0.269
N12585 X2.7469 Y3.524 Z-0.2691
N12590 X2.7444 Y3.5241
N12595 X2.7419 Z-0.2692
N12600 X2.7394 Y3.524 Z-0.2693
N12605 X2.737 Y3.5238 Z-0.2694
N12610 X2.7345 Y3.5234 Z-0.2695
N12615 X2.7321 Y3.523 Z-0.2696
N12620 X2.7296 Y3.5224 Z-0.2697
N12625 X2.7273 Y3.5217 Z-0.2698
N12630 X2.7249 Y3.521
N12635 X2.7226 Y3.5201 Z-0.2699
N12640 X2.7203 Y3.5191 Z-0.27
N12645 X2.7181 Y3.518 Z-0.2701
N12650 X2.7159 Y3.5168 Z-0.2702
N12655 X2.7138 Y3.5156 Z-0.2703
N12660 X2.7117 Y3.5142 Z-0.2704
N12665 X2.7097 Y3.5127
N12670 X2.7078 Y3.5112 Z-0.2705
N12675 X2.7059 Y3.5096 Z-0.2706
N12680 X2.7041 Y3.5078 Z-0.2707
N12685 X2.7024 Y3.506 Z-0.2708
N12690 X2.7008 Y3.5042 Z-0.2709
N12695 X2.6993 Y3.5022 Z-0.271
N12700 X2.6978 Y3.5002
N12705 X2.6965 Y3.4982 Z-0.2711
N12710 X2.6952 Y3.496 Z-0.2712
N12715 X2.694 Y3.4938 Z-0.2713
N12720 X2.693 Y3.4916 Z-0.2714
N12725 X2.692 Y3.4893 Z-0.2715
N12730 X2.6911 Y3.487 Z-0.2716
N12735 X2.6904 Y3.4846 Z-0.2717
N12740 X2.6897 Y3.4823
N12745 X2.6892 Y3.4798 Z-0.2718
N12750 X2.6887 Y3.4774 Z-0.2719
N12755 X2.6884 Y3.475 Z-0.272
N12760 X2.6882 Y3.4725 Z-0.2721
N12765 X2.6881 Y3.47 Z-0.2722
N12770 Y3.4676 Z-0.2723
N12775 X2.6882 Y3.4651
N12780 X2.6885 Y3.4626 Z-0.2724
N12785 X2.6888 Y3.4602 Z-0.2725
N12790 X2.6892 Y3.4577 Z-0.2726
N12795 X2.6898 Y3.4553 Z-0.2727
N12800 X2.6905 Y3.4529 Z-0.2728
N12805 X2.6912 Y3.4506 Z-0.2729
N12810 X2.6921 Y3.4483
N12815 X2.6931 Y3.446 Z-0.273
N12820 X2.6942 Y3.4438 Z-0.2731
N12825 X2.6953 Y3.4416 Z-0.2732
N12830 X2.6966 Y3.4395 Z-0.2733
N12835 X2.698 Y3.4374 Z-0.2734
N12840 X2.6994 Y3.4354 Z-0.2735
N12845 X2.701 Y3.4335
N12850 X2.7026 Y3.4317 Z-0.2736
N12855 X2.7043 Y3.4299 Z-0.2737
N12860 X2.7061 Y3.4282 Z-0.2738
N12865 X2.708 Y3.4266 Z-0.2739
N12870 X2.7099 Y3.425 Z-0.274
N12875 X2.7119 Y3.4236 Z-0.2741
N12880 X2.714 Y3.4222 Z-0.2742
N12885 X2.7161 Y3.421
N12890 X2.7183 Y3.4198 Z-0.2743
N12895 X2.7205 Y3.4187 Z-0.2744
N12900 X2.7228 Y3.4178 Z-0.2745
N12905 X2.7251 Y3.4169 Z-0.2746
N12910 X2.7275 Y3.4162 Z-0.2747
N12915 X2.7298 Y3.4155 Z-0.2748
N12920 X2.7322 Y3.415
N12925 X2.7347 Y3.4145 Z-0.2749
N12930 X2.7371 Y3.4142 Z-0.275
N12935 X2.7396 Y3.414 Z-0.2751
N12940 X2.742 Y3.4139 Z-0.2752
N12945 X2.7445 Z-0.2753
N12950 X2.747 Y3.414 Z-0.2754
N12955 X2.7494 Y3.4142
N12960 X2.7515 Y3.4145 Z-0.2755
N12965 X2.7536 Y3.4149 Z-0.2756
N12970 X2.7538
N12975 X2.755 Y3.4152
N12980 X2.7563 Y3.4155 Z-0.2757
N12985 X2.7588 Y3.4162 Z-0.2758
N12990 X2.7612 Y3.4169 Z-0.2759
N12995 X2.7636 Y3.4178
N13000 X2.7659 Y3.4188 Z-0.276
N13005 X2.7682 Y3.4199 Z-0.2761
N13010 X2.7704 Y3.4211 Z-0.2762
N13015 X2.7726 Y3.4225 Z-0.2763
N13020 X2.7747 Y3.4239 Z-0.2764
N13025 X2.7767 Y3.4253 Z-0.2765
N13030 X2.7786 Y3.4269 Z-0.2766
N13035 X2.7805 Y3.4286 Z-0.2767
N13040 X2.7824 Y3.4304
N13045 X2.7841 Y3.4322 Z-0.2768
N13050 X2.7858 Y3.4342 Z-0.2769
N13055 X2.7873 Y3.4362 Z-0.277
N13060 X2.7888 Y3.4383 Z-0.2771
N13065 X2.7901 Y3.4404 Z-0.2772
N13070 X2.7914 Y3.4426 Z-0.2773
N13075 X2.7926 Y3.4448 Z-0.2774
N13080 X2.7936 Y3.4471
N13085 X2.7945 Y3.4495 Z-0.2775
N13090 X2.7954 Y3.4519 Z-0.2776
N13095 X2.7957 Y3.4531 Z-0.2777
N13100 X2.7961 Y3.4543
N13105 X2.7967 Y3.4568 Z-0.2778
N13110 X2.7972 Y3.4593 Z-0.2779
N13115 X2.7976 Y3.4618 Z-0.278
N13120 X2.7979 Y3.4643 Z-0.2781
N13125 X2.798 Y3.4668 Z-0.2782
N13130 Y3.4694
N13135 X2.7977 Y3.4744 Z-0.2784
N13140 X2.7974 Y3.4769 Z-0.2785
N13145 X2.797 Y3.4794 Z-0.2786
N13150 X2.7964 Y3.4819 Z-0.2787
N13155 X2.7957 Y3.4844 Z-0.2788
N13160 X2.7941 Y3.4891 Z-0.279
N13165 X2.7931 Y3.4914
N13170 X2.792 Y3.4937 Z-0.2791
N13175 X2.7895 Y3.4981 Z-0.2793
N13180 X2.7881 Y3.5002 Z-0.2794
N13185 X2.7866 Y3.5023 Z-0.2795
N13190 X2.785 Y3.5042 Z-0.2796
N13195 X2.7833 Y3.5061 Z-0.2797
N13200 X2.7815 Y3.5079
N13205 X2.7797 Y3.5097 Z-0.2798
N13210 X2.7777 Y3.5113 Z-0.2799
N13215 X2.7757 Y3.5128 Z-0.28
N13220 X2.7737 Y3.5143 Z-0.2801
N13225 X2.7715 Y3.5157 Z-0.2802
N13230 X2.7693 Y3.5169 Z-0.2803
N13235 X2.7671 Y3.5181 Z-0.2804
N13240 X2.7648 Y3.5191
N13245 X2.7636 Y3.5196 Z-0.2805
N13250 X2.7625 Y3.52
N13255 X2.7601 Y3.5209 Z-0.2806
N13260 X2.7577 Y3.5216 Z-0.2807
N13265 X2.7552 Y3.5222 Z-0.2808
N13270 X2.7527 Y3.5227 Z-0.2809
N13275 X2.7503 Y3.523 Z-0.281
N13280 X2.7478 Y3.5233 Z-0.2811
N13285 X2.7452 Y3.5235 Z-0.2812
N13290 X2.7427
N13295 X2.7402 Y3.5234 Z-0.2813
N13300 X2.7377 Y3.5232 Z-0.2814
N13305 X2.7352 Y3.5229 Z-0.2815
N13310 X2.7327 Y3.5224 Z-0.2816
N13315 X2.7302 Y3.5219 Z-0.2817
N13320 X2.7278 Y3.5212 Z-0.2818
N13325 X2.7254 Y3.5204 Z-0.2819
N13330 X2.723 Y3.5196
N13335 X2.7207 Y3.5186 Z-0.282
N13340 X2.7184 Y3.5175 Z-0.2821
N13345 X2.7162 Y3.5163 Z-0.2822
N13350 X2.7141 Y3.515 Z-0.2823
N13355 X2.712 Y3.5136 Z-0.2824
N13360 X2.7099 Y3.5121 Z-0.2825
N13365 X2.708 Y3.5105 Z-0.2826
N13370 X2.7061 Y3.5088
N13375 X2.7043 Y3.5071 Z-0.2827
N13380 X2.7026 Y3.5052 Z-0.2828
N13385 X2.7009 Y3.5033 Z-0.2829
N13390 X2.6994 Y3.5013 Z-0.283
N13395 X2.6979 Y3.4992 Z-0.2831
N13400 X2.6966 Y3.4971 Z-0.2832
N13405 X2.6953 Y3.4949 Z-0.2833
N13410 X2.6942 Y3.4927 Z-0.2834
N13415 X2.6931 Y3.4904
N13420 X2.6922 Y3.4881 Z-0.2835
N13425 X2.6918 Y3.4869 Z-0.2836
N13430 X2.6914 Y3.4857
N13435 X2.6907 Y3.4833 Z-0.2837
N13440 X2.6901 Y3.4808 Z-0.2838
N13445 X2.6896 Y3.4784 Z-0.2839
N13450 X2.6892 Y3.4759 Z-0.284
N13455 X2.6889 Y3.4733 Z-0.2841
N13460 X2.6888 Y3.4709
N13465 Y3.4683 Z-0.2842
N13470 X2.6889 Y3.4658 Z-0.2843
N13475 X2.6891 Y3.4633 Z-0.2844
N13480 X2.6894 Y3.4608 Z-0.2845
N13485 X2.6898 Y3.4584 Z-0.2846
N13490 X2.6904 Y3.4559 Z-0.2847
N13495 X2.691 Y3.4535 Z-0.2848
N13500 X2.6918 Y3.4511
N13505 X2.6927 Y3.4487 Z-0.2849
N13510 X2.6937 Y3.4464 Z-0.285
N13515 X2.6947 Y3.4442 Z-0.2851
N13520 X2.6959 Y3.442 Z-0.2852
N13525 X2.6972 Y3.4398 Z-0.2853
N13530 X2.6986 Y3.4377 Z-0.2854
N13535 X2.7001 Y3.4357 Z-0.2855
N13540 X2.7017 Y3.4337
N13545 X2.7034 Y3.4319 Z-0.2856
N13550 X2.7051 Y3.4301 Z-0.2857
N13555 X2.707 Y3.4283 Z-0.2858
N13560 X2.7089 Y3.4267 Z-0.2859
N13565 X2.7109 Y3.4252 Z-0.286
N13570 X2.7129 Y3.4237 Z-0.2861
N13575 X2.715 Y3.4224 Z-0.2862
N13580 X2.7172 Y3.4211
N13585 X2.7195 Y3.42 Z-0.2863
N13590 X2.7217 Y3.419 Z-0.2864
N13595 X2.7241 Y3.418 Z-0.2865
N13600 X2.7252 Y3.4176
N13605 X2.7264 Y3.4172 Z-0.2866
N13610 X2.7288 Y3.4165 Z-0.2867
N13615 X2.7313 Y3.4159 Z-0.2868
N13620 X2.7337 Y3.4154 Z-0.2869
N13625 X2.7362 Y3.415
N13630 X2.7387 Y3.4148 Z-0.287
N13635 X2.7412 Y3.4146 Z-0.2871
N13640 X2.7437 Z-0.2872
N13645 X2.7462 Y3.4147 Z-0.2873
N13650 X2.7487 Y3.4149 Z-0.2874
N13655 X2.7512 Y3.4152 Z-0.2875
N13660 X2.7537 Y3.4156 Z-0.2876
N13665 X2.7561 Y3.4162
N13670 X2.7585 Y3.4168 Z-0.2877
N13675 X2.7609 Y3.4176 Z-0.2878
N13680 X2.7633 Y3.4185 Z-0.2879
N13685 X2.7656 Y3.4195 Z-0.288
N13690 X2.7679 Y3.4206 Z-0.2881
N13695 X2.7701 Y3.4218 Z-0.2882
N13700 X2.7722 Y3.4231 Z-0.2883
N13705 X2.7743 Y3.4244
N13710 X2.7763 Y3.4259 Z-0.2884
N13715 X2.7782 Y3.4275 Z-0.2885
N13720 X2.78 Y3.4291 Z-0.2886
N13725 X2.7818 Y3.4309 Z-0.2887
N13730 X2.7836 Y3.4327 Z-0.2888
N13735 X2.7852 Y3.4346 Z-0.2889
N13740 X2.7867 Y3.4366 Z-0.289
N13745 X2.7882 Y3.4387
N13750 X2.7895 Y3.4408 Z-0.2891
N13755 X2.7908 Y3.4429 Z-0.2892
N13760 X2.7919 Y3.4452 Z-0.2893
N13765 X2.7929 Y3.4474 Z-0.2894
N13770 X2.7939 Y3.4498 Z-0.2895
N13775 X2.7947 Y3.4521 Z-0.2896
N13780 X2.795 Y3.4533
N13785 X2.7954 Y3.4545
N13790 X2.796 Y3.4569 Z-0.2897
N13795 X2.7965 Y3.4594 Z-0.2898
N13800 X2.7969 Y3.4619 Z-0.2899
N13805 X2.7971 Y3.4644 Z-0.29
N13810 X2.7973 Y3.4669 Z-0.2901
N13815 Y3.4693 Z-0.2902
N13820 X2.797 Y3.4743 Z-0.2903
N13825 X2.7962 Y3.4793 Z-0.2905
N13830 X2.7957 Y3.4817 Z-0.2906
N13835 X2.795 Y3.4841 Z-0.2907
N13840 X2.7934 Y3.4888 Z-0.2909
N13845 X2.7924 Y3.4911 Z-0.291
N13850 X2.7913 Y3.4934
N13855 X2.7889 Y3.4977 Z-0.2912
N13860 X2.7875 Y3.4998 Z-0.2913
N13865 X2.786 Y3.5018 Z-0.2914
N13870 X2.7844 Y3.5038 Z-0.2915
N13875 X2.7827 Y3.5056 Z-0.2916
N13880 X2.781 Y3.5074 Z-0.2917
N13885 X2.7792 Y3.5091
N13890 X2.7773 Y3.5107 Z-0.2918
N13895 X2.7753 Y3.5122 Z-0.2919
N13900 X2.7733 Y3.5137 Z-0.292
N13905 X2.7712 Y3.515 Z-0.2921
N13910 X2.769 Y3.5163 Z-0.2922
N13915 X2.7668 Y3.5174 Z-0.2923
N13920 X2.7645 Y3.5184
N13925 X2.7634 Y3.5189 Z-0.2924
N13930 X2.7622 Y3.5193
N13935 X2.7598 Y3.5202 Z-0.2925
N13940 X2.7575 Y3.5209 Z-0.2926
N13945 X2.755 Y3.5215 Z-0.2927
N13950 X2.7526 Y3.5219 Z-0.2928
N13955 X2.7502 Y3.5223 Z-0.2929
N13960 X2.7477 Y3.5226 Z-0.293
N13965 X2.7452 Y3.5227
N13970 X2.7427 Z-0.2931
N13975 X2.7402 Z-0.2932
N13980 X2.7377 Y3.5225 Z-0.2933
N13985 X2.7353 Y3.5221 Z-0.2934
N13990 X2.7328 Y3.5217 Z-0.2935
N13995 X2.7304 Y3.5212 Z-0.2936
N14000 X2.728 Y3.5205
N14005 X2.7256 Y3.5198 Z-0.2937
N14010 X2.7233 Y3.5189 Z-0.2938
N14015 X2.721 Y3.5179 Z-0.2939
N14020 X2.7188 Y3.5168 Z-0.294
N14025 X2.7166 Y3.5156 Z-0.2941
N14030 X2.7145 Y3.5144 Z-0.2942
N14035 X2.7124 Y3.513 Z-0.2943
N14040 X2.7104 Y3.5115
N14045 X2.7084 Y3.5099 Z-0.2944
N14050 X2.7066 Y3.5083 Z-0.2945
N14055 X2.7048 Y3.5065 Z-0.2946
N14060 X2.7031 Y3.5047 Z-0.2947
N14065 X2.7015 Y3.5028 Z-0.2948
N14070 X2.7 Y3.5009 Z-0.2949
N14075 X2.6985 Y3.4988
N14080 X2.6972 Y3.4967 Z-0.295
N14085 X2.696 Y3.4946 Z-0.2951
N14090 X2.6948 Y3.4924 Z-0.2952
N14095 X2.6938 Y3.4901 Z-0.2953
N14100 X2.6934 Y3.489
N14105 X2.6929 Y3.4878 Z-0.2954
N14110 X2.6921 Y3.4855 Z-0.2955
N14115 X2.6914 Y3.4831 Z-0.2956
N14120 X2.6908 Y3.4807
N14125 X2.6903 Y3.4782 Z-0.2957
N14130 X2.6899 Y3.4758 Z-0.2958
N14135 X2.6897 Y3.4733 Z-0.2959
N14140 X2.6895 Y3.4708 Z-0.296
N14145 Y3.4683 Z-0.2961
N14150 X2.6896 Y3.4659 Z-0.2962
N14155 X2.6898 Y3.4634
N14160 X2.6901 Y3.4609 Z-0.2963
N14165 X2.6905 Y3.4585 Z-0.2964
N14170 X2.6911 Y3.4561 Z-0.2965
N14175 X2.6917 Y3.4537 Z-0.2966
N14180 X2.6925 Y3.4513 Z-0.2967
N14185 X2.6934 Y3.449 Z-0.2968
N14190 X2.6943 Y3.4467 Z-0.2969
N14195 X2.6954 Y3.4445
N14200 X2.6966 Y3.4423 Z-0.297
N14205 X2.6979 Y3.4402 Z-0.2971
N14210 X2.6992 Y3.4381 Z-0.2972
N14215 X2.7007 Y3.4361 Z-0.2973
N14220 X2.7023 Y3.4342 Z-0.2974
N14225 X2.7039 Y3.4324 Z-0.2975
N14230 X2.7057 Y3.4306
N14235 X2.7075 Y3.4289 Z-0.2976
N14240 X2.7094 Y3.4273 Z-0.2977
N14245 X2.7113 Y3.4258 Z-0.2978
N14250 X2.7133 Y3.4243 Z-0.2979
N14255 X2.7154 Y3.423 Z-0.298
N14260 X2.7176 Y3.4218 Z-0.2981
N14265 X2.7198 Y3.4207
N14270 X2.722 Y3.4196 Z-0.2982
N14275 X2.7243 Y3.4187 Z-0.2983
N14280 X2.7255 Y3.4183 Z-0.2984
N14285 X2.7267 Y3.4179
N14290 X2.729 Y3.4172 Z-0.2985
N14295 X2.7314 Y3.4166 Z-0.2986
N14300 X2.7339 Y3.4161 Z-0.2987
N14305 X2.7363 Y3.4157 Z-0.2988
N14310 X2.7388 Y3.4155
N14315 X2.7412 Y3.4154 Z-0.2989
N14320 X2.7437 Y3.4153 Z-0.299
N14325 X2.7462 Y3.4154 Z-0.2991
N14330 X2.7486 Y3.4156 Z-0.2992
N14335 X2.7511 Y3.4159 Z-0.2993
N14340 X2.7535 Y3.4163 Z-0.2994
N14345 X2.7559 Y3.4169
N14350 X2.7583 Y3.4175 Z-0.2995
N14355 X2.7607 Y3.4183 Z-0.2996
N14360 X2.763 Y3.4192 Z-0.2997
N14365 X2.7653 Y3.4201 Z-0.2998
N14370 X2.7675 Y3.4212 Z-0.2999
N14375 X2.7697 Y3.4224 Z-0.3
N14380 X2.7718 Y3.4237
N14385 X2.7738 Y3.425 Z-0.3001
N14390 X2.7758 Y3.4265 Z-0.3002
N14395 X2.7777 Y3.428 Z-0.3003
N14400 X2.7796 Y3.4297 Z-0.3004
N14405 X2.7813 Y3.4314 Z-0.3005
N14410 X2.783 Y3.4332 Z-0.3006
N14415 X2.7846 Y3.4351
N14420 X2.7862 Y3.4371 Z-0.3007
N14425 X2.7876 Y3.4391 Z-0.3008
N14430 X2.7889 Y3.4412 Z-0.3009
N14435 X2.7901 Y3.4433 Z-0.301
N14440 X2.7912 Y3.4455 Z-0.3011
N14445 X2.7923 Y3.4477 Z-0.3012
N14450 X2.7932 Y3.45 Z-0.3013
N14455 X2.7936 Y3.4512
N14460 X2.794 Y3.4523
N14465 X2.7947 Y3.4547 Z-0.3014
N14470 X2.7953 Y3.4571 Z-0.3015
N14475 X2.7958 Y3.4595 Z-0.3016
N14480 X2.7961 Y3.462 Z-0.3017
N14485 X2.7964 Y3.4644 Z-0.3018
N14490 X2.7965 Y3.4669 Z-0.3019
N14495 Y3.4693
N14500 X2.7962 Y3.4743 Z-0.3021
N14505 X2.7955 Y3.4791 Z-0.3023
N14510 X2.795 Y3.4815 Z-0.3024
N14515 X2.7943 Y3.4839 Z-0.3025
N14520 X2.7927 Y3.4886 Z-0.3026
N14525 X2.7917 Y3.4908 Z-0.3027
N14530 X2.7907 Y3.4931 Z-0.3028
N14535 X2.7882 Y3.4973 Z-0.303
N14540 X2.7869 Y3.4994 Z-0.3031
N14545 X2.7854 Y3.5014
N14550 X2.7839 Y3.5033 Z-0.3032
N14555 X2.7822 Y3.5051 Z-0.3033
N14560 X2.7805 Y3.5069 Z-0.3034
N14565 X2.7787 Y3.5086 Z-0.3035
N14570 X2.7768 Y3.5102 Z-0.3036
N14575 X2.7749 Y3.5117 Z-0.3037
N14580 X2.7729 Y3.5131
N14585 X2.7708 Y3.5144 Z-0.3038
N14590 X2.7687 Y3.5156 Z-0.3039
N14595 X2.7665 Y3.5167 Z-0.304
N14600 X2.7642 Y3.5178 Z-0.3041
N14605 X2.7631 Y3.5182
N14610 X2.7619 Y3.5187 Z-0.3042
N14615 X2.7596 Y3.5195 Z-0.3043
N14620 X2.7573 Y3.5202
N14625 X2.7549 Y3.5208 Z-0.3044
N14630 X2.7525 Y3.5212 Z-0.3045
N14635 X2.7501 Y3.5216 Z-0.3046
N14640 X2.7476 Y3.5218 Z-0.3047
N14645 X2.7452 Y3.522 Z-0.3048
N14650 X2.7427 Z-0.3049
N14655 X2.7403 Y3.5219
N14660 X2.7378 Y3.5217 Z-0.305
N14665 X2.7354 Y3.5214 Z-0.3051
N14670 X2.7329 Y3.521 Z-0.3052
N14675 X2.7305 Y3.5205 Z-0.3053
N14680 X2.7282 Y3.5198 Z-0.3054
N14685 X2.7258 Y3.5191 Z-0.3055
N14690 X2.7235 Y3.5182
N14695 X2.7213 Y3.5172 Z-0.3056
N14700 X2.7191 Y3.5162 Z-0.3057
N14705 X2.7169 Y3.515 Z-0.3058
N14710 X2.7148 Y3.5137 Z-0.3059
N14715 X2.7128 Y3.5124 Z-0.306
N14720 X2.7108 Y3.5109 Z-0.3061
N14725 X2.7089 Y3.5094
N14730 X2.7071 Y3.5077 Z-0.3062
N14735 X2.7053 Y3.506 Z-0.3063
N14740 X2.7036 Y3.5042 Z-0.3064
N14745 X2.7021 Y3.5024 Z-0.3065
N14750 X2.7006 Y3.5004 Z-0.3066
N14755 X2.6991 Y3.4984 Z-0.3067
N14760 X2.6978 Y3.4963
N14765 X2.6966 Y3.4942 Z-0.3068
N14770 X2.6955 Y3.492 Z-0.3069
N14775 X2.6945 Y3.4898 Z-0.307
N14780 X2.694 Y3.4887
N14785 X2.6936 Y3.4875 Z-0.3071
N14790 X2.6928 Y3.4852 Z-0.3072
N14795 X2.6921 Y3.4829 Z-0.3073
N14800 X2.6915 Y3.4805
N14805 X2.691 Y3.4781 Z-0.3074
N14810 X2.6906 Y3.4757 Z-0.3075
N14815 X2.6904 Y3.4732 Z-0.3076
N14820 X2.6903 Y3.4708 Z-0.3077
N14825 X2.6902 Y3.4683 Z-0.3078
N14830 X2.6903 Y3.4659
N14835 X2.6905 Y3.4635 Z-0.3079
N14840 X2.6908 Y3.461 Z-0.308
N14845 X2.6912 Y3.4586 Z-0.3081
N14850 X2.6918 Y3.4562 Z-0.3082
N14855 X2.6924 Y3.4539 Z-0.3083
N14860 X2.6932 Y3.4515 Z-0.3084
N14865 X2.694 Y3.4493
N14870 X2.695 Y3.447 Z-0.3085
N14875 X2.6961 Y3.4448 Z-0.3086
N14880 X2.6972 Y3.4427 Z-0.3087
N14885 X2.6985 Y3.4406 Z-0.3088
N14890 X2.6998 Y3.4385 Z-0.3089
N14895 X2.7013 Y3.4366 Z-0.309
N14900 X2.7028 Y3.4347
N14905 X2.7045 Y3.4328 Z-0.3091
N14910 X2.7062 Y3.4311 Z-0.3092
N14915 X2.708 Y3.4294 Z-0.3093
N14920 X2.7098 Y3.4278 Z-0.3094
N14925 X2.7117 Y3.4263 Z-0.3095
N14930 X2.7137 Y3.4249 Z-0.3096
N14935 X2.7158 Y3.4236
N14940 X2.7179 Y3.4224 Z-0.3097
N14945 X2.7201 Y3.4213 Z-0.3098
N14950 X2.7223 Y3.4203 Z-0.3099
N14955 X2.7246 Y3.4194 Z-0.31
N14960 X2.7257 Y3.419
N14965 X2.7269 Y3.4186 Z-0.3101
N14970 X2.7292 Y3.4179
N14975 X2.7316 Y3.4173 Z-0.3102
N14980 X2.734 Y3.4168 Z-0.3103
N14985 X2.7364 Y3.4165 Z-0.3104
N14990 X2.7388 Y3.4162 Z-0.3105
N14995 X2.7413 Y3.4161 Z-0.3106
N15000 X2.7437 Y3.416 Z-0.3107
N15005 X2.7461 Y3.4161
N15010 X2.7486 Y3.4163 Z-0.3108
N15015 X2.751 Y3.4166 Z-0.3109
N15020 X2.7534 Y3.4171 Z-0.311
N15025 X2.7558 Y3.4176 Z-0.3111
N15030 X2.7581 Y3.4182 Z-0.3112
N15035 X2.7605 Y3.419 Z-0.3113
N15040 X2.7627 Y3.4198
N15045 X2.765 Y3.4208 Z-0.3114
N15050 X2.7672 Y3.4219 Z-0.3115
N15055 X2.7693 Y3.423 Z-0.3116
N15060 X2.7714 Y3.4243 Z-0.3117
N15065 X2.7734 Y3.4256 Z-0.3118
N15070 X2.7754 Y3.4271
N15075 X2.7773 Y3.4286 Z-0.3119
N15080 X2.7791 Y3.4302 Z-0.312
N15085 X2.7808 Y3.4319 Z-0.3121
N15090 X2.7825 Y3.4337 Z-0.3122
N15095 X2.7841 Y3.4356 Z-0.3123
N15100 X2.7856 Y3.4375 Z-0.3124
N15105 X2.787 Y3.4395
N15110 X2.7883 Y3.4415 Z-0.3125
N15115 X2.7895 Y3.4436 Z-0.3126
N15120 X2.7906 Y3.4458 Z-0.3127
N15125 X2.7916 Y3.448 Z-0.3128
N15130 X2.7925 Y3.4503 Z-0.3129
N15135 X2.7929 Y3.4514
N15140 X2.7933 Y3.4526 Z-0.313
N15145 X2.794 Y3.4549
N15150 X2.7946 Y3.4573 Z-0.3131
N15155 X2.7951 Y3.4597 Z-0.3132
N15160 X2.7954 Y3.4621 Z-0.3133
N15165 X2.7957 Y3.4645 Z-0.3134
N15170 X2.7958 Y3.4669 Z-0.3135
N15175 Y3.4693
N15180 X2.7955 Y3.4742 Z-0.3137
N15185 X2.7948 Y3.479 Z-0.3139
N15190 X2.7943 Y3.4814 Z-0.314
N15195 X2.7936 Y3.4837 Z-0.3141
N15200 X2.792 Y3.4883 Z-0.3142
N15205 X2.7911 Y3.4905 Z-0.3143
N15210 X2.79 Y3.4927 Z-0.3144
N15215 X2.7876 Y3.497 Z-0.3146
N15220 X2.7863 Y3.499
N15225 X2.7848 Y3.5009 Z-0.3147
N15230 X2.7838 Y3.5022 Z-0.3148
N15235 X2.7828 Y3.5034
N15240 X2.7806 Y3.5057 Z-0.315
N15245 X2.7805 Y3.5059
N15250 X2.78 Y3.5063
N15255 X2.7796 Y3.5068
N15260 X2.7786 Y3.5077 Z-0.3151
N15265 X2.7767 Y3.5093
N15270 X2.7746 Y3.5109 Z-0.3152
N15275 X2.7725 Y3.5124 Z-0.3153
N15280 X2.7703 Y3.5138 Z-0.3154
N15285 X2.7692 Y3.5145 Z-0.3155
N15290 X2.7681 Y3.5151
N15295 X2.7658 Y3.5163 Z-0.3156
N15300 X2.7634 Y3.5173 Z-0.3157
N15305 X2.761 Y3.5182 Z-0.3158
N15310 X2.7585 Y3.519 Z-0.3159
N15315 X2.7561 Y3.5197 Z-0.316
N15320 X2.7536 Y3.5203
N15325 X2.751 Y3.5207 Z-0.3161
N15330 X2.7485 Y3.521 Z-0.3162
N15335 X2.7459 Y3.5212 Z-0.3163
N15340 X2.7434 Y3.5213 Z-0.3164
N15345 X2.7421
N15350 X2.7408 Y3.5212 Z-0.3165
N15355 X2.7382 Y3.5211 Z-0.3166
N15360 X2.7356 Y3.5207 Z-0.3167
N15365 X2.7331 Y3.5203 Z-0.3168
N15370 X2.7306 Y3.5197
N15375 X2.7281 Y3.519 Z-0.3169
N15380 X2.7257 Y3.5182 Z-0.317
N15385 X2.7233 Y3.5173 Z-0.3171
N15390 X2.7209 Y3.5163 Z-0.3172
N15395 X2.7186 Y3.5151 Z-0.3173
N15400 X2.7164 Y3.5139 Z-0.3174
N15405 X2.7153 Y3.5132
N15410 X2.7142 Y3.5125 Z-0.3175
N15415 X2.7121 Y3.511 Z-0.3176
N15420 X2.7101 Y3.5094 Z-0.3177
N15425 X2.7081 Y3.5077
N15430 X2.7062 Y3.5059 Z-0.3178
N15435 X2.7045 Y3.5041 Z-0.3179
N15440 X2.7028 Y3.5022 Z-0.318
N15445 X2.7013 Y3.5002 Z-0.3181
N15450 X2.6998 Y3.4981 Z-0.3182
N15455 X2.6984 Y3.4959 Z-0.3183
N15460 X2.6977 Y3.4948
N15465 X2.6971 Y3.4936 Z-0.3184
N15470 X2.6959 Y3.4913 Z-0.3185
N15475 X2.6949 Y3.4889 Z-0.3186
N15480 X2.694 Y3.4866
N15485 X2.6932 Y3.4841 Z-0.3187
N15490 X2.6925 Y3.4817 Z-0.3188
N15495 X2.6919 Y3.4792 Z-0.3189
N15500 X2.6915 Y3.4767 Z-0.319
N15505 X2.6912 Y3.4741 Z-0.3191
N15510 X2.691 Y3.4716 Z-0.3192
N15515 X2.6909 Y3.469 Z-0.3193
N15520 X2.691 Y3.4678
N15525 Y3.4665 Z-0.3194
N15530 X2.6912 Y3.4639
N15535 X2.6915 Y3.4613 Z-0.3195
N15540 X2.6919 Y3.4588 Z-0.3196
N15545 X2.6925 Y3.4563 Z-0.3197
N15550 X2.6932 Y3.4539 Z-0.3198
N15555 X2.694 Y3.4514 Z-0.3199
N15560 X2.6949 Y3.4491 Z-0.32
N15565 X2.6959 Y3.4467 Z-0.3201
N15570 X2.6971 Y3.4444 Z-0.3202
N15575 X2.6983 Y3.4421 Z-0.3203
N15580 X2.699 Y3.441
N15585 X2.6997 Y3.4399
N15590 X2.7012 Y3.4379 Z-0.3204
N15595 X2.7028 Y3.4359 Z-0.3205
N15600 X2.7044 Y3.4339 Z-0.3206
N15605 X2.7062 Y3.4321 Z-0.3207
N15610 X2.708 Y3.4303 Z-0.3208
N15615 X2.71 Y3.4286 Z-0.3209
N15620 X2.712 Y3.427 Z-0.321
N15625 X2.7141 Y3.4255 Z-0.3211
N15630 X2.7163 Y3.4242
N15635 X2.7174 Y3.4235 Z-0.3212
N15640 X2.7185 Y3.4229
N15645 X2.7208 Y3.4218 Z-0.3213
N15650 X2.7231 Y3.4207 Z-0.3214
N15655 X2.7255 Y3.4198 Z-0.3215
N15660 X2.7279 Y3.419 Z-0.3216
N15665 X2.7304 Y3.4183 Z-0.3217
N15670 X2.7329 Y3.4178 Z-0.3218
N15675 X2.7354 Y3.4173 Z-0.3219
N15680 X2.7379 Y3.417
N15685 X2.7405 Y3.4168 Z-0.322
N15690 X2.7431 Y3.4167 Z-0.3221
N15695 X2.7444 Y3.4168 Z-0.3222
N15700 X2.7456
N15705 X2.7482 Y3.417 Z-0.3223
N15710 X2.7507 Y3.4173 Z-0.3224
N15715 X2.7532 Y3.4177 Z-0.3225
N15720 X2.7557 Y3.4183 Z-0.3226
N15725 X2.7582 Y3.419 Z-0.3227
N15730 X2.7606 Y3.4198
N15735 X2.763 Y3.4207 Z-0.3228
N15740 X2.7653 Y3.4217 Z-0.3229
N15745 X2.7676 Y3.4229 Z-0.323
N15750 X2.7699 Y3.4241 Z-0.3231
N15755 X2.7709 Y3.4248 Z-0.3232
N15760 X2.772 Y3.4255
N15765 X2.7741 Y3.427 Z-0.3233
N15770 X2.7761 Y3.4286 Z-0.3234
N15775 X2.7781 Y3.4302 Z-0.3235
N15780 X2.7799 Y3.432 Z-0.3236
N15785 X2.7816 Y3.4338
N15790 X2.7833 Y3.4357 Z-0.3237
N15795 X2.7849 Y3.4377 Z-0.3238
N15800 X2.7863 Y3.4398 Z-0.3239
N15805 X2.7877 Y3.442 Z-0.324
N15810 X2.7883 Y3.4431
N15815 X2.789 Y3.4442 Z-0.3241
N15820 X2.7901 Y3.4465 Z-0.3242
N15825 X2.7912 Y3.4489 Z-0.3243
N15830 X2.7921 Y3.4513 Z-0.3244
N15835 X2.7929 Y3.4537
N15840 X2.7936 Y3.4561 Z-0.3245
N15845 X2.7941 Y3.4586 Z-0.3246
N15850 X2.7946 Y3.4611 Z-0.3247
N15855 X2.7949 Y3.4636 Z-0.3248
N15860 X2.7951 Y3.4661 Z-0.3249
N15865 Y3.4674
N15870 Y3.4687 Z-0.325
N15875 X2.795 Y3.4712 Z-0.3251
N15880 X2.7948 Y3.4738
N15885 X2.7941 Y3.4788 Z-0.3253
N15890 X2.7935 Y3.4813 Z-0.3254
N15895 X2.7929 Y3.4837 Z-0.3255
N15900 X2.7912 Y3.4885 Z-0.3257
N15905 X2.7901 Y3.4908 Z-0.3258
N15910 X2.789 Y3.4931 Z-0.3259
N15915 X2.7877 Y3.4954 Z-0.326
N15920 X2.7871 Y3.4965
N15925 X2.7863 Y3.4976
N15930 X2.7849 Y3.4997 Z-0.3261
N15935 X2.7833 Y3.5016 Z-0.3262
N15940 X2.7817 Y3.5035 Z-0.3263
N15945 X2.78 Y3.5054 Z-0.3264
N15950 X2.7781 Y3.5071 Z-0.3265
N15955 X2.7762 Y3.5088 Z-0.3266
N15960 X2.7742 Y3.5103 Z-0.3267
N15965 X2.7721 Y3.5118
N15970 X2.77 Y3.5132 Z-0.3268
N15975 X2.7688 Y3.5138 Z-0.3269
N15980 X2.7677 Y3.5145
N15985 X2.7654 Y3.5156 Z-0.327
N15990 X2.7631 Y3.5166 Z-0.3271
N15995 X2.7607 Y3.5175 Z-0.3272
N16000 X2.7583 Y3.5183 Z-0.3273
N16005 X2.7559 Y3.519 Z-0.3274
N16010 X2.7534 Y3.5196 Z-0.3275
N16015 X2.7509 Y3.52
N16020 X2.7484 Y3.5203 Z-0.3276
N16025 X2.7459 Y3.5205 Z-0.3277
N16030 X2.7434 Y3.5206 Z-0.3278
N16035 X2.7421 Y3.5205 Z-0.3279
N16040 X2.7408
N16045 X2.7383 Y3.5203 Z-0.328
N16050 X2.7357 Y3.52 Z-0.3281
N16055 X2.7332 Y3.5196 Z-0.3282
N16060 X2.7308 Y3.519 Z-0.3283
N16065 X2.7283 Y3.5183
N16070 X2.7259 Y3.5175 Z-0.3284
N16075 X2.7236 Y3.5166 Z-0.3285
N16080 X2.7212 Y3.5156 Z-0.3286
N16085 X2.719 Y3.5145 Z-0.3287
N16090 X2.7168 Y3.5132 Z-0.3288
N16095 X2.7157 Y3.5126
N16100 X2.7147 Y3.5119 Z-0.3289
N16105 X2.7126 Y3.5104 Z-0.329
N16110 X2.7106 Y3.5088
N16115 X2.7086 Y3.5072 Z-0.3291
N16120 X2.7068 Y3.5054 Z-0.3292
N16125 X2.7051 Y3.5036 Z-0.3293
N16130 X2.7034 Y3.5017 Z-0.3294
N16135 X2.7019 Y3.4997 Z-0.3295
N16140 X2.7004 Y3.4976 Z-0.3296
N16145 X2.699 Y3.4955 Z-0.3297
N16150 X2.6984 Y3.4944
N16155 X2.6978 Y3.4933 Z-0.3298
N16160 X2.6966 Y3.491
N16165 X2.6956 Y3.4887 Z-0.3299
N16170 X2.6947 Y3.4863 Z-0.33
N16175 X2.6939 Y3.4839 Z-0.3301
N16180 X2.6933 Y3.4815 Z-0.3302
N16185 X2.6927 Y3.479 Z-0.3303
N16190 X2.6923 Y3.4766 Z-0.3304
N16195 X2.692 Y3.4741 Z-0.3305
N16200 X2.6918 Y3.4715
N16205 X2.6917 Y3.469 Z-0.3306
N16210 Y3.4678 Z-0.3307
N16215 X2.6918 Y3.4665
N16220 X2.692 Y3.464 Z-0.3308
N16225 X2.6923 Y3.4615 Z-0.3309
N16230 X2.6927 Y3.459 Z-0.331
N16235 X2.6932 Y3.4565 Z-0.3311
N16240 X2.6939 Y3.4541 Z-0.3312
N16245 X2.6947 Y3.4517 Z-0.3313
N16250 X2.6956 Y3.4493
N16255 X2.6966 Y3.447 Z-0.3314
N16260 X2.6978 Y3.4447 Z-0.3315
N16265 X2.699 Y3.4425 Z-0.3316
N16270 X2.6997 Y3.4414
N16275 X2.7004 Y3.4404 Z-0.3317
N16280 X2.7018 Y3.4383 Z-0.3318
N16285 X2.7034 Y3.4364 Z-0.3319
N16290 X2.705 Y3.4345 Z-0.332
N16295 X2.7067 Y3.4326
N16300 X2.7086 Y3.4309 Z-0.3321
N16305 X2.7105 Y3.4292 Z-0.3322
N16310 X2.7125 Y3.4277 Z-0.3323
N16315 X2.7146 Y3.4262 Z-0.3324
N16320 X2.7167 Y3.4249 Z-0.3325
N16325 X2.7178 Y3.4242
N16330 X2.7189 Y3.4236 Z-0.3326
N16335 X2.7211 Y3.4225 Z-0.3327
N16340 X2.7234 Y3.4215
N16345 X2.7258 Y3.4206 Z-0.3328
N16350 X2.7282 Y3.4198 Z-0.3329
N16355 X2.7306 Y3.4191 Z-0.333
N16360 X2.733 Y3.4186 Z-0.3331
N16365 X2.7355 Y3.4181 Z-0.3332
N16370 X2.738 Y3.4178 Z-0.3333
N16375 X2.7406 Y3.4176 Z-0.3334
N16380 X2.7431 Z-0.3335
N16385 X2.7443
N16390 X2.7456
N16395 X2.7481 Y3.4178 Z-0.3336
N16400 X2.7506 Y3.4181 Z-0.3337
N16405 X2.7531 Y3.4185 Z-0.3338
N16410 X2.7555 Y3.4191 Z-0.3339
N16415 X2.7579 Y3.4198 Z-0.334
N16420 X2.7603 Y3.4205 Z-0.3341
N16425 X2.7627 Y3.4214 Z-0.3342
N16430 X2.765 Y3.4225
N16435 X2.7672 Y3.4236 Z-0.3343
N16440 X2.7694 Y3.4248 Z-0.3344
N16445 X2.7705 Y3.4255 Z-0.3345
N16450 X2.7716 Y3.4262
N16455 X2.7736 Y3.4276 Z-0.3346
N16460 X2.7756 Y3.4292 Z-0.3347
N16465 X2.7775 Y3.4308 Z-0.3348
N16470 X2.7793 Y3.4326 Z-0.3349
N16475 X2.781 Y3.4344
N16480 X2.7827 Y3.4363 Z-0.335
N16485 X2.7842 Y3.4382 Z-0.3351
N16490 X2.7856 Y3.4403 Z-0.3352
N16495 X2.787 Y3.4424 Z-0.3353
N16500 X2.7876 Y3.4435
N16505 X2.7883 Y3.4446 Z-0.3354
N16510 X2.7894 Y3.4469 Z-0.3355
N16515 X2.7904 Y3.4492 Z-0.3356
N16520 X2.7913 Y3.4515
N16525 X2.7921 Y3.4539 Z-0.3357
N16530 X2.7928 Y3.4563 Z-0.3358
N16535 X2.7933 Y3.4587 Z-0.3359
N16540 X2.7937 Y3.4612 Z-0.336
N16545 X2.7941 Y3.4637 Z-0.3361
N16550 X2.7942 Y3.4662 Z-0.3362
N16555 X2.7943 Y3.4674
N16560 Y3.4687 Z-0.3363
N16565 X2.7942 Y3.4712
N16570 X2.794 Y3.4737 Z-0.3364
N16575 X2.7933 Y3.4787 Z-0.3366
N16580 X2.7927 Y3.4811 Z-0.3367
N16585 X2.7921 Y3.4835 Z-0.3368
N16590 X2.7904 Y3.4882 Z-0.337
N16595 X2.7894 Y3.4905
N16600 X2.7883 Y3.4928 Z-0.3371
N16605 X2.787 Y3.495 Z-0.3372
N16610 X2.7864 Y3.4961 Z-0.3373
N16615 X2.7857 Y3.4971
N16620 X2.7842 Y3.4991 Z-0.3374
N16625 X2.7827 Y3.5011 Z-0.3375
N16630 X2.7811 Y3.503 Z-0.3376
N16635 X2.7794 Y3.5048 Z-0.3377
N16640 X2.7776 Y3.5065
N16645 X2.7757 Y3.5082 Z-0.3378
N16650 X2.7737 Y3.5097 Z-0.3379
N16655 X2.7717 Y3.5111 Z-0.338
N16660 X2.7695 Y3.5125 Z-0.3381
N16665 X2.7684 Y3.5131
N16670 X2.7673 Y3.5137 Z-0.3382
N16675 X2.7651 Y3.5149 Z-0.3383
N16680 X2.7628 Y3.5159
N16685 X2.7605 Y3.5168 Z-0.3384
N16690 X2.7581 Y3.5175 Z-0.3385
N16695 X2.7557 Y3.5182 Z-0.3386
N16700 X2.7533 Y3.5188 Z-0.3387
N16705 X2.7508 Y3.5192 Z-0.3388
N16710 X2.7483 Y3.5195 Z-0.3389
N16715 X2.7459 Y3.5197 Z-0.339
N16720 X2.7434
N16725 X2.7421 Z-0.3391
N16730 X2.7409
N16735 X2.7384 Y3.5195 Z-0.3392
N16740 X2.7359 Y3.5192 Z-0.3393
N16745 X2.7334 Y3.5188 Z-0.3394
N16750 X2.731 Y3.5182 Z-0.3395
N16755 X2.7286 Y3.5175 Z-0.3396
N16760 X2.7262 Y3.5168 Z-0.3397
N16765 X2.7239 Y3.5159
N16770 X2.7216 Y3.5149 Z-0.3398
N16775 X2.7194 Y3.5137 Z-0.3399
N16780 X2.7183 Y3.5131 Z-0.34
N16785 X2.7172 Y3.5125
N16790 X2.7151 Y3.5112 Z-0.3401
N16795 X2.7131 Y3.5097 Z-0.3402
N16800 X2.7111 Y3.5082 Z-0.3403
N16805 X2.7092 Y3.5066 Z-0.3404
N16810 X2.7074 Y3.5048
N16815 X2.7057 Y3.503 Z-0.3405
N16820 X2.7041 Y3.5012 Z-0.3406
N16825 X2.7025 Y3.4992 Z-0.3407
N16830 X2.7011 Y3.4972 Z-0.3408
N16835 X2.6997 Y3.4951 Z-0.3409
N16840 X2.6991 Y3.494
N16845 X2.6985 Y3.4929 Z-0.341
N16850 X2.6974 Y3.4907
N16855 X2.6964 Y3.4884 Z-0.3411
N16860 X2.6955 Y3.4861 Z-0.3412
N16865 X2.6947 Y3.4837 Z-0.3413
N16870 X2.6941 Y3.4813 Z-0.3414
N16875 X2.6935 Y3.4789 Z-0.3415
N16880 X2.6931 Y3.4764 Z-0.3416
N16885 X2.6928 Y3.474 Z-0.3417
N16890 X2.6926 Y3.4715
N16895 X2.6925 Y3.469 Z-0.3418
N16900 Y3.4678 Z-0.3419
N16905 X2.6926 Y3.4665
N16910 X2.6928 Y3.464 Z-0.342
