%
O07716 (Thermocyler_Block_4X4_6)
(Using high feed G1 F500. instead of G0.)
(T8 D=0.125 CR=0. - ZMIN=-0.7725 - flat end mill)
N10 G90 G94 G17
N15 G20
N20 G53 G0 Z0.

(Ramp1)
N30 T8 M6
N35 S4000 M3
N40 G54
N45 M8
N60 G0 X5.3594 Y4.2465
N65 G43 Z0.5906 H8
N70 G0 Z0.076
N75 G1 Z0. F8.
N80 G3 X5.3503 Y4.2253 I-0.0001 J-0.0125
N85 G1 X5.3506 Y4.225
N90 X5.3532 Y4.2226 Z-0.0001
N95 X5.3538 Y4.2221 Z-0.0002
N100 X5.3587 Y4.2183 Z-0.0004
N105 X5.3615 Y4.2166 Z-0.0005
N110 X5.3643 Y4.2149 Z-0.0006
N115 X5.3699 Y4.2123 Z-0.0008
N120 X5.3731 Y4.2111 Z-0.0009
N125 X5.3755 Y4.2103 Z-0.001
N130 X5.3811 Y4.2089 Z-0.0012
N135 X5.3867 Y4.208 Z-0.0014
N140 X5.3894 Y4.2078 Z-0.0015
N145 X5.3922 Y4.2077 Z-0.0016
N150 X5.3978 Y4.2079 Z-0.0018
N155 X5.4034 Y4.2086 Z-0.002
N160 X5.409 Y4.2098 Z-0.0022
N165 X5.4132 Y4.2111 Z-0.0024
N170 X5.4146 Y4.2115
N175 X5.4202 Y4.2139 Z-0.0026
N180 X5.4226 Y4.2152 Z-0.0027
N185 X5.425 Y4.2166 Z-0.0028
N190 X5.4257 Y4.2171 Z-0.0029
N195 X5.4313 Y4.221 Z-0.0031
N200 X5.4327 Y4.2221 Z-0.0032
N205 X5.4369 Y4.226 Z-0.0034
N210 X5.4383 Y4.2276
N215 X5.4405 Y4.2301 Z-0.0035
N220 X5.4425 Y4.2326 Z-0.0037
N225 X5.4428 Y4.2331
N230 X5.4463 Y4.2386 Z-0.0039
N235 X5.4481 Y4.2418 Z-0.004
N240 X5.4491 Y4.2441 Z-0.0041
N245 X5.4513 Y4.2496 Z-0.0043
N250 X5.4521 Y4.2523 Z-0.0044
N255 X5.4528 Y4.2551 Z-0.0045
N260 X5.4536 Y4.2592 Z-0.0047
N265 X5.4538 Y4.2606
N270 X5.4543 Y4.2661 Z-0.0049
N275 Y4.2716 Z-0.0051
N280 X5.4538 Y4.2771 Z-0.0053
N285 X5.4536 Y4.2785 Z-0.0054
N290 X5.4528 Y4.2826 Z-0.0055
N295 X5.4521 Y4.2854 Z-0.0056
N300 X5.4513 Y4.2881 Z-0.0057
N305 X5.4491 Y4.2936 Z-0.0059
N310 X5.4481 Y4.2959 Z-0.006
N315 X5.4463 Y4.2991 Z-0.0061
N320 X5.4428 Y4.3046 Z-0.0063
N325 X5.4425 Y4.3051 Z-0.0064
N330 X5.4405 Y4.3076 Z-0.0065
N335 X5.4383 Y4.3101 Z-0.0066
N340 X5.4369 Y4.3117 Z-0.0067
N345 X5.4326 Y4.3156 Z-0.0069
N350 X5.4313 Y4.3167
N355 X5.4257 Y4.3206 Z-0.0072
N360 X5.425 Y4.3211
N365 X5.4226 Y4.3225 Z-0.0073
N370 X5.4202 Y4.3238 Z-0.0074
N375 X5.4146 Y4.3262 Z-0.0076
N380 X5.4132 Y4.3267 Z-0.0077
N385 X5.409 Y4.3279 Z-0.0078
N390 X5.4034 Y4.3292 Z-0.008
N395 X5.3978 Y4.3298 Z-0.0082
N400 X5.3922 Y4.33 Z-0.0084
N405 X5.3894 Y4.3299 Z-0.0085
N410 X5.3867 Y4.3297 Z-0.0086
N415 X5.3811 Y4.3288 Z-0.0088
N420 X5.3755 Y4.3274 Z-0.009
N425 X5.3731 Y4.3267 Z-0.0091
N430 X5.3699 Y4.3254 Z-0.0092
N435 X5.3643 Y4.3228 Z-0.0094
N440 X5.3615 Y4.3211 Z-0.0095
N445 X5.3587 Y4.3194 Z-0.0096
N450 X5.3538 Y4.3156 Z-0.0099
N455 X5.3532 Y4.3151
N460 X5.3506 Y4.3127 Z-0.01
N465 X5.3481 Y4.3101 Z-0.0101
N470 X5.3476 Y4.3096 Z-0.0102
N475 X5.3436 Y4.3046 Z-0.0104
N480 X5.342 Y4.3023 Z-0.0105
N485 X5.34 Y4.2991 Z-0.0106
N490 X5.3386 Y4.2964 Z-0.0107
N495 X5.3373 Y4.2936 Z-0.0108
N500 X5.3364 Y4.2915 Z-0.0109
N505 X5.3352 Y4.2881 Z-0.011
N510 X5.3336 Y4.2826 Z-0.0112
N515 X5.3326 Y4.2771 Z-0.0114
N520 X5.3321 Y4.2716 Z-0.0116
N525 Y4.2689 Z-0.0117
N530 Y4.2661 Z-0.0118
N535 X5.3326 Y4.2606 Z-0.012
N540 X5.3336 Y4.2551 Z-0.0122
N545 X5.3352 Y4.2496 Z-0.0124
N550 X5.3364 Y4.2462 Z-0.0125
N555 X5.3373 Y4.2441 Z-0.0126
N560 X5.3386 Y4.2413 Z-0.0127
N565 X5.34 Y4.2386 Z-0.0128
N570 X5.342 Y4.2354 Z-0.013
N575 X5.3436 Y4.2331 Z-0.0131
N580 X5.3476 Y4.2281 Z-0.0133
N585 X5.3481 Y4.2276
N590 X5.3506 Y4.225 Z-0.0134
N595 X5.3532 Y4.2226 Z-0.0136
N600 X5.3538 Y4.2221
N605 X5.3587 Y4.2183 Z-0.0138
N610 X5.3615 Y4.2166 Z-0.0139
N615 X5.3643 Y4.2149 Z-0.014
N620 X5.3699 Y4.2123 Z-0.0142
N625 X5.3731 Y4.2111 Z-0.0144
N630 X5.3755 Y4.2103
N635 X5.3811 Y4.2089 Z-0.0147
N640 X5.3867 Y4.208 Z-0.0148
N645 X5.3894 Y4.2078 Z-0.0149
N650 X5.3922 Y4.2077 Z-0.015
N655 X5.3978 Y4.2079 Z-0.0152
N660 X5.4034 Y4.2086 Z-0.0154
N665 X5.409 Y4.2098 Z-0.0156
N670 X5.4132 Y4.2111 Z-0.0158
N675 X5.4146 Y4.2115
N680 X5.4202 Y4.2139 Z-0.0161
N685 X5.4226 Y4.2152
N690 X5.425 Y4.2166 Z-0.0162
N695 X5.4257 Y4.2171 Z-0.0163
N700 X5.4313 Y4.221 Z-0.0165
N705 X5.4327 Y4.2221 Z-0.0166
N710 X5.4369 Y4.226 Z-0.0168
N715 X5.4383 Y4.2276
N720 X5.4405 Y4.2301 Z-0.017
N725 X5.4425 Y4.2326 Z-0.0171
N730 X5.4428 Y4.2331
N735 X5.4463 Y4.2386 Z-0.0173
N740 X5.4481 Y4.2418 Z-0.0175
N745 X5.4491 Y4.2441
N750 X5.4513 Y4.2496 Z-0.0177
N755 X5.4521 Y4.2523 Z-0.0178
N760 X5.4528 Y4.2551 Z-0.0179
N765 X5.4536 Y4.2592 Z-0.0181
N770 X5.4538 Y4.2606
N775 X5.4543 Y4.2661 Z-0.0183
N780 Y4.2716 Z-0.0185
N785 X5.4538 Y4.2771 Z-0.0187
N790 X5.4536 Y4.2785 Z-0.0188
N795 X5.4528 Y4.2826 Z-0.0189
N800 X5.4521 Y4.2854 Z-0.019
N805 X5.4513 Y4.2881 Z-0.0191
N810 X5.4491 Y4.2936 Z-0.0193
N815 X5.4481 Y4.2959 Z-0.0194
N820 X5.4463 Y4.2991 Z-0.0195
N825 X5.4428 Y4.3046 Z-0.0198
N830 X5.4425 Y4.3051
N835 X5.4405 Y4.3076 Z-0.0199
N840 X5.4383 Y4.3101 Z-0.02
N845 X5.4369 Y4.3117 Z-0.0201
N850 X5.4326 Y4.3156 Z-0.0203
N855 X5.4313 Y4.3167 Z-0.0204
N860 X5.4257 Y4.3206 Z-0.0206
N865 X5.425 Y4.3211
N870 X5.4226 Y4.3225 Z-0.0207
N875 X5.4202 Y4.3238 Z-0.0208
N880 X5.4146 Y4.3262 Z-0.021
N885 X5.4132 Y4.3267 Z-0.0211
N890 X5.409 Y4.3279 Z-0.0212
N895 X5.4034 Y4.3292 Z-0.0214
N900 X5.3978 Y4.3298 Z-0.0216
N905 X5.3922 Y4.33 Z-0.0218
N910 X5.3894 Y4.3299 Z-0.0219
N915 X5.3867 Y4.3297 Z-0.022
N920 X5.3811 Y4.3288 Z-0.0222
N925 X5.3755 Y4.3274 Z-0.0224
N930 X5.3731 Y4.3267 Z-0.0225
N935 X5.3699 Y4.3254 Z-0.0226
N940 X5.3643 Y4.3228 Z-0.0228
N945 X5.3615 Y4.3211 Z-0.023
N950 X5.3587 Y4.3194 Z-0.0231
N955 X5.3538 Y4.3156 Z-0.0233
N960 X5.3532 Y4.3151
N965 X5.3506 Y4.3127 Z-0.0234
N970 X5.3481 Y4.3101 Z-0.0236
N975 X5.3476 Y4.3096
N980 X5.3436 Y4.3046 Z-0.0238
N985 X5.342 Y4.3023 Z-0.0239
N990 X5.34 Y4.2991 Z-0.024
N995 X5.3386 Y4.2964 Z-0.0241
N1000 X5.3373 Y4.2936 Z-0.0243
N1005 X5.3364 Y4.2915
N1010 X5.3352 Y4.2881 Z-0.0245
N1015 X5.3336 Y4.2826 Z-0.0247
N1020 X5.3326 Y4.2771 Z-0.0249
N1025 X5.3321 Y4.2716 Z-0.025
N1030 Y4.2689 Z-0.0251
N1035 Y4.2661 Z-0.0252
N1040 X5.3326 Y4.2606 Z-0.0254
N1045 X5.3336 Y4.2551 Z-0.0256
N1050 X5.3352 Y4.2496 Z-0.0258
N1055 X5.3364 Y4.2462 Z-0.026
N1060 X5.3373 Y4.2441
N1065 X5.3386 Y4.2413 Z-0.0261
N1070 X5.34 Y4.2386 Z-0.0262
N1075 X5.342 Y4.2354 Z-0.0264
N1080 X5.3436 Y4.2331 Z-0.0265
N1085 X5.3476 Y4.2281 Z-0.0267
N1090 X5.3481 Y4.2276
N1095 X5.3506 Y4.225 Z-0.0268
N1100 X5.3532 Y4.2226 Z-0.027
N1105 X5.3538 Y4.2221
N1110 X5.3587 Y4.2183 Z-0.0272
N1115 X5.3615 Y4.2166 Z-0.0273
N1120 X5.3643 Y4.2149 Z-0.0274
N1125 X5.3699 Y4.2123 Z-0.0277
N1130 X5.3731 Y4.2111 Z-0.0278
N1135 X5.3755 Y4.2103 Z-0.0279
N1140 X5.3811 Y4.2089 Z-0.0281
N1145 X5.3867 Y4.208 Z-0.0283
N1150 X5.3894 Y4.2078 Z-0.0284
N1155 X5.3922 Y4.2077 Z-0.0285
N1160 X5.3978 Y4.2079 Z-0.0287
N1165 X5.4034 Y4.2086 Z-0.0289
N1170 X5.409 Y4.2098 Z-0.0291
N1175 X5.4132 Y4.2111 Z-0.0292
N1180 X5.4146 Y4.2115 Z-0.0293
N1185 X5.4202 Y4.2139 Z-0.0295
N1190 X5.4226 Y4.2152 Z-0.0296
N1195 X5.425 Y4.2166 Z-0.0297
N1200 X5.4257 Y4.2171
N1205 X5.4313 Y4.221 Z-0.0299
N1210 X5.4327 Y4.2221 Z-0.03
N1215 X5.4369 Y4.226 Z-0.0302
N1220 X5.4383 Y4.2276 Z-0.0303
N1225 X5.4405 Y4.2301 Z-0.0304
N1230 X5.4425 Y4.2326 Z-0.0305
N1235 X5.4428 Y4.2331
N1240 X5.4463 Y4.2386 Z-0.0307
N1245 X5.4481 Y4.2418 Z-0.0309
N1250 X5.4491 Y4.2441 Z-0.031
N1255 X5.4513 Y4.2496 Z-0.0312
N1260 X5.4521 Y4.2523 Z-0.0313
N1265 X5.4528 Y4.2551 Z-0.0314
N1270 X5.4536 Y4.2592 Z-0.0315
N1275 X5.4538 Y4.2606 Z-0.0316
N1280 X5.4543 Y4.2661 Z-0.0318
N1285 Y4.2716 Z-0.0319
N1290 X5.4538 Y4.2771 Z-0.0321
N1295 X5.4536 Y4.2785 Z-0.0322
N1300 X5.4528 Y4.2826 Z-0.0323
N1305 X5.4521 Y4.2854 Z-0.0324
N1310 X5.4513 Y4.2881 Z-0.0325
N1315 X5.4491 Y4.2936 Z-0.0327
N1320 X5.4481 Y4.2959 Z-0.0328
N1325 X5.4463 Y4.2991 Z-0.033
N1330 X5.4428 Y4.3046 Z-0.0332
N1335 X5.4425 Y4.3051
N1340 X5.4405 Y4.3076 Z-0.0333
N1345 X5.4383 Y4.3101 Z-0.0334
N1350 X5.4369 Y4.3117 Z-0.0335
N1355 X5.4326 Y4.3156 Z-0.0337
N1360 X5.4313 Y4.3167 Z-0.0338
N1365 X5.4257 Y4.3206 Z-0.034
N1370 X5.425 Y4.3211
N1375 X5.4226 Y4.3225 Z-0.0341
N1380 X5.4202 Y4.3238 Z-0.0342
N1385 X5.4146 Y4.3262 Z-0.0344
N1390 X5.4132 Y4.3267 Z-0.0345
N1395 X5.409 Y4.3279 Z-0.0346
N1400 X5.4034 Y4.3292 Z-0.0348
N1405 X5.3978 Y4.3298 Z-0.035
N1410 X5.3922 Y4.33 Z-0.0352
N1415 X5.3894 Y4.3299 Z-0.0353
N1420 X5.3867 Y4.3297 Z-0.0354
N1425 X5.3811 Y4.3288 Z-0.0356
N1430 X5.3755 Y4.3274 Z-0.0358
N1435 X5.3731 Y4.3267 Z-0.0359
N1440 X5.3699 Y4.3254 Z-0.036
N1445 X5.3643 Y4.3228 Z-0.0363
N1450 X5.3615 Y4.3211 Z-0.0364
N1455 X5.3587 Y4.3194 Z-0.0365
N1460 X5.3538 Y4.3156 Z-0.0367
N1465 X5.3532 Y4.3151
N1470 X5.3506 Y4.3127 Z-0.0368
N1475 X5.3481 Y4.3101 Z-0.037
N1480 X5.3476 Y4.3096
N1485 X5.3436 Y4.3046 Z-0.0372
N1490 X5.342 Y4.3023 Z-0.0373
N1495 X5.34 Y4.2991 Z-0.0375
N1500 X5.3386 Y4.2964 Z-0.0376
N1505 X5.3373 Y4.2936 Z-0.0377
N1510 X5.3364 Y4.2915
N1515 X5.3352 Y4.2881 Z-0.0379
N1520 X5.3336 Y4.2826 Z-0.0381
N1525 X5.3326 Y4.2771 Z-0.0383
N1530 X5.3321 Y4.2716 Z-0.0385
N1535 Y4.2689 Z-0.0386
N1540 Y4.2661 Z-0.0387
N1545 X5.3326 Y4.2606 Z-0.0388
N1550 X5.3336 Y4.2551 Z-0.039
N1555 X5.3352 Y4.2496 Z-0.0392
N1560 X5.3364 Y4.2462 Z-0.0394
N1565 X5.3374 Y4.2439 Z-0.0395
N1570 X5.3384 Y4.2417
N1575 X5.3408 Y4.2373 Z-0.0397
N1580 X5.3435 Y4.2332 Z-0.0399
N1585 X5.3465 Y4.2293 Z-0.0401
N1590 X5.3499 Y4.2257 Z-0.0402
N1595 X5.3535 Y4.2224 Z-0.0404
N1600 X5.3573 Y4.2193 Z-0.0406
N1605 X5.3614 Y4.2166 Z-0.0407
N1610 X5.3657 Y4.2142 Z-0.0409
N1615 X5.3702 Y4.2122 Z-0.0411
N1620 X5.3749 Y4.2105 Z-0.0413
N1625 X5.3796 Y4.2092 Z-0.0414
N1630 X5.3845 Y4.2083 Z-0.0416
N1635 X5.3894 Y4.2078 Z-0.0418
N1640 X5.3943 Y4.2077 Z-0.0419
N1645 X5.3992 Y4.208 Z-0.0421
N1650 X5.4041 Y4.2087 Z-0.0423
N1655 X5.4089 Y4.2097 Z-0.0425
N1660 X5.4136 Y4.2112 Z-0.0426
N1665 X5.4182 Y4.213 Z-0.0428
N1670 X5.4226 Y4.2152 Z-0.043
N1675 X5.4268 Y4.2177 Z-0.0432
N1680 X5.4308 Y4.2206 Z-0.0433
N1685 X5.4346 Y4.2238 Z-0.0435
N1690 X5.438 Y4.2273 Z-0.0437
N1695 X5.4413 Y4.231 Z-0.0438
N1700 X5.4441 Y4.235 Z-0.044
N1705 X5.4467 Y4.2392 Z-0.0442
N1710 X5.4489 Y4.2436 Z-0.0444
N1715 X5.4508 Y4.2482 Z-0.0445
N1720 X5.4522 Y4.2529 Z-0.0447
N1725 X5.4533 Y4.2577 Z-0.0449
N1730 X5.454 Y4.2626 Z-0.045
N1735 X5.4544 Y4.2675 Z-0.0452
N1740 X5.4543 Y4.2724 Z-0.0454
N1745 X5.4538 Y4.2773 Z-0.0456
N1750 X5.4529 Y4.2822 Z-0.0457
N1755 X5.4516 Y4.2869 Z-0.0459
N1760 X5.45 Y4.2916 Z-0.0461
N1765 X5.448 Y4.2961 Z-0.0462
N1770 X5.4456 Y4.3004 Z-0.0464
N1775 X5.4429 Y4.3045 Z-0.0466
N1780 X5.4399 Y4.3084 Z-0.0468
N1785 X5.4366 Y4.312 Z-0.0469
N1790 X5.433 Y4.3154 Z-0.0471
N1795 X5.4291 Y4.3184 Z-0.0473
N1800 X5.425 Y4.3211 Z-0.0474
N1805 X5.4207 Y4.3235 Z-0.0476
N1810 X5.4162 Y4.3256 Z-0.0478
N1815 X5.4116 Y4.3272 Z-0.048
N1820 X5.4068 Y4.3285 Z-0.0481
N1825 X5.402 Y4.3294 Z-0.0483
N1830 X5.397 Y4.3299 Z-0.0485
N1835 X5.3921 Y4.33 Z-0.0487
N1840 X5.3872 Y4.3298 Z-0.0488
N1845 X5.3823 Y4.3291 Z-0.049
N1850 X5.3799 Y4.3285 Z-0.0491
N1855 X5.3775 Y4.328 Z-0.0492
N1860 X5.3728 Y4.3265 Z-0.0493
N1865 X5.3682 Y4.3247 Z-0.0495
N1870 X5.3638 Y4.3225 Z-0.0497
N1875 X5.3596 Y4.32 Z-0.0499
N1880 X5.3556 Y4.3171 Z-0.05
N1885 X5.3518 Y4.3139 Z-0.0502
N1890 X5.3483 Y4.3104 Z-0.0504
N1895 X5.3451 Y4.3067 Z-0.0505
N1900 X5.3423 Y4.3027 Z-0.0507
N1905 X5.3397 Y4.2985 Z-0.0509
N1910 X5.3375 Y4.2941 Z-0.0511
N1915 X5.3356 Y4.2895 Z-0.0512
N1920 X5.3342 Y4.2848 Z-0.0514
N1925 X5.3331 Y4.28 Z-0.0516
N1930 X5.3324 Y4.2752 Z-0.0517
N1935 X5.3321 Y4.2702 Z-0.0519
N1940 Y4.2653 Z-0.0521
N1945 X5.3326 Y4.2604 Z-0.0523
N1950 X5.3335 Y4.2556 Z-0.0524
N1955 X5.3348 Y4.2508 Z-0.0526
N1960 X5.3364 Y4.2462 Z-0.0528
N1965 X5.3384 Y4.2417 Z-0.0529
N1970 X5.3408 Y4.2373 Z-0.0531
N1975 X5.3435 Y4.2332 Z-0.0533
N1980 X5.3465 Y4.2293 Z-0.0535
N1985 X5.3499 Y4.2257 Z-0.0536
N1990 X5.3535 Y4.2224 Z-0.0538
N1995 X5.3573 Y4.2193 Z-0.054
N2000 X5.3614 Y4.2166 Z-0.0542
N2005 X5.3657 Y4.2142 Z-0.0543
N2010 X5.3702 Y4.2122 Z-0.0545
N2015 X5.3749 Y4.2105 Z-0.0547
N2020 X5.3796 Y4.2092 Z-0.0548
N2025 X5.3845 Y4.2083 Z-0.055
N2030 X5.3894 Y4.2078 Z-0.0552
N2035 X5.3943 Y4.2077 Z-0.0554
N2040 X5.3992 Y4.208 Z-0.0555
N2045 X5.4041 Y4.2087 Z-0.0557
N2050 X5.4089 Y4.2097 Z-0.0559
N2055 X5.4136 Y4.2112 Z-0.056
N2060 X5.4182 Y4.213 Z-0.0562
N2065 X5.4226 Y4.2152 Z-0.0564
N2070 X5.4268 Y4.2177 Z-0.0566
N2075 X5.4308 Y4.2206 Z-0.0567
N2080 X5.4346 Y4.2238 Z-0.0569
N2085 X5.438 Y4.2273 Z-0.0571
N2090 X5.4413 Y4.231 Z-0.0572
N2095 X5.4441 Y4.235 Z-0.0574
N2100 X5.4455 Y4.2371 Z-0.0575
N2105 X5.4467 Y4.2392 Z-0.0576
N2110 X5.4489 Y4.2436 Z-0.0578
N2115 X5.4508 Y4.2482 Z-0.0579
N2120 X5.4522 Y4.2529 Z-0.0581
N2125 X5.4528 Y4.2553 Z-0.0582
N2130 X5.4533 Y4.2577 Z-0.0583
N2135 X5.454 Y4.2626 Z-0.0584
N2140 X5.4543 Y4.2675 Z-0.0586
N2145 Y4.2724 Z-0.0588
N2150 X5.4538 Y4.2773 Z-0.059
N2155 X5.4529 Y4.2822 Z-0.0591
N2160 X5.4516 Y4.2869 Z-0.0593
N2165 X5.45 Y4.2916 Z-0.0595
N2170 X5.448 Y4.2961 Z-0.0596
N2175 X5.4456 Y4.3004 Z-0.0598
N2180 X5.4429 Y4.3045 Z-0.06
N2185 X5.4414 Y4.3065 Z-0.0601
N2190 X5.4399 Y4.3084 Z-0.0602
N2195 X5.4383 Y4.3102 Z-0.0603
N2200 X5.4366 Y4.312
N2205 X5.4348 Y4.3137 Z-0.0604
N2210 X5.4329 Y4.3153 Z-0.0605
N2215 X5.431 Y4.3169 Z-0.0606
N2220 X5.4291 Y4.3184 Z-0.0607
N2225 X5.425 Y4.3211 Z-0.0609
N2230 X5.4228 Y4.3223
N2235 X5.4207 Y4.3235 Z-0.061
N2240 X5.4184 Y4.3246 Z-0.0611
N2245 X5.4162 Y4.3255 Z-0.0612
N2250 X5.4139 Y4.3264 Z-0.0613
N2255 X5.4115 Y4.3272 Z-0.0614
N2260 X5.4068 Y4.3285 Z-0.0615
N2265 X5.4044 Y4.329 Z-0.0616
N2270 X5.4019 Y4.3294 Z-0.0617
N2275 X5.3995 Y4.3297 Z-0.0618
N2280 X5.397 Y4.3299 Z-0.0619
N2285 X5.3946 Y4.33 Z-0.062
N2290 X5.3921 Z-0.0621
N2295 X5.3897 Y4.3299
N2300 X5.3872 Y4.3297 Z-0.0622
N2305 X5.3823 Y4.329 Z-0.0624
N2310 X5.3799 Y4.3285 Z-0.0625
N2315 X5.3775 Y4.328 Z-0.0626
N2320 X5.3752 Y4.3273 Z-0.0627
N2325 X5.3728 Y4.3265
N2330 X5.3705 Y4.3256 Z-0.0628
N2335 X5.3682 Y4.3247 Z-0.0629
N2340 X5.366 Y4.3236 Z-0.063
N2345 X5.3638 Y4.3225 Z-0.0631
N2350 X5.3596 Y4.32 Z-0.0633
N2355 X5.3576 Y4.3186
N2360 X5.3556 Y4.3171 Z-0.0634
N2365 X5.3537 Y4.3155 Z-0.0635
N2370 X5.3519 Y4.3139 Z-0.0636
N2375 X5.3501 Y4.3122 Z-0.0637
N2380 X5.3484 Y4.3104 Z-0.0638
N2385 X5.3467 Y4.3086 Z-0.0639
N2390 X5.3452 Y4.3067
N2395 X5.3423 Y4.3027 Z-0.0641
N2400 X5.341 Y4.3006 Z-0.0642
N2405 X5.3397 Y4.2985 Z-0.0643
N2410 X5.3386 Y4.2963 Z-0.0644
N2415 X5.3375 Y4.2941 Z-0.0645
N2420 X5.3366 Y4.2918
N2425 X5.3357 Y4.2895 Z-0.0646
N2430 X5.3349 Y4.2872 Z-0.0647
N2435 X5.3342 Y4.2848 Z-0.0648
N2440 X5.3331 Y4.28 Z-0.065
N2445 X5.3327 Y4.2776 Z-0.0651
N2450 X5.3324 Y4.2751
N2455 X5.3322 Y4.2727 Z-0.0652
N2460 X5.3321 Y4.2702 Z-0.0653
N2465 Y4.2678 Z-0.0654
N2470 X5.3322 Y4.2653 Z-0.0655
N2475 X5.3324 Y4.2629 Z-0.0656
N2480 X5.3327 Y4.2604 Z-0.0657
N2485 X5.3335 Y4.2556 Z-0.0658
N2490 X5.3341 Y4.2532 Z-0.0659
N2495 X5.3348 Y4.2508 Z-0.066
N2500 X5.3356 Y4.2485 Z-0.0661
N2505 X5.3365 Y4.2462 Z-0.0662
N2510 X5.3374 Y4.2439 Z-0.0663
N2515 X5.3385 Y4.2417
N2520 X5.3396 Y4.2395 Z-0.0664
N2525 X5.3408 Y4.2374 Z-0.0665
N2530 X5.3435 Y4.2333 Z-0.0667
N2535 X5.345 Y4.2313 Z-0.0668
N2540 X5.3466 Y4.2294 Z-0.0669
N2545 X5.3482 Y4.2275
N2550 X5.3499 Y4.2257 Z-0.067
N2555 X5.3517 Y4.224 Z-0.0671
N2560 X5.3535 Y4.2224 Z-0.0672
N2565 X5.3574 Y4.2193 Z-0.0674
N2570 X5.3594 Y4.2179 Z-0.0675
N2575 X5.3615 Y4.2166
N2580 X5.3636 Y4.2154 Z-0.0676
N2585 X5.3658 Y4.2143 Z-0.0677
N2590 X5.368 Y4.2132 Z-0.0678
N2595 X5.3702 Y4.2122 Z-0.0679
N2600 X5.3725 Y4.2113 Z-0.068
N2605 X5.3749 Y4.2106 Z-0.0681
N2610 X5.3796 Y4.2093 Z-0.0682
N2615 X5.382 Y4.2088 Z-0.0683
N2620 X5.3845 Y4.2084 Z-0.0684
N2625 X5.3869 Y4.2081 Z-0.0685
N2630 X5.3894 Y4.2079 Z-0.0686
N2635 X5.3918 Y4.2078 Z-0.0687
N2640 X5.3943 Z-0.0688
N2645 X5.3967
N2650 X5.3992 Y4.208 Z-0.0689
N2655 X5.4041 Y4.2087 Z-0.0691
N2660 X5.4065 Y4.2092 Z-0.0692
N2665 X5.4089 Y4.2098 Z-0.0693
N2670 X5.4112 Y4.2105 Z-0.0694
N2675 X5.4136 Y4.2112
N2680 X5.4159 Y4.2121 Z-0.0695
N2685 X5.4181 Y4.2131 Z-0.0696
N2690 X5.4204 Y4.2141 Z-0.0697
N2695 X5.4226 Y4.2153 Z-0.0698
N2700 X5.4268 Y4.2178 Z-0.07
N2705 X5.4288 Y4.2192
N2710 X5.4308 Y4.2207 Z-0.0701
N2715 X5.4327 Y4.2222 Z-0.0702
N2720 X5.4345 Y4.2238 Z-0.0703
N2725 X5.4363 Y4.2255 Z-0.0704
N2730 X5.438 Y4.2273 Z-0.0705
N2735 X5.4396 Y4.2291 Z-0.0706
N2740 X5.4412 Y4.231
N2745 X5.4441 Y4.235 Z-0.0708
N2750 X5.4454 Y4.2371 Z-0.0709
N2755 X5.4466 Y4.2393 Z-0.071
N2760 X5.4488 Y4.2437 Z-0.0712
N2765 X5.4507 Y4.2482 Z-0.0713
N2770 X5.4514 Y4.2505 Z-0.0714
N2775 X5.4522 Y4.2529 Z-0.0715
N2780 X5.4532 Y4.2577 Z-0.0717
N2785 X5.4539 Y4.2626 Z-0.0718
N2790 X5.4542 Y4.2675 Z-0.072
N2795 Y4.2699 Z-0.0721
N2800 Y4.2724 Z-0.0722
N2805 X5.454 Y4.2749 Z-0.0723
N2810 X5.4537 Y4.2773 Z-0.0724
N2815 X5.4528 Y4.2821 Z-0.0725
N2820 X5.4522 Y4.2845 Z-0.0726
N2825 X5.4516 Y4.2869 Z-0.0727
N2830 X5.4508 Y4.2892 Z-0.0728
N2835 X5.4499 Y4.2915 Z-0.0729
N2840 X5.449 Y4.2938 Z-0.073
N2845 X5.4479 Y4.296
N2850 X5.4468 Y4.2982 Z-0.0731
N2855 X5.4456 Y4.3003 Z-0.0732
N2860 X5.4428 Y4.3044 Z-0.0734
N2865 X5.4414 Y4.3064 Z-0.0735
N2870 X5.4398 Y4.3083 Z-0.0736
N2875 X5.4382 Y4.3101
N2880 X5.4365 Y4.3119 Z-0.0737
N2885 X5.4347 Y4.3136 Z-0.0738
N2890 X5.4329 Y4.3153 Z-0.0739
N2895 X5.431 Y4.3168 Z-0.074
N2900 X5.429 Y4.3183 Z-0.0741
N2905 X5.4249 Y4.321 Z-0.0742
N2910 X5.4228 Y4.3223 Z-0.0743
N2915 X5.4206 Y4.3234 Z-0.0744
N2920 X5.4184 Y4.3245 Z-0.0745
N2925 X5.4161 Y4.3254 Z-0.0746
N2930 X5.4138 Y4.3263 Z-0.0747
N2935 X5.4115 Y4.3271 Z-0.0748
N2940 X5.4068 Y4.3284 Z-0.0749
N2945 X5.4044 Y4.3289 Z-0.075
N2950 X5.4019 Y4.3293 Z-0.0751
N2955 X5.3995 Y4.3296 Z-0.0752
N2960 X5.397 Y4.3298 Z-0.0753
N2965 X5.3946 Y4.3299 Z-0.0754
N2970 X5.3921
N2975 X5.3897 Y4.3298 Z-0.0755
N2980 X5.3872 Y4.3296 Z-0.0756
N2985 X5.3823 Y4.3289 Z-0.0758
N2990 X5.3799 Y4.3284 Z-0.0759
N2995 X5.3776 Y4.3278 Z-0.076
N3000 X5.3752 Y4.3272
N3005 X5.3729 Y4.3264 Z-0.0761
N3010 X5.3706 Y4.3255 Z-0.0762
N3015 X5.3683 Y4.3246 Z-0.0763
N3020 X5.3661 Y4.3235 Z-0.0764
N3025 X5.3639 Y4.3224 Z-0.0765
N3030 X5.3597 Y4.3199 Z-0.0766
N3035 X5.3577 Y4.3185 Z-0.0767
N3040 X5.3557 Y4.317 Z-0.0768
N3045 X5.3538 Y4.3154 Z-0.0769
N3050 X5.3519 Y4.3138 Z-0.077
N3055 X5.3502 Y4.3121 Z-0.0771
N3060 X5.3485 Y4.3103 Z-0.0772
N3065 X5.3468 Y4.3085
N3070 X5.3453 Y4.3066 Z-0.0773
N3075 X5.3424 Y4.3026 Z-0.0775
N3080 X5.3411 Y4.3005 Z-0.0776
N3085 X5.3398 Y4.2984 Z-0.0777
N3090 X5.3387 Y4.2962 Z-0.0778
N3095 X5.3376 Y4.294
N3100 X5.3367 Y4.2918 Z-0.0779
N3105 X5.3358 Y4.2895 Z-0.078
N3110 X5.335 Y4.2871 Z-0.0781
N3115 X5.3343 Y4.2848 Z-0.0782
N3120 X5.3332 Y4.28 Z-0.0784
N3125 X5.3328 Y4.2776
N3130 X5.3325 Y4.2751 Z-0.0785
N3135 X5.3323 Y4.2722 Z-0.0786
N3140 X5.3322 Y4.2692 Z-0.0787
N3145 Y4.269
N3150 Y4.2688
N3155 Y4.2687 Z-0.0788
N3160 X5.3323 Y4.2665
N3165 X5.3324 Y4.2641 Z-0.0789
N3170 X5.3326 Y4.2616 Z-0.079
N3175 X5.333 Y4.2592 Z-0.0791
N3180 X5.3334 Y4.2568 Z-0.0792
N3185 X5.334 Y4.2544 Z-0.0793
N3190 X5.3346 Y4.252
N3195 X5.3353 Y4.2497 Z-0.0794
N3200 X5.337 Y4.2451 Z-0.0796
N3205 X5.3381 Y4.2428 Z-0.0797
N3210 X5.3391 Y4.2406 Z-0.0798
N3215 X5.3403 Y4.2385 Z-0.0799
N3220 X5.3416 Y4.2364
N3225 X5.343 Y4.2343 Z-0.08
N3230 X5.3444 Y4.2323 Z-0.0801
N3235 X5.3459 Y4.2304 Z-0.0802
N3240 X5.3475 Y4.2285 Z-0.0803
N3245 X5.3509 Y4.225 Z-0.0805
N3250 X5.3527 Y4.2233
N3255 X5.3545 Y4.2217 Z-0.0806
N3260 X5.3565 Y4.2202 Z-0.0807
N3265 X5.3585 Y4.2187 Z-0.0808
N3270 X5.3605 Y4.2174 Z-0.0809
N3275 X5.3626 Y4.2161 Z-0.081
N3280 X5.3648 Y4.2149 Z-0.0811
N3285 X5.367 Y4.2138
N3290 X5.3715 Y4.2119 Z-0.0813
N3295 X5.3738 Y4.2111 Z-0.0814
N3300 X5.3761 Y4.2103 Z-0.0815
N3305 X5.3785 Y4.2097 Z-0.0816
N3310 X5.3809 Y4.2091 Z-0.0817
N3315 X5.3833 Y4.2087
N3320 X5.3857 Y4.2083 Z-0.0818
N3325 X5.3882 Y4.2081 Z-0.0819
N3330 X5.3906 Y4.2079 Z-0.082
N3335 X5.3955 Z-0.0822
N3340 X5.398 Y4.2081 Z-0.0823
N3345 X5.4004 Y4.2083
N3350 X5.4028 Y4.2087 Z-0.0824
N3355 X5.4053 Y4.2091 Z-0.0825
N3360 X5.4077 Y4.2096 Z-0.0826
N3365 X5.41 Y4.2103 Z-0.0827
N3370 X5.4147 Y4.2118 Z-0.0829
N3375 X5.417 Y4.2127
N3380 X5.4192 Y4.2137 Z-0.083
N3385 X5.4214 Y4.2148 Z-0.0831
N3390 X5.4235 Y4.216 Z-0.0832
N3395 X5.4256 Y4.2173 Z-0.0833
N3400 X5.4277 Y4.2186 Z-0.0834
N3405 X5.4297 Y4.22 Z-0.0835
N3410 X5.4316 Y4.2215
N3415 X5.4353 Y4.2248 Z-0.0837
N3420 X5.4371 Y4.2265 Z-0.0838
N3425 X5.4387 Y4.2283 Z-0.0839
N3430 X5.4403 Y4.2302 Z-0.084
N3435 X5.4418 Y4.2321 Z-0.0841
N3440 X5.4433 Y4.2341
N3445 X5.4446 Y4.2362 Z-0.0842
N3450 X5.4471 Y4.2404 Z-0.0844
N3455 X5.4492 Y4.2449 Z-0.0846
N3460 X5.4501 Y4.2471 Z-0.0847
N3465 X5.4509 Y4.2494
N3470 X5.4523 Y4.2541 Z-0.0849
N3475 X5.4533 Y4.259 Z-0.0851
N3480 X5.4539 Y4.2638 Z-0.0852
N3485 X5.4541 Y4.2687 Z-0.0854
N3490 Y4.2712 Z-0.0855
N3495 X5.4539 Y4.2736 Z-0.0856
N3500 X5.4537 Y4.2761 Z-0.0857
N3505 X5.4534 Y4.2785 Z-0.0858
N3510 X5.4529 Y4.2809
N3515 X5.4524 Y4.2833 Z-0.0859
N3520 X5.4518 Y4.2857 Z-0.086
N3525 X5.451 Y4.288 Z-0.0861
N3530 X5.4493 Y4.2926 Z-0.0863
N3535 X5.4483 Y4.2948 Z-0.0864
N3540 X5.4472 Y4.297
N3545 X5.446 Y4.2992 Z-0.0865
N3550 X5.4448 Y4.3013 Z-0.0866
N3555 X5.4434 Y4.3033 Z-0.0867
N3560 X5.442 Y4.3053 Z-0.0868
N3565 X5.4405 Y4.3073 Z-0.0869
N3570 X5.4389 Y4.3091 Z-0.087
N3575 X5.4355 Y4.3127 Z-0.0871
N3580 X5.4337 Y4.3143 Z-0.0872
N3585 X5.4318 Y4.3159 Z-0.0873
N3590 X5.4299 Y4.3174 Z-0.0874
N3595 X5.4279 Y4.3189 Z-0.0875
N3600 X5.4259 Y4.3202 Z-0.0876
N3605 X5.4238 Y4.3215
N3610 X5.4216 Y4.3227 Z-0.0877
N3615 X5.4194 Y4.3238 Z-0.0878
N3620 X5.4149 Y4.3257 Z-0.088
N3625 X5.4126 Y4.3266 Z-0.0881
N3630 X5.4103 Y4.3273 Z-0.0882
N3635 X5.4079 Y4.3279
N3640 X5.4055 Y4.3285 Z-0.0883
N3645 X5.4031 Y4.3289 Z-0.0884
N3650 X5.4007 Y4.3293 Z-0.0885
N3655 X5.3982 Y4.3295 Z-0.0886
N3660 X5.3958 Y4.3297 Z-0.0887
N3665 X5.3909 Z-0.0888
N3670 X5.3884 Y4.3295 Z-0.0889
N3675 X5.386 Y4.3293 Z-0.089
N3680 X5.3836 Y4.329 Z-0.0891
N3685 X5.3812 Y4.3285 Z-0.0892
N3690 X5.3788 Y4.328 Z-0.0893
N3695 X5.3764 Y4.3274 Z-0.0894
N3700 X5.3741 Y4.3266
N3705 X5.3717 Y4.3258 Z-0.0895
N3710 X5.3672 Y4.3239 Z-0.0897
N3715 X5.365 Y4.3228 Z-0.0898
N3720 X5.3629 Y4.3216 Z-0.0899
N3725 X5.3608 Y4.3204 Z-0.09
N3730 X5.3587 Y4.319
N3735 X5.3568 Y4.3176 Z-0.0901
N3740 X5.3548 Y4.3161 Z-0.0902
N3745 X5.3511 Y4.3128 Z-0.0904
N3750 X5.3494 Y4.3111 Z-0.0905
N3755 X5.3478 Y4.3093 Z-0.0906
N3760 X5.3462 Y4.3074
N3765 X5.3446 Y4.3055 Z-0.0907
N3770 X5.3432 Y4.3035 Z-0.0908
N3775 X5.3419 Y4.3015 Z-0.0909
N3780 X5.3406 Y4.2994 Z-0.091
N3785 X5.3394 Y4.2973 Z-0.0911
N3790 X5.3373 Y4.2928 Z-0.0912
N3795 X5.3364 Y4.2905 Z-0.0913
N3800 X5.3355 Y4.2882 Z-0.0914
N3805 X5.3348 Y4.2859 Z-0.0915
N3810 X5.3342 Y4.2835 Z-0.0916
N3815 X5.3336 Y4.2811 Z-0.0917
N3820 X5.3332 Y4.2787
N3825 X5.3328 Y4.2763 Z-0.0918
N3830 X5.3326 Y4.2739 Z-0.0919
N3835 X5.3324 Y4.269 Z-0.0921
N3840 Y4.2665 Z-0.0922
N3845 X5.3326 Y4.2641 Z-0.0923
N3850 X5.3328 Y4.2617
N3855 X5.3331 Y4.2592 Z-0.0924
N3860 X5.3336 Y4.2568 Z-0.0925
N3865 X5.3341 Y4.2544 Z-0.0926
N3870 X5.3347 Y4.2521 Z-0.0927
N3875 X5.3355 Y4.2497 Z-0.0928
N3880 X5.3372 Y4.2451 Z-0.0929
N3885 X5.3382 Y4.2429 Z-0.093
N3890 X5.3393 Y4.2407 Z-0.0931
N3895 X5.3405 Y4.2386 Z-0.0932
N3900 X5.3417 Y4.2365 Z-0.0933
N3905 X5.3431 Y4.2344 Z-0.0934
N3910 X5.3445 Y4.2324 Z-0.0935
N3915 X5.346 Y4.2305
N3920 X5.3476 Y4.2286 Z-0.0936
N3925 X5.351 Y4.2251 Z-0.0938
N3930 X5.3528 Y4.2234 Z-0.0939
N3935 X5.3546 Y4.2218 Z-0.094
N3940 X5.3566 Y4.2203 Z-0.0941
N3945 X5.3586 Y4.2189
N3950 X5.3606 Y4.2175 Z-0.0942
N3955 X5.3627 Y4.2163 Z-0.0943
N3960 X5.3648 Y4.2151 Z-0.0944
N3965 X5.367 Y4.214 Z-0.0945
N3970 X5.3715 Y4.212 Z-0.0947
N3975 X5.3738 Y4.2112
N3980 X5.3762 Y4.2105 Z-0.0948
N3985 X5.3785 Y4.2099 Z-0.0949
N3990 X5.3809 Y4.2093 Z-0.095
N3995 X5.3833 Y4.2089 Z-0.0951
N4000 X5.3857 Y4.2085 Z-0.0952
N4005 X5.3882 Y4.2083 Z-0.0953
N4010 X5.3906 Y4.2081
N4015 X5.3955 Z-0.0955
N4020 X5.398 Y4.2082 Z-0.0956
N4025 X5.4004 Y4.2085 Z-0.0957
N4030 X5.4028 Y4.2088 Z-0.0958
N4035 X5.4052 Y4.2093 Z-0.0959
N4040 X5.4076 Y4.2098
N4045 X5.41 Y4.2104 Z-0.096
N4050 X5.4146 Y4.212 Z-0.0962
N4055 X5.4169 Y4.2129 Z-0.0963
N4060 X5.4191 Y4.2139 Z-0.0964
N4065 X5.4213 Y4.215
N4070 X5.4235 Y4.2161 Z-0.0965
N4075 X5.4256 Y4.2174 Z-0.0966
N4080 X5.4276 Y4.2187 Z-0.0967
N4085 X5.4296 Y4.2202 Z-0.0968
N4090 X5.4315 Y4.2217 Z-0.0969
N4095 X5.4352 Y4.2249 Z-0.097
N4100 X5.4369 Y4.2266 Z-0.0971
N4105 X5.4386 Y4.2284 Z-0.0972
N4110 X5.4402 Y4.2303 Z-0.0973
N4115 X5.4417 Y4.2322 Z-0.0974
N4120 X5.4431 Y4.2342 Z-0.0975
N4125 X5.4445 Y4.2363 Z-0.0976
N4130 X5.4469 Y4.2405 Z-0.0977
N4135 X5.449 Y4.2449 Z-0.0979
N4140 X5.4499 Y4.2472 Z-0.098
N4145 X5.4508 Y4.2495 Z-0.0981
N4150 X5.4521 Y4.2542 Z-0.0982
N4155 X5.4531 Y4.259 Z-0.0984
N4160 X5.4537 Y4.2638 Z-0.0986
N4165 X5.4539 Y4.2687 Z-0.0988
N4170 Y4.2712
N4175 X5.4538 Y4.2736 Z-0.0989
N4180 X5.4535 Y4.2761 Z-0.099
N4185 X5.4532 Y4.2785 Z-0.0991
N4190 X5.4527 Y4.2809 Z-0.0992
N4195 X5.4522 Y4.2833 Z-0.0993
N4200 X5.4516 Y4.2856 Z-0.0994
N4205 X5.4509 Y4.288
N4210 X5.4491 Y4.2925 Z-0.0996
N4215 X5.4481 Y4.2948 Z-0.0997
N4220 X5.447 Y4.297 Z-0.0998
N4225 X5.4459 Y4.2991 Z-0.0999
N4230 X5.4446 Y4.3012
N4235 X5.4433 Y4.3032 Z-0.1
N4240 X5.4418 Y4.3052 Z-0.1001
N4245 X5.4403 Y4.3072 Z-0.1002
N4250 X5.4387 Y4.309 Z-0.1003
N4255 X5.4354 Y4.3126 Z-0.1005
N4260 X5.4336 Y4.3142
N4265 X5.4317 Y4.3158 Z-0.1006
N4270 X5.4298 Y4.3173 Z-0.1007
N4275 X5.4278 Y4.3187 Z-0.1008
N4280 X5.4258 Y4.3201 Z-0.1009
N4285 X5.4237 Y4.3214 Z-0.101
N4290 X5.4215 Y4.3225 Z-0.1011
N4295 X5.4194 Y4.3236
N4300 X5.4149 Y4.3256 Z-0.1013
N4305 X5.4126 Y4.3264 Z-0.1014
N4310 X5.4102 Y4.3271 Z-0.1015
N4315 X5.4079 Y4.3277 Z-0.1016
N4320 X5.4055 Y4.3283 Z-0.1017
N4325 X5.4031 Y4.3287
N4330 X5.4007 Y4.3291 Z-0.1018
N4335 X5.3982 Y4.3293 Z-0.1019
N4340 X5.3958 Y4.3295 Z-0.102
N4345 X5.3909 Z-0.1022
N4350 X5.3885 Y4.3293 Z-0.1023
N4355 X5.386 Y4.3291
N4360 X5.3836 Y4.3288 Z-0.1024
N4365 X5.3812 Y4.3283 Z-0.1025
N4370 X5.3788 Y4.3278 Z-0.1026
N4375 X5.3765 Y4.3272 Z-0.1027
N4380 X5.3741 Y4.3264 Z-0.1028
N4385 X5.3718 Y4.3256
N4390 X5.3673 Y4.3237 Z-0.103
N4395 X5.3651 Y4.3226 Z-0.1031
N4400 X5.363 Y4.3215 Z-0.1032
N4405 X5.3609 Y4.3202 Z-0.1033
N4410 X5.3589 Y4.3188 Z-0.1034
N4415 X5.3569 Y4.3174
N4420 X5.3549 Y4.3159 Z-0.1035
N4425 X5.3513 Y4.3127 Z-0.1037
N4430 X5.3496 Y4.311 Z-0.1038
N4435 X5.3479 Y4.3092 Z-0.1039
N4440 X5.3463 Y4.3073 Z-0.104
N4445 X5.3448 Y4.3054
N4450 X5.3434 Y4.3034 Z-0.1041
N4455 X5.342 Y4.3014 Z-0.1042
N4460 X5.3408 Y4.2993 Z-0.1043
N4465 X5.3396 Y4.2972 Z-0.1044
N4470 X5.3375 Y4.2927 Z-0.1046
N4475 X5.3366 Y4.2905
N4480 X5.3357 Y4.2882 Z-0.1047
N4485 X5.335 Y4.2858 Z-0.1048
N4490 X5.3344 Y4.2835 Z-0.1049
N4495 X5.3338 Y4.2811 Z-0.105
N4500 X5.3334 Y4.2787 Z-0.1051
N4505 X5.333 Y4.2763 Z-0.1052
N4510 X5.3328 Y4.2739
N4515 X5.3326 Y4.269 Z-0.1054
N4520 Y4.2665 Z-0.1055
N4525 X5.3328 Y4.2641 Z-0.1056
N4530 X5.333 Y4.2617 Z-0.1057
N4535 X5.3334 Y4.2593
N4540 X5.3338 Y4.2569 Z-0.1058
N4545 X5.3343 Y4.2545 Z-0.1059
N4550 X5.3349 Y4.2521 Z-0.106
N4555 X5.3357 Y4.2498 Z-0.1061
N4560 X5.3374 Y4.2452 Z-0.1063
N4565 X5.3384 Y4.243
N4570 X5.3395 Y4.2408 Z-0.1064
N4575 X5.3407 Y4.2387 Z-0.1065
N4580 X5.3419 Y4.2366 Z-0.1066
N4585 X5.3433 Y4.2345 Z-0.1067
N4590 X5.3447 Y4.2325 Z-0.1068
N4595 X5.3462 Y4.2306 Z-0.1069
N4600 X5.3478 Y4.2288
N4605 X5.3511 Y4.2252 Z-0.1071
N4610 X5.3529 Y4.2236 Z-0.1072
N4615 X5.3548 Y4.222 Z-0.1073
N4620 X5.3567 Y4.2205 Z-0.1074
N4625 X5.3587 Y4.2191
N4630 X5.3607 Y4.2177 Z-0.1075
N4635 X5.3628 Y4.2164 Z-0.1076
N4640 X5.3649 Y4.2153 Z-0.1077
N4645 X5.3671 Y4.2142 Z-0.1078
N4650 X5.3716 Y4.2123 Z-0.108
N4655 X5.3739 Y4.2114
N4660 X5.3762 Y4.2107 Z-0.1081
N4665 X5.3786 Y4.2101 Z-0.1082
N4670 X5.381 Y4.2095 Z-0.1083
N4675 X5.3834 Y4.2091 Z-0.1084
N4680 X5.3858 Y4.2087 Z-0.1085
N4685 X5.3882 Y4.2085 Z-0.1086
N4690 X5.3906 Y4.2083
N4695 X5.3955 Z-0.1088
N4700 X5.3979 Y4.2085 Z-0.1089
N4705 X5.4004 Y4.2087 Z-0.109
N4710 X5.4028 Y4.2091 Z-0.1091
N4715 X5.4052 Y4.2095 Z-0.1092
N4720 X5.4076 Y4.21
N4725 X5.4099 Y4.2106 Z-0.1093
N4730 X5.4146 Y4.2122 Z-0.1095
N4735 X5.4168 Y4.2131 Z-0.1096
N4740 X5.419 Y4.2141 Z-0.1097
N4745 X5.4212 Y4.2152
N4750 X5.4234 Y4.2163 Z-0.1098
N4755 X5.4254 Y4.2176 Z-0.1099
N4760 X5.4275 Y4.2189 Z-0.11
N4765 X5.4295 Y4.2204 Z-0.1101
N4770 X5.4314 Y4.2219 Z-0.1102
N4775 X5.4351 Y4.2251 Z-0.1103
N4780 X5.4368 Y4.2268 Z-0.1104
N4785 X5.4384 Y4.2286 Z-0.1105
N4790 X5.44 Y4.2305 Z-0.1106
N4795 X5.4415 Y4.2324 Z-0.1107
N4800 X5.4429 Y4.2344 Z-0.1108
N4805 X5.4443 Y4.2364 Z-0.1109
N4810 X5.4467 Y4.2406 Z-0.111
N4815 X5.4488 Y4.245 Z-0.1112
N4820 X5.4497 Y4.2473 Z-0.1113
N4825 X5.4506 Y4.2496 Z-0.1114
N4830 X5.4519 Y4.2542 Z-0.1115
N4835 X5.4529 Y4.259 Z-0.1117
N4840 X5.4535 Y4.2639 Z-0.1119
N4845 X5.4537 Y4.2687 Z-0.112
N4850 Y4.2712 Z-0.1121
N4855 X5.4535 Y4.2736 Z-0.1122
N4860 X5.4533 Y4.276 Z-0.1123
N4865 X5.4529 Y4.2784 Z-0.1124
N4870 X5.4525 Y4.2808 Z-0.1125
N4875 X5.452 Y4.2832 Z-0.1126
N4880 X5.4514 Y4.2856
N4885 X5.4506 Y4.2879 Z-0.1127
N4890 X5.4489 Y4.2925 Z-0.1129
N4895 X5.4479 Y4.2947 Z-0.113
N4900 X5.4468 Y4.2969 Z-0.1131
N4905 X5.4457 Y4.299
N4910 X5.4444 Y4.3011 Z-0.1132
N4915 X5.4431 Y4.3031 Z-0.1133
N4920 X5.4416 Y4.3051 Z-0.1134
N4925 X5.4401 Y4.307 Z-0.1135
N4930 X5.4386 Y4.3089 Z-0.1136
N4935 X5.4352 Y4.3124 Z-0.1137
N4940 X5.4334 Y4.314 Z-0.1138
N4945 X5.4316 Y4.3156 Z-0.1139
N4950 X5.4296 Y4.3171 Z-0.114
N4955 X5.4277 Y4.3185 Z-0.1141
N4960 X5.4256 Y4.3199 Z-0.1142
N4965 X5.4236 Y4.3212 Z-0.1143
N4970 X5.4214 Y4.3223
N4975 X5.4193 Y4.3234 Z-0.1144
N4980 X5.4148 Y4.3253 Z-0.1146
N4985 X5.4125 Y4.3262 Z-0.1147
N4990 X5.4102 Y4.3269 Z-0.1148
N4995 X5.4078 Y4.3275
N5000 X5.4054 Y4.3281 Z-0.1149
N5005 X5.403 Y4.3285 Z-0.115
N5010 X5.4006 Y4.3289 Z-0.1151
N5015 X5.3982 Y4.3291 Z-0.1152
N5020 X5.3958 Y4.3293 Z-0.1153
N5025 X5.3909 Z-0.1154
N5030 X5.3885 Y4.3291 Z-0.1155
N5035 X5.386 Y4.3289 Z-0.1156
N5040 X5.3836 Y4.3285 Z-0.1157
N5045 X5.3812 Y4.3281 Z-0.1158
N5050 X5.3789 Y4.3276 Z-0.1159
N5055 X5.3765 Y4.3269 Z-0.116
N5060 X5.3742 Y4.3262
N5065 X5.3719 Y4.3254 Z-0.1161
N5070 X5.3674 Y4.3235 Z-0.1163
N5075 X5.3652 Y4.3224 Z-0.1164
N5080 X5.3631 Y4.3213 Z-0.1165
N5085 X5.361 Y4.32
N5090 X5.359 Y4.3187 Z-0.1166
N5095 X5.357 Y4.3172 Z-0.1167
N5100 X5.3551 Y4.3157 Z-0.1168
N5105 X5.3514 Y4.3125 Z-0.117
N5110 X5.3497 Y4.3108 Z-0.1171
N5115 X5.3481 Y4.309
N5120 X5.3465 Y4.3072 Z-0.1172
N5125 X5.345 Y4.3053 Z-0.1173
N5130 X5.3436 Y4.3033 Z-0.1174
N5135 X5.3422 Y4.3013 Z-0.1175
N5140 X5.341 Y4.2992 Z-0.1176
N5145 X5.3398 Y4.297
N5150 X5.3377 Y4.2927 Z-0.1178
N5155 X5.3368 Y4.2904 Z-0.1179
N5160 X5.336 Y4.2881 Z-0.118
N5165 X5.3354 Y4.2865
N5170 X5.3349 Y4.2848 Z-0.1181
N5175 Y4.2846
N5180 X5.3346 Y4.2834 Z-0.1182
N5185 X5.3343 Y4.2822
N5190 X5.3338 Y4.2798 Z-0.1183
N5195 X5.3334 Y4.2773 Z-0.1184
N5200 X5.3331 Y4.2748 Z-0.1185
N5205 X5.3329 Y4.2723
N5210 X5.3328 Y4.2698 Z-0.1186
N5215 Y4.2673 Z-0.1187
N5220 X5.333 Y4.2648 Z-0.1188
N5225 X5.3332 Y4.2624 Z-0.1189
N5230 X5.3335 Y4.2599 Z-0.119
N5235 X5.3339 Y4.2574 Z-0.1191
N5240 X5.3344 Y4.255 Z-0.1192
N5245 X5.3358 Y4.2502 Z-0.1193
N5250 X5.3366 Y4.2478 Z-0.1194
N5255 X5.3375 Y4.2455 Z-0.1195
N5260 X5.3385 Y4.2432 Z-0.1196
N5265 X5.3397 Y4.241 Z-0.1197
N5270 X5.3409 Y4.2388 Z-0.1198
N5275 X5.3421 Y4.2367 Z-0.1199
N5280 X5.3435 Y4.2346
N5285 X5.345 Y4.2326 Z-0.12
N5290 X5.3465 Y4.2306 Z-0.1201
N5295 X5.3481 Y4.2287 Z-0.1202
N5300 X5.3498 Y4.2269 Z-0.1203
N5305 X5.3516 Y4.2251 Z-0.1204
N5310 X5.3554 Y4.2218 Z-0.1205
N5315 X5.3573 Y4.2203 Z-0.1206
N5320 X5.3594 Y4.2189 Z-0.1207
N5325 X5.3615 Y4.2175 Z-0.1208
N5330 X5.3636 Y4.2163 Z-0.1209
N5335 X5.3658 Y4.2151 Z-0.121
N5340 X5.3681 Y4.214 Z-0.1211
N5345 X5.3704 Y4.213 Z-0.1212
N5350 X5.3727 Y4.2121
N5355 X5.3751 Y4.2113 Z-0.1213
N5360 X5.3775 Y4.2106 Z-0.1214
N5365 X5.3823 Y4.2095 Z-0.1216
N5370 X5.3848 Y4.2091 Z-0.1217
N5375 X5.3872 Y4.2088 Z-0.1218
N5380 X5.3897 Y4.2086 Z-0.1219
N5385 X5.3922 Y4.2085
N5390 X5.3947 Z-0.122
N5395 X5.3972 Y4.2087 Z-0.1221
N5400 X5.3997 Y4.2089 Z-0.1222
N5405 X5.4022 Y4.2092 Z-0.1223
N5410 X5.4046 Y4.2096 Z-0.1224
N5415 X5.4071 Y4.2101 Z-0.1225
N5420 X5.4118 Y4.2115 Z-0.1226
N5425 X5.4142 Y4.2123 Z-0.1227
N5430 X5.4165 Y4.2132 Z-0.1228
N5435 X5.4188 Y4.2142 Z-0.1229
N5440 X5.421 Y4.2154 Z-0.123
N5445 X5.4232 Y4.2165 Z-0.1231
N5450 X5.4254 Y4.2178 Z-0.1232
N5455 X5.4274 Y4.2192
N5460 X5.4295 Y4.2207 Z-0.1233
N5465 X5.4314 Y4.2222 Z-0.1234
N5470 X5.4333 Y4.2238 Z-0.1235
N5475 X5.4351 Y4.2255 Z-0.1236
N5480 X5.4369 Y4.2273 Z-0.1237
N5485 X5.4402 Y4.231 Z-0.1239
N5490 X5.4417 Y4.233
N5495 X5.4431 Y4.235 Z-0.124
N5500 X5.4445 Y4.2371 Z-0.1241
N5505 X5.4457 Y4.2393 Z-0.1242
N5510 X5.448 Y4.2438 Z-0.1244
N5515 X5.4499 Y4.2484 Z-0.1245
N5520 X5.4506 Y4.2507 Z-0.1246
N5525 X5.4514 Y4.2531 Z-0.1247
N5530 X5.4524 Y4.258 Z-0.1249
N5535 X5.4531 Y4.2629 Z-0.1251
N5540 X5.4534 Y4.2679 Z-0.1252
N5545 Y4.2704 Z-0.1253
N5550 X5.4533 Y4.2729 Z-0.1254
N5555 X5.4531 Y4.2753 Z-0.1255
N5560 X5.4528 Y4.2778 Z-0.1256
N5565 X5.4524 Y4.2803 Z-0.1257
N5570 X5.4518 Y4.2827 Z-0.1258
N5575 X5.4512 Y4.2851 Z-0.1259
N5580 X5.4505 Y4.2875
N5585 X5.4488 Y4.2922 Z-0.1261
N5590 X5.4477 Y4.2944 Z-0.1262
N5595 X5.4466 Y4.2967 Z-0.1263
N5600 X5.4454 Y4.2988 Z-0.1264
N5605 X5.4442 Y4.301 Z-0.1265
N5610 X5.4428 Y4.303
N5615 X5.4413 Y4.3051 Z-0.1266
N5620 X5.4398 Y4.307 Z-0.1267
N5625 X5.4382 Y4.3089 Z-0.1268
N5630 X5.4365 Y4.3107 Z-0.1269
N5635 X5.4347 Y4.3125 Z-0.127
N5640 X5.431 Y4.3158 Z-0.1272
N5645 X5.429 Y4.3173
N5650 X5.427 Y4.3187 Z-0.1273
N5655 X5.4249 Y4.3201 Z-0.1274
N5660 X5.4227 Y4.3213 Z-0.1275
N5665 X5.4205 Y4.3225 Z-0.1276
N5670 X5.4183 Y4.3236 Z-0.1277
N5675 X5.416 Y4.3246 Z-0.1278
N5680 X5.4137 Y4.3255
N5685 X5.4113 Y4.3263 Z-0.1279
N5690 X5.4089 Y4.327 Z-0.128
N5695 X5.4041 Y4.3281 Z-0.1282
N5700 X5.4016 Y4.3285 Z-0.1283
N5705 X5.3991 Y4.3287 Z-0.1284
N5710 X5.3967 Y4.3289 Z-0.1285
N5715 X5.3942 Y4.329
N5720 X5.3917 Z-0.1286
N5725 X5.3892 Y4.3289 Z-0.1287
N5730 X5.3867 Y4.3287 Z-0.1288
N5735 X5.3843 Y4.3284 Z-0.1289
N5740 X5.3818 Y4.3279 Z-0.129
N5745 X5.3794 Y4.3274 Z-0.1291
N5750 X5.3746 Y4.3261 Z-0.1292
N5755 X5.3722 Y4.3252 Z-0.1293
N5760 X5.3699 Y4.3243 Z-0.1294
N5765 X5.3677 Y4.3233 Z-0.1295
N5770 X5.3654 Y4.3222 Z-0.1296
N5775 X5.3633 Y4.321 Z-0.1297
N5780 X5.3611 Y4.3197 Z-0.1298
N5785 X5.3591 Y4.3184
N5790 X5.357 Y4.3169 Z-0.1299
N5795 X5.3551 Y4.3154 Z-0.13
N5800 X5.3532 Y4.3138 Z-0.1301
N5805 X5.3514 Y4.3121 Z-0.1302
N5810 X5.3496 Y4.3103 Z-0.1303
N5815 X5.3464 Y4.3066 Z-0.1304
N5820 X5.3448 Y4.3046 Z-0.1305
N5825 X5.3434 Y4.3026 Z-0.1306
N5830 X5.3421 Y4.3005 Z-0.1307
N5835 X5.3408 Y4.2983 Z-0.1308
N5840 X5.3396 Y4.2961 Z-0.1309
N5845 X5.3385 Y4.2939 Z-0.131
N5850 X5.3376 Y4.2916 Z-0.1311
N5855 X5.3367 Y4.2893
N5860 X5.3359 Y4.2869 Z-0.1312
N5865 X5.3352 Y4.2846 Z-0.1313
N5870 X5.3341 Y4.2797 Z-0.1315
N5875 X5.3337 Y4.2773 Z-0.1316
N5880 X5.3334 Y4.2748 Z-0.1317
N5885 X5.3332 Y4.2723
N5890 X5.3331 Y4.2698 Z-0.1318
N5895 Y4.2673 Z-0.1319
N5900 X5.3332 Y4.2649 Z-0.132
N5905 X5.3335 Y4.2624 Z-0.1321
N5910 X5.3338 Y4.2599 Z-0.1322
N5915 X5.3342 Y4.2575 Z-0.1323
N5920 X5.3347 Y4.2551 Z-0.1324
N5925 X5.3361 Y4.2503 Z-0.1325
N5930 X5.3369 Y4.2479 Z-0.1326
N5935 X5.3378 Y4.2456 Z-0.1327
N5940 X5.3388 Y4.2433 Z-0.1328
N5945 X5.3399 Y4.2411 Z-0.1329
N5950 X5.3411 Y4.2389 Z-0.133
N5955 X5.3424 Y4.2368
N5960 X5.3438 Y4.2347 Z-0.1331
N5965 X5.3452 Y4.2327 Z-0.1332
N5970 X5.3467 Y4.2308 Z-0.1333
N5975 X5.3483 Y4.2289 Z-0.1334
N5980 X5.35 Y4.2271 Z-0.1335
N5985 X5.3518 Y4.2253 Z-0.1336
N5990 X5.3555 Y4.2221 Z-0.1337
N5995 X5.3575 Y4.2205 Z-0.1338
N6000 X5.3595 Y4.2191 Z-0.1339
N6005 X5.3616 Y4.2178 Z-0.134
N6010 X5.3638 Y4.2165 Z-0.1341
N6015 X5.366 Y4.2153 Z-0.1342
N6020 X5.3682 Y4.2143 Z-0.1343
N6025 X5.3705 Y4.2133
N6030 X5.3728 Y4.2124 Z-0.1344
N6035 X5.3751 Y4.2116 Z-0.1345
N6040 X5.3775 Y4.2109 Z-0.1346
N6045 X5.3824 Y4.2098 Z-0.1348
N6050 X5.3848 Y4.2094 Z-0.1349
N6055 X5.3873 Y4.2091 Z-0.135
N6060 X5.3897 Y4.2089
N6065 X5.3922 Y4.2088 Z-0.1351
N6070 X5.3947 Z-0.1352
N6075 X5.3972 Y4.209 Z-0.1353
N6080 X5.3997 Y4.2092 Z-0.1354
N6085 X5.4021 Y4.2095 Z-0.1355
N6090 X5.4046 Y4.2099 Z-0.1356
N6095 X5.407 Y4.2104
N6100 X5.4118 Y4.2118 Z-0.1358
N6105 X5.4141 Y4.2126 Z-0.1359
N6110 X5.4164 Y4.2135 Z-0.136
N6115 X5.4187 Y4.2145 Z-0.1361
N6120 X5.4209 Y4.2156 Z-0.1362
N6125 X5.4231 Y4.2168 Z-0.1363
N6130 X5.4252 Y4.2181
N6135 X5.4273 Y4.2195 Z-0.1364
N6140 X5.4293 Y4.2209 Z-0.1365
N6145 X5.4312 Y4.2224 Z-0.1366
N6150 X5.4331 Y4.224 Z-0.1367
N6155 X5.4349 Y4.2257 Z-0.1368
N6160 X5.4367 Y4.2275 Z-0.1369
N6165 X5.4399 Y4.2312 Z-0.137
N6170 X5.4414 Y4.2332 Z-0.1371
N6175 X5.4429 Y4.2352 Z-0.1372
N6180 X5.4442 Y4.2373 Z-0.1373
N6185 X5.4455 Y4.2395 Z-0.1374
N6190 X5.4477 Y4.2439 Z-0.1376
N6195 X5.4496 Y4.2485 Z-0.1377
N6200 X5.4504 Y4.2508 Z-0.1378
N6205 X5.4511 Y4.2532 Z-0.1379
N6210 X5.4522 Y4.258 Z-0.1381
N6215 X5.4528 Y4.2629 Z-0.1382
N6220 X5.4531 Y4.2679 Z-0.1384
N6225 Y4.2704 Z-0.1385
N6230 X5.453 Y4.2728 Z-0.1386
N6235 X5.4528 Y4.2753 Z-0.1387
N6240 X5.4525 Y4.2778 Z-0.1388
N6245 X5.4521 Y4.2802
N6250 X5.4516 Y4.2826 Z-0.1389
N6255 X5.4509 Y4.285 Z-0.139
N6260 X5.4502 Y4.2874 Z-0.1391
N6265 X5.4485 Y4.2921 Z-0.1393
N6270 X5.4475 Y4.2943 Z-0.1394
N6275 X5.4464 Y4.2965 Z-0.1395
N6280 X5.4452 Y4.2987
N6285 X5.4439 Y4.3008 Z-0.1396
N6290 X5.4425 Y4.3029 Z-0.1397
N6295 X5.4411 Y4.3049 Z-0.1398
N6300 X5.4396 Y4.3068 Z-0.1399
N6305 X5.4379 Y4.3087 Z-0.14
N6310 X5.4363 Y4.3105 Z-0.1401
N6315 X5.4345 Y4.3123
N6320 X5.4308 Y4.3155 Z-0.1403
N6325 X5.4288 Y4.317 Z-0.1404
N6330 X5.4268 Y4.3185 Z-0.1405
N6335 X5.4247 Y4.3198 Z-0.1406
N6340 X5.4226 Y4.3211 Z-0.1407
N6345 X5.4204 Y4.3222
N6350 X5.4182 Y4.3233 Z-0.1408
N6355 X5.4159 Y4.3243 Z-0.1409
N6360 X5.4136 Y4.3252 Z-0.141
N6365 X5.4112 Y4.326 Z-0.1411
N6370 X5.4089 Y4.3267 Z-0.1412
N6375 X5.404 Y4.3278 Z-0.1414
N6380 X5.4016 Y4.3282
N6385 X5.3991 Y4.3284 Z-0.1415
N6390 X5.3966 Y4.3286 Z-0.1416
N6395 X5.3942 Y4.3287 Z-0.1417
N6400 X5.3917 Z-0.1418
N6405 X5.3892 Y4.3286 Z-0.1419
N6410 X5.3868 Y4.3284 Z-0.142
N6415 X5.3843 Y4.3281
N6420 X5.3819 Y4.3276 Z-0.1421
N6425 X5.3795 Y4.3271 Z-0.1422
N6430 X5.3747 Y4.3258 Z-0.1424
N6435 X5.3723 Y4.325 Z-0.1425
N6440 X5.37 Y4.3241 Z-0.1426
N6445 X5.3678 Y4.3231
N6450 X5.3656 Y4.322 Z-0.1427
N6455 X5.3634 Y4.3208 Z-0.1428
N6460 X5.3613 Y4.3195 Z-0.1429
N6465 X5.3592 Y4.3181 Z-0.143
N6470 X5.3572 Y4.3167 Z-0.1431
N6475 X5.3553 Y4.3151 Z-0.1432
N6480 X5.3534 Y4.3135 Z-0.1433
N6485 X5.3516 Y4.3119
N6490 X5.3498 Y4.3101 Z-0.1434
N6495 X5.3466 Y4.3064 Z-0.1436
N6500 X5.3451 Y4.3044 Z-0.1437
N6505 X5.3437 Y4.3024 Z-0.1438
N6510 X5.3423 Y4.3003 Z-0.1439
N6515 X5.3411 Y4.2982
N6520 X5.3399 Y4.296 Z-0.144
N6525 X5.3388 Y4.2938 Z-0.1441
N6530 X5.3378 Y4.2915 Z-0.1442
N6535 X5.3369 Y4.2892 Z-0.1443
N6540 X5.3362 Y4.2868 Z-0.1444
N6545 X5.3355 Y4.2845 Z-0.1445
N6550 X5.3344 Y4.2797 Z-0.1446
N6555 X5.334 Y4.2772 Z-0.1447
N6560 X5.3337 Y4.2748 Z-0.1448
N6565 X5.3335 Y4.2723 Z-0.1449
N6570 X5.3334 Y4.2698 Z-0.145
N6575 Y4.2674 Z-0.1451
N6580 X5.3335 Y4.2649 Z-0.1452
N6585 X5.3338 Y4.2624
N6590 X5.3341 Y4.26 Z-0.1453
N6595 X5.3345 Y4.2575 Z-0.1454
N6600 X5.335 Y4.2551 Z-0.1455
N6605 X5.3363 Y4.2504 Z-0.1457
N6610 X5.3372 Y4.248 Z-0.1458
N6615 X5.3381 Y4.2457
N6620 X5.3391 Y4.2435 Z-0.1459
N6625 X5.3402 Y4.2413 Z-0.146
N6630 X5.3414 Y4.2391 Z-0.1461
N6635 X5.3426 Y4.237 Z-0.1462
N6640 X5.344 Y4.2349 Z-0.1463
N6645 X5.3455 Y4.2329 Z-0.1464
N6650 X5.347 Y4.231
N6655 X5.3486 Y4.2291 Z-0.1465
N6660 X5.3503 Y4.2273 Z-0.1466
N6665 X5.352 Y4.2255 Z-0.1467
N6670 X5.3557 Y4.2223 Z-0.1469
N6675 X5.3577 Y4.2208 Z-0.147
N6680 X5.3597 Y4.2194
N6685 X5.3618 Y4.218 Z-0.1471
N6690 X5.3639 Y4.2168 Z-0.1472
N6695 X5.3661 Y4.2156 Z-0.1473
N6700 X5.3683 Y4.2145 Z-0.1474
N6705 X5.3706 Y4.2136 Z-0.1475
N6710 X5.3729 Y4.2127 Z-0.1476
N6715 X5.3752 Y4.2119
N6720 X5.3776 Y4.2112 Z-0.1477
N6725 X5.3824 Y4.2101 Z-0.1479
N6730 X5.3849 Y4.2097 Z-0.148
N6735 X5.3873 Y4.2094 Z-0.1481
N6740 X5.3898 Y4.2092 Z-0.1482
N6745 X5.3922 Y4.2091 Z-0.1483
N6750 X5.3947 Y4.2092
N6755 X5.3972 Y4.2093 Z-0.1484
N6760 X5.3996 Y4.2095 Z-0.1485
N6765 X5.4021 Y4.2098 Z-0.1486
N6770 X5.4045 Y4.2102 Z-0.1487
N6775 X5.4069 Y4.2107 Z-0.1488
N6780 X5.4117 Y4.2121 Z-0.1489
N6785 X5.414 Y4.2129 Z-0.149
N6790 X5.4163 Y4.2138 Z-0.1491
N6795 X5.4185 Y4.2148 Z-0.1492
N6800 X5.4208 Y4.2159 Z-0.1493
N6805 X5.4229 Y4.2171 Z-0.1494
N6810 X5.425 Y4.2184 Z-0.1495
N6815 X5.4271 Y4.2197
N6820 X5.4291 Y4.2212 Z-0.1496
N6825 X5.431 Y4.2227 Z-0.1497
N6830 X5.4329 Y4.2243 Z-0.1498
N6835 X5.4347 Y4.226 Z-0.1499
N6840 X5.4364 Y4.2277 Z-0.15
N6845 X5.4397 Y4.2314 Z-0.1501
N6850 X5.4412 Y4.2334 Z-0.1502
N6855 X5.4426 Y4.2354 Z-0.1503
N6860 X5.4439 Y4.2375 Z-0.1504
N6865 X5.4452 Y4.2396 Z-0.1505
N6870 X5.4474 Y4.244 Z-0.1507
N6875 X5.4493 Y4.2486 Z-0.1508
N6880 X5.45 Y4.2509 Z-0.1509
N6885 X5.4508 Y4.2533 Z-0.151
N6890 X5.4518 Y4.2581 Z-0.1512
N6895 X5.4525 Y4.263 Z-0.1513
N6900 X5.4528 Y4.2679 Z-0.1515
N6905 Y4.2704 Z-0.1516
N6910 X5.4527 Y4.2728 Z-0.1517
N6915 X5.4525 Y4.2753 Z-0.1518
N6920 X5.4522 Y4.2777 Z-0.1519
N6925 X5.4517 Y4.2801 Z-0.152
N6930 X5.4512 Y4.2826
N6935 X5.4506 Y4.2849 Z-0.1521
N6940 X5.4499 Y4.2873 Z-0.1522
N6945 X5.4482 Y4.2919 Z-0.1524
N6950 X5.4472 Y4.2942 Z-0.1525
N6955 X5.4461 Y4.2964 Z-0.1526
N6960 X5.4449 Y4.2985
N6965 X5.4436 Y4.3006 Z-0.1527
N6970 X5.4423 Y4.3027 Z-0.1528
N6975 X5.4408 Y4.3047 Z-0.1529
N6980 X5.4393 Y4.3066 Z-0.153
N6985 X5.4377 Y4.3085 Z-0.1531
N6990 X5.436 Y4.3103 Z-0.1532
N6995 X5.4343 Y4.312
N7000 X5.4306 Y4.3153 Z-0.1534
N7005 X5.4286 Y4.3168 Z-0.1535
N7010 X5.4266 Y4.3182 Z-0.1536
N7015 X5.4245 Y4.3195 Z-0.1537
N7020 X5.4224 Y4.3208 Z-0.1538
N7025 X5.4202 Y4.3219
N7030 X5.418 Y4.323 Z-0.1539
N7035 X5.4158 Y4.324 Z-0.154
N7040 X5.4135 Y4.3249 Z-0.1541
N7045 X5.4111 Y4.3256 Z-0.1542
N7050 X5.4088 Y4.3263 Z-0.1543
N7055 X5.404 Y4.3274 Z-0.1544
N7060 X5.4015 Y4.3278 Z-0.1545
N7065 X5.3991 Y4.3281 Z-0.1546
N7070 X5.3966 Y4.3283 Z-0.1547
N7075 X5.3942 Y4.3284 Z-0.1548
N7080 X5.3917 Z-0.1549
N7085 X5.3893 Y4.3282 Z-0.155
N7090 X5.3868 Y4.328
N7095 X5.3844 Y4.3277 Z-0.1551
N7100 X5.3819 Y4.3273 Z-0.1552
N7105 X5.3795 Y4.3268 Z-0.1553
N7110 X5.3748 Y4.3255 Z-0.1555
N7115 X5.3725 Y4.3246 Z-0.1556
N7120 X5.3702 Y4.3237
N7125 X5.3679 Y4.3227 Z-0.1557
N7130 X5.3657 Y4.3216 Z-0.1558
N7135 X5.3636 Y4.3205 Z-0.1559
N7140 X5.3615 Y4.3192 Z-0.156
N7145 X5.3594 Y4.3178 Z-0.1561
N7150 X5.3574 Y4.3164 Z-0.1562
N7155 X5.3555 Y4.3149
N7160 X5.3536 Y4.3133 Z-0.1563
N7165 X5.3518 Y4.3116 Z-0.1564
N7170 X5.3501 Y4.3098 Z-0.1565
N7175 X5.3469 Y4.3061 Z-0.1567
N7180 X5.3454 Y4.3042 Z-0.1568
N7185 X5.344 Y4.3022
N7190 X5.3426 Y4.3001 Z-0.1569
N7195 X5.3414 Y4.298 Z-0.157
N7200 X5.3402 Y4.2958 Z-0.1571
N7205 X5.3391 Y4.2936 Z-0.1572
N7210 X5.3375 Y4.2898 Z-0.1573
N7215 X5.3368 Y4.2878 Z-0.1574
N7220 X5.3362 Y4.2858 Z-0.1575
N7225 Y4.2856
N7230 X5.336 Y4.285
N7235 X5.3358 Y4.2844
N7240 X5.3355 Y4.2832 Z-0.1576
N7245 X5.335 Y4.2807 Z-0.1577
N7250 X5.3345 Y4.2783
N7255 X5.3342 Y4.2758 Z-0.1578
N7260 X5.3339 Y4.2732 Z-0.1579
N7265 X5.3338 Y4.2707 Z-0.158
N7270 Y4.2682 Z-0.1581
N7275 X5.3339 Y4.2657 Z-0.1582
N7280 X5.334 Y4.2631 Z-0.1583
N7285 X5.3343 Y4.2606 Z-0.1584
N7290 X5.3352 Y4.2557 Z-0.1585
N7295 X5.3359 Y4.2532 Z-0.1586
N7300 X5.3366 Y4.2508 Z-0.1587
N7305 X5.3374 Y4.2484 Z-0.1588
N7310 X5.3383 Y4.2461 Z-0.1589
N7315 X5.3393 Y4.2438 Z-0.159
N7320 X5.3405 Y4.2415 Z-0.1591
N7325 X5.3417 Y4.2393 Z-0.1592
N7330 X5.343 Y4.2371
N7335 X5.3444 Y4.235 Z-0.1593
N7340 X5.3459 Y4.233 Z-0.1594
N7345 X5.3474 Y4.231 Z-0.1595
N7350 X5.3491 Y4.2291 Z-0.1596
N7355 X5.3508 Y4.2273 Z-0.1597
N7360 X5.3526 Y4.2255 Z-0.1598
N7365 X5.3545 Y4.2238 Z-0.1599
N7370 X5.3564 Y4.2222
N7375 X5.3605 Y4.2193 Z-0.1601
N7380 X5.3626 Y4.2179 Z-0.1602
N7385 X5.3648 Y4.2167 Z-0.1603
N7390 X5.3671 Y4.2155 Z-0.1604
N7395 X5.3693 Y4.2145 Z-0.1605
N7400 X5.3717 Y4.2135 Z-0.1606
N7405 X5.374 Y4.2127
N7410 X5.3764 Y4.2119 Z-0.1607
N7415 X5.3789 Y4.2112 Z-0.1608
N7420 X5.3813 Y4.2107 Z-0.1609
N7425 X5.3838 Y4.2102 Z-0.161
N7430 X5.3863 Y4.2099 Z-0.1611
N7435 X5.3888 Y4.2097 Z-0.1612
N7440 X5.3913 Y4.2095 Z-0.1613
N7445 X5.3938
N7450 X5.3964 Y4.2096 Z-0.1614
N7455 X5.3989 Y4.2098 Z-0.1615
N7460 X5.4039 Y4.2105 Z-0.1617
N7465 X5.4064 Y4.211 Z-0.1618
N7470 X5.4088 Y4.2116 Z-0.1619
N7475 X5.4112 Y4.2123 Z-0.162
N7480 X5.4136 Y4.2131 Z-0.1621
N7485 X5.4159 Y4.214
N7490 X5.4182 Y4.2151 Z-0.1622
N7495 X5.4205 Y4.2162 Z-0.1623
N7500 X5.4227 Y4.2174 Z-0.1624
N7505 X5.4248 Y4.2187 Z-0.1625
N7510 X5.4269 Y4.2201 Z-0.1626
N7515 X5.429 Y4.2215 Z-0.1627
N7520 X5.431 Y4.2231 Z-0.1628
N7525 X5.4329 Y4.2247
N7530 X5.4347 Y4.2265 Z-0.1629
N7535 X5.4365 Y4.2283 Z-0.163
N7540 X5.4382 Y4.2302 Z-0.1631
N7545 X5.4398 Y4.2321 Z-0.1632
N7550 X5.4413 Y4.2341 Z-0.1633
N7555 X5.4427 Y4.2362 Z-0.1634
N7560 X5.4434 Y4.2373
N7565 X5.4441 Y4.2383 Z-0.1635
N7570 X5.4464 Y4.2427 Z-0.1636
N7575 X5.4484 Y4.2473 Z-0.1638
N7580 X5.45 Y4.2521 Z-0.164
N7585 X5.4513 Y4.257 Z-0.1642
N7590 X5.4517 Y4.2595
N7595 X5.452 Y4.262 Z-0.1643
N7600 X5.4524 Y4.267 Z-0.1645
N7605 Y4.2695 Z-0.1646
N7610 Y4.272 Z-0.1647
N7615 X5.4522 Y4.2745 Z-0.1648
N7620 X5.4519 Y4.277 Z-0.1649
N7625 X5.451 Y4.282 Z-0.165
N7630 X5.4504 Y4.2844 Z-0.1651
N7635 X5.4497 Y4.2868 Z-0.1652
N7640 X5.4488 Y4.2892 Z-0.1653
N7645 X5.4479 Y4.2915 Z-0.1654
N7650 X5.4469 Y4.2938 Z-0.1655
N7655 X5.4458 Y4.2961 Z-0.1656
N7660 X5.4446 Y4.2983 Z-0.1657
N7665 X5.4433 Y4.3004
N7670 X5.4419 Y4.3025 Z-0.1658
N7675 X5.4404 Y4.3046 Z-0.1659
N7680 X5.4389 Y4.3066 Z-0.166
N7685 X5.4372 Y4.3085 Z-0.1661
N7690 X5.4355 Y4.3103 Z-0.1662
N7695 X5.4337 Y4.312 Z-0.1663
N7700 X5.4318 Y4.3137 Z-0.1664
N7705 X5.4299 Y4.3153
N7710 X5.4258 Y4.3183 Z-0.1666
N7715 X5.4237 Y4.3196 Z-0.1667
N7720 X5.4215 Y4.3209 Z-0.1668
N7725 X5.4193 Y4.322 Z-0.1669
N7730 X5.417 Y4.3231 Z-0.167
N7735 X5.4147 Y4.324 Z-0.1671
N7740 X5.4123 Y4.3249
N7745 X5.4099 Y4.3256 Z-0.1672
N7750 X5.4075 Y4.3263 Z-0.1673
N7755 X5.405 Y4.3268 Z-0.1674
N7760 X5.4026 Y4.3273 Z-0.1675
N7765 X5.4001 Y4.3276 Z-0.1676
N7770 X5.3976 Y4.3279 Z-0.1677
N7775 X5.3951 Y4.328 Z-0.1678
N7780 X5.3926
N7785 X5.3901 Y4.3279 Z-0.1679
N7790 X5.3876 Y4.3278 Z-0.168
N7795 X5.3851 Y4.3275 Z-0.1681
N7800 X5.3826 Y4.3271 Z-0.1682
N7805 X5.3777 Y4.3259 Z-0.1684
N7810 X5.3753 Y4.3252 Z-0.1685
N7815 X5.3729 Y4.3244
N7820 X5.3706 Y4.3235 Z-0.1686
N7825 X5.3683 Y4.3225 Z-0.1687
N7830 X5.366 Y4.3214 Z-0.1688
N7835 X5.3638 Y4.3202 Z-0.1689
N7840 X5.3617 Y4.3189 Z-0.169
N7845 X5.3596 Y4.3175 Z-0.1691
N7850 X5.3575 Y4.316 Z-0.1692
N7855 X5.3556 Y4.3144
N7860 X5.3537 Y4.3128 Z-0.1693
N7865 X5.3518 Y4.3111 Z-0.1694
N7870 X5.3501 Y4.3093 Z-0.1695
N7875 X5.3484 Y4.3074 Z-0.1696
N7880 X5.3468 Y4.3055 Z-0.1697
N7885 X5.3453 Y4.3035 Z-0.1698
N7890 X5.3425 Y4.2993 Z-0.1699
N7895 X5.3413 Y4.2971 Z-0.17
N7900 X5.3402 Y4.2949 Z-0.1701
N7905 X5.3391 Y4.2926 Z-0.1702
N7910 X5.3381 Y4.2903 Z-0.1703
N7915 X5.3373 Y4.2879 Z-0.1704
N7920 X5.3365 Y4.2855 Z-0.1705
N7925 X5.3359 Y4.2831 Z-0.1706
N7930 X5.3353 Y4.2807
N7935 X5.3349 Y4.2782 Z-0.1707
N7940 X5.3345 Y4.2757 Z-0.1708
N7945 X5.3343 Y4.2732 Z-0.1709
N7950 X5.3342 Y4.2707 Z-0.171
N7955 X5.3341 Y4.2682 Z-0.1711
N7960 X5.3342 Y4.2657 Z-0.1712
N7965 X5.3344 Y4.2632 Z-0.1713
N7970 X5.3347 Y4.2607
N7975 X5.3356 Y4.2558 Z-0.1715
N7980 X5.3362 Y4.2533 Z-0.1716
N7985 X5.3369 Y4.2509 Z-0.1717
N7990 X5.3378 Y4.2486 Z-0.1718
N7995 X5.3387 Y4.2462 Z-0.1719
N8000 X5.3397 Y4.2439 Z-0.172
N8005 X5.3408 Y4.2417
N8010 X5.342 Y4.2395 Z-0.1721
N8015 X5.3433 Y4.2374 Z-0.1722
N8020 X5.3447 Y4.2353 Z-0.1723
N8025 X5.3461 Y4.2332 Z-0.1724
N8030 X5.3477 Y4.2313 Z-0.1725
N8035 X5.3493 Y4.2294 Z-0.1726
N8040 X5.3511 Y4.2275 Z-0.1727
N8045 X5.3528 Y4.2258
N8050 X5.3547 Y4.2241 Z-0.1728
N8055 X5.3566 Y4.2225 Z-0.1729
N8060 X5.3607 Y4.2196 Z-0.1731
N8065 X5.3628 Y4.2183 Z-0.1732
N8070 X5.365 Y4.217 Z-0.1733
N8075 X5.3672 Y4.2159 Z-0.1734
N8080 X5.3695 Y4.2148
N8085 X5.3718 Y4.2139 Z-0.1735
N8090 X5.3742 Y4.213 Z-0.1736
N8095 X5.3766 Y4.2123 Z-0.1737
N8100 X5.379 Y4.2116 Z-0.1738
N8105 X5.3814 Y4.2111 Z-0.1739
N8110 X5.3839 Y4.2106 Z-0.174
N8115 X5.3864 Y4.2103 Z-0.1741
N8120 X5.3888 Y4.21
N8125 X5.3913 Y4.2099 Z-0.1742
N8130 X5.3938 Z-0.1743
N8135 X5.3963 Y4.21 Z-0.1744
N8140 X5.3988 Y4.2102 Z-0.1745
N8145 X5.4038 Y4.2109 Z-0.1747
N8150 X5.4063 Y4.2114 Z-0.1748
N8155 X5.4087 Y4.212
N8160 X5.4111 Y4.2127 Z-0.1749
N8165 X5.4134 Y4.2135 Z-0.175
N8170 X5.4158 Y4.2144 Z-0.1751
N8175 X5.4181 Y4.2154 Z-0.1752
N8180 X5.4203 Y4.2165 Z-0.1753
N8185 X5.4225 Y4.2177 Z-0.1754
N8190 X5.4246 Y4.219
N8195 X5.4267 Y4.2204 Z-0.1755
N8200 X5.4287 Y4.2219 Z-0.1756
N8205 X5.4307 Y4.2234 Z-0.1757
N8210 X5.4326 Y4.225 Z-0.1758
N8215 X5.4344 Y4.2268 Z-0.1759
N8220 X5.4362 Y4.2285 Z-0.176
N8225 X5.4379 Y4.2304 Z-0.1761
N8230 X5.4394 Y4.2323
N8235 X5.441 Y4.2343 Z-0.1762
N8240 X5.4424 Y4.2364 Z-0.1763
N8245 X5.443 Y4.2375 Z-0.1764
N8250 X5.4437 Y4.2385
N8255 X5.446 Y4.2429 Z-0.1766
N8260 X5.448 Y4.2475 Z-0.1768
N8265 X5.4497 Y4.2522 Z-0.1769
N8270 X5.4509 Y4.2571 Z-0.1771
N8275 X5.4513 Y4.2596 Z-0.1772
N8280 X5.4516 Y4.262 Z-0.1773
N8285 X5.452 Y4.267 Z-0.1775
N8290 X5.4521 Y4.2695
N8295 X5.452 Y4.272 Z-0.1776
N8300 X5.4518 Y4.2745 Z-0.1777
N8305 X5.4515 Y4.277 Z-0.1778
N8310 X5.4506 Y4.2819 Z-0.178
N8315 X5.45 Y4.2843 Z-0.1781
N8320 X5.4493 Y4.2867 Z-0.1782
N8325 X5.4485 Y4.2891
N8330 X5.4476 Y4.2914 Z-0.1783
N8335 X5.4465 Y4.2937 Z-0.1784
N8340 X5.4454 Y4.2959 Z-0.1785
N8345 X5.4442 Y4.2981 Z-0.1786
N8350 X5.443 Y4.3002 Z-0.1787
N8355 X5.4416 Y4.3023 Z-0.1788
N8360 X5.4401 Y4.3043
N8365 X5.4386 Y4.3063 Z-0.1789
N8370 X5.4369 Y4.3082 Z-0.179
N8375 X5.4352 Y4.31 Z-0.1791
N8380 X5.4334 Y4.3117 Z-0.1792
N8385 X5.4316 Y4.3134 Z-0.1793
N8390 X5.4296 Y4.315 Z-0.1794
N8395 X5.4256 Y4.3179 Z-0.1795
N8400 X5.4235 Y4.3193 Z-0.1796
N8405 X5.4213 Y4.3205 Z-0.1797
N8410 X5.4191 Y4.3216 Z-0.1798
N8415 X5.4168 Y4.3227 Z-0.1799
N8420 X5.4145 Y4.3236 Z-0.18
N8425 X5.4122 Y4.3245 Z-0.1801
N8430 X5.4098 Y4.3252 Z-0.1802
N8435 X5.4074 Y4.3259
N8440 X5.405 Y4.3264 Z-0.1803
N8445 X5.4025 Y4.3269 Z-0.1804
N8450 X5.4 Y4.3272 Z-0.1805
N8455 X5.3975 Y4.3274 Z-0.1806
N8460 X5.3951 Y4.3276 Z-0.1807
N8465 X5.3926 Z-0.1808
N8470 X5.3901 Y4.3275 Z-0.1809
N8475 X5.3876 Y4.3273
N8480 X5.3851 Y4.327 Z-0.181
N8485 X5.3826 Y4.3266 Z-0.1811
N8490 X5.3778 Y4.3255 Z-0.1813
N8495 X5.3754 Y4.3248 Z-0.1814
N8500 X5.373 Y4.324 Z-0.1815
N8505 X5.3707 Y4.3231
N8510 X5.3684 Y4.3221 Z-0.1816
N8515 X5.3662 Y4.321 Z-0.1817
N8520 X5.364 Y4.3198 Z-0.1818
N8525 X5.3619 Y4.3185 Z-0.1819
N8530 X5.3598 Y4.3171 Z-0.182
N8535 X5.3578 Y4.3157 Z-0.1821
N8540 X5.3558 Y4.3141 Z-0.1822
N8545 X5.3539 Y4.3125
N8550 X5.3521 Y4.3108 Z-0.1823
N8555 X5.3504 Y4.309 Z-0.1824
N8560 X5.3487 Y4.3071 Z-0.1825
N8565 X5.3471 Y4.3052 Z-0.1826
N8570 X5.3456 Y4.3032 Z-0.1827
N8575 X5.3429 Y4.2991 Z-0.1829
N8580 X5.3417 Y4.2969
N8585 X5.3405 Y4.2947 Z-0.183
N8590 X5.3395 Y4.2924 Z-0.1831
N8595 X5.3385 Y4.2901 Z-0.1832
N8600 X5.3377 Y4.2878 Z-0.1833
N8605 X5.3369 Y4.2854 Z-0.1834
N8610 X5.3363 Y4.283 Z-0.1835
N8615 X5.3357 Y4.2806
N8620 X5.3353 Y4.2781 Z-0.1836
N8625 X5.335 Y4.2757 Z-0.1837
N8630 X5.3347 Y4.2732 Z-0.1838
N8635 X5.3346 Y4.2707 Z-0.1839
N8640 Y4.2682 Z-0.184
N8645 Y4.2657 Z-0.1841
N8650 X5.3348 Y4.2632 Z-0.1842
N8655 X5.3351 Y4.2608
N8660 X5.336 Y4.2559 Z-0.1844
N8665 X5.3366 Y4.2535 Z-0.1845
N8670 X5.3373 Y4.2511 Z-0.1846
N8675 X5.3382 Y4.2487 Z-0.1847
N8680 X5.3391 Y4.2464 Z-0.1848
N8685 X5.3401 Y4.2441
N8690 X5.3412 Y4.2419 Z-0.1849
N8695 X5.3424 Y4.2397 Z-0.185
N8700 X5.3436 Y4.2376 Z-0.1851
N8705 X5.345 Y4.2355 Z-0.1852
N8710 X5.3465 Y4.2335 Z-0.1853
N8715 X5.348 Y4.2315 Z-0.1854
N8720 X5.3497 Y4.2297 Z-0.1855
N8725 X5.3514 Y4.2278
N8730 X5.3531 Y4.2261 Z-0.1856
N8735 X5.355 Y4.2245 Z-0.1857
N8740 X5.3569 Y4.2229 Z-0.1858
N8745 X5.3609 Y4.22 Z-0.186
N8750 X5.363 Y4.2186 Z-0.1861
N8755 X5.3652 Y4.2174
N8760 X5.3674 Y4.2163 Z-0.1862
N8765 X5.3697 Y4.2152 Z-0.1863
N8770 X5.372 Y4.2143 Z-0.1864
N8775 X5.3743 Y4.2134 Z-0.1865
N8780 X5.3767 Y4.2127 Z-0.1866
N8785 X5.3791 Y4.212 Z-0.1867
N8790 X5.3815 Y4.2115 Z-0.1868
N8795 X5.3839 Y4.211
N8800 X5.3864 Y4.2107 Z-0.1869
N8805 X5.3889 Y4.2105 Z-0.187
N8810 X5.3914 Y4.2103 Z-0.1871
N8815 X5.3938 Z-0.1872
N8820 X5.3963 Y4.2104 Z-0.1873
N8825 X5.3988 Y4.2106 Z-0.1874
N8830 X5.4037 Y4.2113 Z-0.1875
N8835 X5.4062 Y4.2118 Z-0.1876
N8840 X5.4086 Y4.2124 Z-0.1877
N8845 X5.4109 Y4.2131 Z-0.1878
N8850 X5.4133 Y4.2139 Z-0.1879
N8855 X5.4156 Y4.2148 Z-0.188
N8860 X5.4179 Y4.2158 Z-0.1881
N8865 X5.4201 Y4.2169
N8870 X5.4223 Y4.2181 Z-0.1882
N8875 X5.4244 Y4.2194 Z-0.1883
N8880 X5.4265 Y4.2207 Z-0.1884
N8885 X5.4285 Y4.2222 Z-0.1885
N8890 X5.4304 Y4.2237 Z-0.1886
N8895 X5.4323 Y4.2254 Z-0.1887
N8900 X5.4341 Y4.2271
N8905 X5.4359 Y4.2288 Z-0.1888
N8910 X5.4375 Y4.2307 Z-0.1889
N8915 X5.4391 Y4.2326 Z-0.189
N8920 X5.4406 Y4.2346 Z-0.1891
N8925 X5.442 Y4.2366 Z-0.1892
N8930 X5.4427 Y4.2377
N8935 X5.4433 Y4.2387 Z-0.1893
N8940 X5.4457 Y4.2431 Z-0.1894
N8945 X5.4476 Y4.2477 Z-0.1896
N8950 X5.4492 Y4.2524 Z-0.1898
N8955 X5.4505 Y4.2572 Z-0.19
N8960 X5.4509 Y4.2596
N8965 X5.4512 Y4.2621 Z-0.1901
N8970 X5.4516 Y4.267 Z-0.1903
N8975 Y4.2695 Z-0.1904
N8980 Y4.272 Z-0.1905
N8985 X5.4514 Y4.2744 Z-0.1906
N8990 X5.4511 Y4.2769 Z-0.1907
N8995 X5.4502 Y4.2818 Z-0.1908
N9000 X5.4496 Y4.2842 Z-0.1909
N9005 X5.4489 Y4.2866 Z-0.191
N9010 X5.4481 Y4.2889 Z-0.1911
N9015 X5.4472 Y4.2912 Z-0.1912
N9020 X5.4462 Y4.2935 Z-0.1913
N9025 X5.4451 Y4.2957
N9030 X5.4439 Y4.2979 Z-0.1914
N9035 X5.4426 Y4.3 Z-0.1915
N9040 X5.4412 Y4.3021 Z-0.1916
N9045 X5.4398 Y4.3041 Z-0.1917
N9050 X5.4382 Y4.306 Z-0.1918
N9055 X5.4366 Y4.3079 Z-0.1919
N9060 X5.4349 Y4.3097
N9065 X5.4331 Y4.3114 Z-0.192
N9070 X5.4313 Y4.3131 Z-0.1921
N9075 X5.4294 Y4.3147 Z-0.1922
N9080 X5.4254 Y4.3176 Z-0.1924
N9085 X5.4233 Y4.3189 Z-0.1925
N9090 X5.4211 Y4.3201 Z-0.1926
N9095 X5.4189 Y4.3212
N9100 X5.4167 Y4.3223 Z-0.1927
N9105 X5.4144 Y4.3232 Z-0.1928
N9110 X5.412 Y4.3241 Z-0.1929
N9115 X5.4097 Y4.3248 Z-0.193
N9120 X5.4073 Y4.3255 Z-0.1931
N9125 X5.4049 Y4.326 Z-0.1932
N9130 X5.4024 Y4.3264
N9135 X5.4 Y4.3268 Z-0.1933
N9140 X5.3975 Y4.327 Z-0.1934
N9145 X5.395 Y4.3271 Z-0.1935
N9150 X5.3926 Y4.3272 Z-0.1936
N9155 X5.3901 Y4.3271 Z-0.1937
N9160 X5.3876 Y4.3269 Z-0.1938
N9165 X5.3852 Y4.3266 Z-0.1939
N9170 X5.3827 Y4.3262
N9175 X5.3779 Y4.3251 Z-0.1941
N9180 X5.3755 Y4.3244 Z-0.1942
N9185 X5.3732 Y4.3236 Z-0.1943
N9190 X5.3709 Y4.3227 Z-0.1944
N9195 X5.3686 Y4.3217 Z-0.1945
N9200 X5.3664 Y4.3206
N9205 X5.3642 Y4.3194 Z-0.1946
N9210 X5.3621 Y4.3181 Z-0.1947
N9215 X5.3601 Y4.3168 Z-0.1948
N9220 X5.3581 Y4.3153 Z-0.1949
N9225 X5.3561 Y4.3138 Z-0.195
N9230 X5.3542 Y4.3122 Z-0.1951
N9235 X5.3524 Y4.3105
N9240 X5.3507 Y4.3087 Z-0.1952
N9245 X5.3491 Y4.3069 Z-0.1953
N9250 X5.3475 Y4.305 Z-0.1954
N9255 X5.346 Y4.303 Z-0.1955
N9260 X5.3433 Y4.2988 Z-0.1957
N9265 X5.3421 Y4.2967
N9270 X5.3409 Y4.2945 Z-0.1958
N9275 X5.3399 Y4.2923 Z-0.1959
N9280 X5.3389 Y4.29 Z-0.196
N9285 X5.3381 Y4.2876 Z-0.1961
N9290 X5.3374 Y4.2853 Z-0.1962
N9295 X5.3367 Y4.2829 Z-0.1963
N9300 X5.3362 Y4.2805 Z-0.1964
N9305 X5.3357 Y4.2781
N9310 X5.3354 Y4.2756 Z-0.1965
N9315 X5.3352 Y4.2733 Z-0.1966
N9320 X5.335 Y4.271 Z-0.1967
N9325 X5.3351 Y4.2663 Z-0.1968
N9330 Y4.2662 Z-0.1969
N9335 Y4.2661
N9340 X5.3352 Y4.2636
N9345 X5.3355 Y4.261 Z-0.197
N9350 X5.3359 Y4.2585 Z-0.1971
N9355 X5.3365 Y4.256 Z-0.1972
N9360 X5.3371 Y4.2536 Z-0.1973
N9365 X5.3378 Y4.2511 Z-0.1974
N9370 X5.3386 Y4.2487 Z-0.1975
N9375 X5.3396 Y4.2463 Z-0.1976
N9380 X5.3406 Y4.244
N9385 X5.3417 Y4.2418 Z-0.1977
N9390 X5.343 Y4.2395 Z-0.1978
N9395 X5.3443 Y4.2374 Z-0.1979
N9400 X5.3457 Y4.2353 Z-0.198
N9405 X5.3472 Y4.2333 Z-0.1981
N9410 X5.3488 Y4.2313 Z-0.1982
N9415 X5.3505 Y4.2294 Z-0.1983
N9420 X5.3523 Y4.2276 Z-0.1984
N9425 X5.3541 Y4.2258
N9430 X5.3561 Y4.2241 Z-0.1985
N9435 X5.358 Y4.2226 Z-0.1986
N9440 X5.3601 Y4.2211 Z-0.1987
N9445 X5.3622 Y4.2197 Z-0.1988
N9450 X5.3644 Y4.2184 Z-0.1989
N9455 X5.3666 Y4.2172 Z-0.199
N9460 X5.3689 Y4.2161 Z-0.1991
N9465 X5.3712 Y4.2151 Z-0.1992
N9470 X5.3736 Y4.2142
N9475 X5.376 Y4.2134 Z-0.1993
N9480 X5.3784 Y4.2127 Z-0.1994
N9485 X5.3809 Y4.2121 Z-0.1995
N9490 X5.3833 Y4.2116 Z-0.1996
N9495 X5.3858 Y4.2112 Z-0.1997
N9500 X5.3884 Y4.211 Z-0.1998
N9505 X5.3909 Y4.2108 Z-0.1999
N9510 X5.3935
N9515 X5.396 Z-0.2
N9520 X5.401 Y4.2113 Z-0.2002
N9525 X5.4035 Y4.2117 Z-0.2003
N9530 X5.406 Y4.2122 Z-0.2004
N9535 X5.4085 Y4.2128 Z-0.2005
N9540 X5.4109 Y4.2136 Z-0.2006
N9545 X5.4133 Y4.2144 Z-0.2007
N9550 X5.4157 Y4.2153
N9555 X5.418 Y4.2164 Z-0.2008
N9560 X5.4202 Y4.2175 Z-0.2009
N9565 X5.4224 Y4.2187 Z-0.201
N9570 X5.4246 Y4.22 Z-0.2011
N9575 X5.4267 Y4.2215 Z-0.2012
N9580 X5.4287 Y4.223 Z-0.2013
N9585 X5.4307 Y4.2246 Z-0.2014
N9590 X5.4326 Y4.2262
N9595 X5.4344 Y4.228 Z-0.2015
N9600 X5.4361 Y4.2298 Z-0.2016
N9605 X5.4378 Y4.2317 Z-0.2017
N9610 X5.4394 Y4.2337 Z-0.2018
N9615 X5.4409 Y4.2358 Z-0.2019
N9620 X5.4422 Y4.2379 Z-0.202
N9625 X5.4447 Y4.2423 Z-0.2022
N9630 X5.4458 Y4.2446
N9635 X5.4468 Y4.2469 Z-0.2023
N9640 X5.4485 Y4.2516 Z-0.2025
N9645 X5.4498 Y4.2565 Z-0.2027
N9650 X5.4503 Y4.259 Z-0.2028
N9655 X5.4507 Y4.2615 Z-0.2029
N9660 X5.4511 Y4.2666 Z-0.203
N9665 Y4.2716 Z-0.2032
N9670 X5.451 Y4.2729 Z-0.2033
N9675 X5.4509 Y4.2741
N9680 X5.4506 Y4.2767 Z-0.2034
N9685 X5.4497 Y4.2816 Z-0.2036
N9690 X5.4491 Y4.2841 Z-0.2037
N9695 X5.4484 Y4.2865
N9700 X5.4476 Y4.2889 Z-0.2038
N9705 X5.4466 Y4.2912 Z-0.2039
N9710 X5.4456 Y4.2935 Z-0.204
N9715 X5.4445 Y4.2958 Z-0.2041
N9720 X5.4432 Y4.298 Z-0.2042
N9725 X5.4419 Y4.3002 Z-0.2043
N9730 X5.4405 Y4.3023 Z-0.2044
N9735 X5.439 Y4.3043
N9740 X5.4374 Y4.3062 Z-0.2045
N9745 X5.4358 Y4.3081 Z-0.2046
N9750 X5.434 Y4.3099 Z-0.2047
N9755 X5.4321 Y4.3117 Z-0.2048
N9760 X5.4302 Y4.3133 Z-0.2049
N9765 X5.4283 Y4.3149 Z-0.205
N9770 X5.4262 Y4.3164 Z-0.2051
N9775 X5.4241 Y4.3178 Z-0.2052
N9780 X5.4219 Y4.3191
N9785 X5.4197 Y4.3203 Z-0.2053
N9790 X5.4174 Y4.3214 Z-0.2054
N9795 X5.4151 Y4.3224 Z-0.2055
N9800 X5.4128 Y4.3233 Z-0.2056
N9805 X5.4104 Y4.3241 Z-0.2057
N9810 X5.4079 Y4.3248 Z-0.2058
N9815 X5.4055 Y4.3254 Z-0.2059
N9820 X5.403 Y4.3259
N9825 X5.4005 Y4.3262 Z-0.206
N9830 X5.398 Y4.3265 Z-0.2061
N9835 X5.3955 Y4.3267 Z-0.2062
N9840 X5.393 Z-0.2063
N9845 X5.3904 Y4.3266 Z-0.2064
N9850 X5.3854 Y4.3262 Z-0.2066
N9855 X5.3829 Y4.3258
N9860 X5.3804 Y4.3253 Z-0.2067
N9865 X5.378 Y4.3246 Z-0.2068
N9870 X5.3756 Y4.3239 Z-0.2069
N9875 X5.3732 Y4.3231 Z-0.207
N9880 X5.3708 Y4.3222 Z-0.2071
N9885 X5.3685 Y4.3211 Z-0.2072
N9890 X5.3663 Y4.32 Z-0.2073
N9895 X5.3641 Y4.3188 Z-0.2074
N9900 X5.3619 Y4.3175
N9905 X5.3599 Y4.316 Z-0.2075
N9910 X5.3578 Y4.3145 Z-0.2076
N9915 X5.3559 Y4.313 Z-0.2077
N9920 X5.354 Y4.3113 Z-0.2078
N9925 X5.3522 Y4.3095 Z-0.2079
N9930 X5.3505 Y4.3077 Z-0.208
N9935 X5.3488 Y4.3058 Z-0.2081
N9940 X5.3472 Y4.3038
N9945 X5.3458 Y4.3018 Z-0.2082
N9950 X5.3444 Y4.2997 Z-0.2083
N9955 X5.3431 Y4.2975 Z-0.2084
N9960 X5.3419 Y4.2953 Z-0.2085
N9965 X5.3408 Y4.293 Z-0.2086
N9970 X5.3398 Y4.2907 Z-0.2087
N9975 X5.3389 Y4.2884 Z-0.2088
N9980 X5.3381 Y4.286
N9985 X5.3374 Y4.2836 Z-0.2089
N9990 X5.3368 Y4.2811 Z-0.209
N9995 X5.3363 Y4.2786 Z-0.2091
N10000 X5.3359 Y4.2761 Z-0.2092
N10005 X5.3357 Y4.2736 Z-0.2093
N10010 X5.3355 Y4.2711 Z-0.2094
N10015 Y4.2686 Z-0.2095
N10020 X5.3356 Y4.2661
N10025 X5.336 Y4.2611 Z-0.2097
N10030 X5.3364 Y4.2586 Z-0.2098
N10035 X5.3369 Y4.2561 Z-0.2099
N10040 X5.3375 Y4.2537 Z-0.21
N10045 X5.3383 Y4.2513 Z-0.2101
N10050 X5.3391 Y4.2489 Z-0.2102
N10055 X5.34 Y4.2465 Z-0.2103
N10060 X5.341 Y4.2442
N10065 X5.3422 Y4.242 Z-0.2104
N10070 X5.3434 Y4.2398 Z-0.2105
N10075 X5.3447 Y4.2377 Z-0.2106
N10080 X5.3461 Y4.2356 Z-0.2107
N10085 X5.3476 Y4.2335 Z-0.2108
N10090 X5.3492 Y4.2316 Z-0.2109
N10095 X5.3509 Y4.2297 Z-0.211
N10100 X5.3526 Y4.2279
N10105 X5.3545 Y4.2262 Z-0.2111
N10110 X5.3564 Y4.2245 Z-0.2112
N10115 X5.3583 Y4.223 Z-0.2113
N10120 X5.3604 Y4.2215 Z-0.2114
N10125 X5.3625 Y4.2201 Z-0.2115
N10130 X5.3646 Y4.2188 Z-0.2116
N10135 X5.3668 Y4.2176 Z-0.2117
N10140 X5.3691 Y4.2165
N10145 X5.3714 Y4.2155 Z-0.2118
N10150 X5.3737 Y4.2146 Z-0.2119
N10155 X5.3761 Y4.2138 Z-0.212
N10160 X5.3785 Y4.2131 Z-0.2121
N10165 X5.381 Y4.2126 Z-0.2122
N10170 X5.3834 Y4.2121 Z-0.2123
N10175 X5.3859 Y4.2117 Z-0.2124
N10180 X5.3884 Y4.2114
N10185 X5.3909 Y4.2113 Z-0.2125
N10190 X5.3934 Y4.2112 Z-0.2126
N10195 X5.396 Y4.2113 Z-0.2127
N10200 X5.401 Y4.2118 Z-0.2129
N10205 X5.4034 Y4.2122 Z-0.213
N10210 X5.4059 Y4.2127 Z-0.2131
N10215 X5.4083 Y4.2133
N10220 X5.4108 Y4.214 Z-0.2132
N10225 X5.4131 Y4.2148 Z-0.2133
N10230 X5.4155 Y4.2158 Z-0.2134
N10235 X5.4178 Y4.2168 Z-0.2135
N10240 X5.42 Y4.2179 Z-0.2136
N10245 X5.4222 Y4.2191 Z-0.2137
N10250 X5.4243 Y4.2204 Z-0.2138
N10255 X5.4264 Y4.2218
N10260 X5.4284 Y4.2233 Z-0.2139
N10265 X5.4304 Y4.2249 Z-0.214
N10270 X5.4322 Y4.2266 Z-0.2141
N10275 X5.4341 Y4.2283 Z-0.2142
N10280 X5.4358 Y4.2302 Z-0.2143
N10285 X5.4374 Y4.2321 Z-0.2144
N10290 X5.439 Y4.234 Z-0.2145
N10295 X5.4405 Y4.2361
N10300 X5.4418 Y4.2381 Z-0.2146
N10305 X5.4443 Y4.2425 Z-0.2148
N10310 X5.4454 Y4.2448 Z-0.2149
N10315 X5.4464 Y4.2471 Z-0.215
N10320 X5.4481 Y4.2518 Z-0.2152
N10325 X5.4494 Y4.2566 Z-0.2153
N10330 X5.4498 Y4.2591 Z-0.2154
N10335 X5.4502 Y4.2616 Z-0.2155
N10340 X5.4506 Y4.2666 Z-0.2157
N10345 Y4.2716 Z-0.2159
N10350 X5.4505 Y4.2728
N10355 X5.4504 Y4.2741
N10360 X5.4502 Y4.2766 Z-0.216
N10365 X5.4493 Y4.2815 Z-0.2162
N10370 X5.4486 Y4.284 Z-0.2163
N10375 X5.4479 Y4.2864 Z-0.2164
N10380 X5.4471 Y4.2887 Z-0.2165
N10385 X5.4462 Y4.291 Z-0.2166
N10390 X5.4452 Y4.2933
N10395 X5.444 Y4.2956 Z-0.2167
N10400 X5.4428 Y4.2978 Z-0.2168
N10405 X5.4415 Y4.2999 Z-0.2169
N10410 X5.4401 Y4.302 Z-0.217
N10415 X5.4386 Y4.304 Z-0.2171
N10420 X5.437 Y4.3059 Z-0.2172
N10425 X5.4354 Y4.3078 Z-0.2173
N10430 X5.4336 Y4.3096
N10435 X5.4318 Y4.3113 Z-0.2174
N10440 X5.4299 Y4.313 Z-0.2175
N10445 X5.428 Y4.3145 Z-0.2176
N10450 X5.4259 Y4.316 Z-0.2177
N10455 X5.4238 Y4.3174 Z-0.2178
N10460 X5.4217 Y4.3187 Z-0.2179
N10465 X5.4195 Y4.3199 Z-0.218
N10470 X5.4172 Y4.321
N10475 X5.4149 Y4.3219 Z-0.2181
N10480 X5.4126 Y4.3228 Z-0.2182
N10485 X5.4102 Y4.3236 Z-0.2183
N10490 X5.4078 Y4.3243 Z-0.2184
N10495 X5.4054 Y4.3249 Z-0.2185
N10500 X5.4029 Y4.3254 Z-0.2186
N10505 X5.4004 Y4.3257 Z-0.2187
N10510 X5.398 Y4.326
N10515 X5.3955 Y4.3262 Z-0.2188
N10520 X5.393 Z-0.2189
N10525 X5.3905 Y4.3261 Z-0.219
N10530 X5.3855 Y4.3257 Z-0.2192
N10535 X5.383 Y4.3253 Z-0.2193
N10540 X5.3806 Y4.3248 Z-0.2194
N10545 X5.3781 Y4.3242
N10550 X5.3757 Y4.3234 Z-0.2195
N10555 X5.3734 Y4.3226 Z-0.2196
N10560 X5.371 Y4.3217 Z-0.2197
N10565 X5.3688 Y4.3207 Z-0.2198
N10570 X5.3665 Y4.3196 Z-0.2199
N10575 X5.3643 Y4.3183 Z-0.22
N10580 X5.3622 Y4.317 Z-0.2201
N10585 X5.3602 Y4.3156
N10590 X5.3582 Y4.3142 Z-0.2202
N10595 X5.3562 Y4.3126 Z-0.2203
N10600 X5.3543 Y4.3109 Z-0.2204
N10605 X5.3526 Y4.3092 Z-0.2205
N10610 X5.3508 Y4.3074 Z-0.2206
N10615 X5.3492 Y4.3055 Z-0.2207
N10620 X5.3476 Y4.3035
N10625 X5.3462 Y4.3015 Z-0.2208
N10630 X5.3448 Y4.2994 Z-0.2209
N10635 X5.3435 Y4.2973 Z-0.221
N10640 X5.3423 Y4.2951 Z-0.2211
N10645 X5.3412 Y4.2928 Z-0.2212
N10650 X5.3402 Y4.2905 Z-0.2213
N10655 X5.3393 Y4.2882 Z-0.2214
N10660 X5.3386 Y4.2858
N10665 X5.3379 Y4.2834 Z-0.2215
N10670 X5.3373 Y4.281 Z-0.2216
N10675 X5.3368 Y4.2786 Z-0.2217
N10680 X5.3364 Y4.2761 Z-0.2218
N10685 X5.3362 Y4.2736 Z-0.2219
N10690 X5.336 Y4.2711 Z-0.222
N10695 Y4.2686 Z-0.2221
N10700 X5.3361 Y4.2661
N10705 X5.3365 Y4.2612 Z-0.2223
N10710 X5.3369 Y4.2587 Z-0.2224
N10715 X5.3374 Y4.2562 Z-0.2225
N10720 X5.338 Y4.2538 Z-0.2226
N10725 X5.3387 Y4.2514 Z-0.2227
N10730 X5.3396 Y4.2491 Z-0.2228
N10735 X5.3405 Y4.2467
N10740 X5.3415 Y4.2445 Z-0.2229
N10745 X5.3426 Y4.2422 Z-0.223
N10750 X5.3438 Y4.2401 Z-0.2231
N10755 X5.3451 Y4.2379 Z-0.2232
N10760 X5.3465 Y4.2359 Z-0.2233
N10765 X5.348 Y4.2339 Z-0.2234
N10770 X5.3496 Y4.2319
N10775 X5.3512 Y4.2301 Z-0.2235
N10780 X5.353 Y4.2283 Z-0.2236
N10785 X5.3548 Y4.2266 Z-0.2237
N10790 X5.3567 Y4.2249 Z-0.2238
N10795 X5.3586 Y4.2234 Z-0.2239
N10800 X5.3607 Y4.2219 Z-0.224
N10805 X5.3627 Y4.2205 Z-0.2241
N10810 X5.3649 Y4.2193
N10815 X5.3671 Y4.2181 Z-0.2242
N10820 X5.3693 Y4.217 Z-0.2243
N10825 X5.3716 Y4.216 Z-0.2244
N10830 X5.3739 Y4.2151 Z-0.2245
N10835 X5.3763 Y4.2143 Z-0.2246
N10840 X5.3787 Y4.2136 Z-0.2247
N10845 X5.3811 Y4.2131 Z-0.2248
N10850 X5.3835 Y4.2126
N10855 X5.386 Y4.2122 Z-0.2249
N10860 X5.3885 Y4.212 Z-0.225
N10865 X5.391 Y4.2118 Z-0.2251
N10870 X5.3934 Z-0.2252
N10875 X5.3959 Z-0.2253
N10880 X5.4009 Y4.2123 Z-0.2254
N10885 X5.4033 Y4.2127 Z-0.2255
N10890 X5.4058 Y4.2132 Z-0.2256
N10895 X5.4082 Y4.2138 Z-0.2257
N10900 X5.4106 Y4.2145 Z-0.2258
N10905 X5.4129 Y4.2153 Z-0.2259
N10910 X5.4153 Y4.2162 Z-0.226
N10915 X5.4175 Y4.2173 Z-0.2261
N10920 X5.4198 Y4.2184
N10925 X5.4219 Y4.2196 Z-0.2262
N10930 X5.424 Y4.2209 Z-0.2263
N10935 X5.4261 Y4.2223 Z-0.2264
N10940 X5.4281 Y4.2238 Z-0.2265
N10945 X5.43 Y4.2253 Z-0.2266
N10950 X5.4319 Y4.227 Z-0.2267
N10955 X5.4337 Y4.2287
N10960 X5.4354 Y4.2305 Z-0.2268
N10965 X5.437 Y4.2324 Z-0.2269
N10970 X5.4386 Y4.2343 Z-0.227
N10975 X5.44 Y4.2364 Z-0.2271
N10980 X5.4414 Y4.2384 Z-0.2272
N10985 X5.4438 Y4.2428 Z-0.2274
N10990 X5.4449 Y4.245
N10995 X5.4459 Y4.2473 Z-0.2275
N11000 X5.4476 Y4.252 Z-0.2277
N11005 X5.4488 Y4.2568 Z-0.2279
N11010 X5.4493 Y4.2592 Z-0.228
N11015 X5.4497 Y4.2617
N11020 X5.4501 Y4.2666 Z-0.2282
N11025 X5.4502 Y4.2691 Z-0.2283
N11030 X5.4501 Y4.2703 Z-0.2284
N11035 Y4.2716
N11040 X5.4499 Y4.2741 Z-0.2285
N11045 X5.4496 Y4.2765 Z-0.2286
N11050 X5.4487 Y4.2814 Z-0.2287
N11055 X5.4481 Y4.2838 Z-0.2288
N11060 X5.4474 Y4.2862 Z-0.2289
N11065 X5.4466 Y4.2885 Z-0.229
N11070 X5.4457 Y4.2908 Z-0.2291
N11075 X5.4447 Y4.2931 Z-0.2292
N11080 X5.4436 Y4.2953 Z-0.2293
N11085 X5.4424 Y4.2975
N11090 X5.4411 Y4.2996 Z-0.2294
N11095 X5.4397 Y4.3017 Z-0.2295
N11100 X5.4382 Y4.3037 Z-0.2296
N11105 X5.4366 Y4.3056 Z-0.2297
N11110 X5.435 Y4.3074 Z-0.2298
N11115 X5.4332 Y4.3092 Z-0.2299
N11120 X5.4314 Y4.3109 Z-0.23
N11125 X5.4296 Y4.3126
N11130 X5.4276 Y4.3141 Z-0.2301
N11135 X5.4256 Y4.3156 Z-0.2302
N11140 X5.4235 Y4.3169 Z-0.2303
N11145 X5.4214 Y4.3182 Z-0.2304
N11150 X5.4192 Y4.3194 Z-0.2305
N11155 X5.417 Y4.3205 Z-0.2306
N11160 X5.4147 Y4.3214
N11165 X5.4124 Y4.3223 Z-0.2307
N11170 X5.4101 Y4.3231 Z-0.2308
N11175 X5.4077 Y4.3238 Z-0.2309
N11180 X5.4053 Y4.3244 Z-0.231
N11185 X5.4028 Y4.3248 Z-0.2311
N11190 X5.4004 Y4.3252 Z-0.2312
N11195 X5.3979 Y4.3255
N11200 X5.3954 Y4.3256 Z-0.2313
N11205 X5.393 Y4.3257 Z-0.2314
N11210 X5.3905 Y4.3256 Z-0.2315
N11215 X5.3856 Y4.3251 Z-0.2317
N11220 X5.3831 Y4.3247 Z-0.2318
N11225 X5.3807 Y4.3242 Z-0.2319
N11230 X5.3783 Y4.3236
N11235 X5.3759 Y4.3229 Z-0.232
N11240 X5.3736 Y4.3221 Z-0.2321
N11245 X5.3713 Y4.3212 Z-0.2322
N11250 X5.369 Y4.3202 Z-0.2323
N11255 X5.3668 Y4.3191 Z-0.2324
N11260 X5.3646 Y4.3179 Z-0.2325
N11265 X5.3625 Y4.3166
N11270 X5.3605 Y4.3152 Z-0.2326
N11275 X5.3585 Y4.3137 Z-0.2327
N11280 X5.3566 Y4.3122 Z-0.2328
N11285 X5.3547 Y4.3105 Z-0.2329
N11290 X5.3529 Y4.3088 Z-0.233
N11295 X5.3512 Y4.307 Z-0.2331
N11300 X5.3496 Y4.3051
N11305 X5.3481 Y4.3032 Z-0.2332
N11310 X5.3466 Y4.3012 Z-0.2333
N11315 X5.3453 Y4.2991 Z-0.2334
N11320 X5.344 Y4.297 Z-0.2335
N11325 X5.3428 Y4.2948 Z-0.2336
N11330 X5.3417 Y4.2926 Z-0.2337
N11335 X5.3407 Y4.2903 Z-0.2338
N11340 X5.3399 Y4.288
N11345 X5.3391 Y4.2857 Z-0.2339
N11350 X5.3384 Y4.2833 Z-0.234
N11355 X5.3378 Y4.2809 Z-0.2341
N11360 X5.3373 Y4.2785 Z-0.2342
N11365 X5.337 Y4.276 Z-0.2343
N11370 X5.3367 Y4.2736 Z-0.2344
N11375 X5.3366 Y4.2711
N11380 X5.3365 Y4.2686 Z-0.2345
N11385 X5.3366 Y4.2661 Z-0.2346
N11390 X5.3371 Y4.2612 Z-0.2348
N11395 X5.3375 Y4.2588 Z-0.2349
N11400 X5.3379 Y4.2564 Z-0.235
N11405 X5.3386 Y4.254
N11410 X5.3393 Y4.2516 Z-0.2351
N11415 X5.3401 Y4.2493 Z-0.2352
N11420 X5.341 Y4.247 Z-0.2353
N11425 X5.342 Y4.2447 Z-0.2354
N11430 X5.3431 Y4.2425 Z-0.2355
N11435 X5.3443 Y4.2403 Z-0.2356
N11440 X5.3456 Y4.2382 Z-0.2357
N11445 X5.347 Y4.2362
N11450 X5.3484 Y4.2342 Z-0.2358
N11455 X5.35 Y4.2323 Z-0.2359
N11460 X5.3516 Y4.2304 Z-0.236
N11465 X5.3539 Y4.2281 Z-0.2361
N11470 X5.3551 Y4.227 Z-0.2362
N11475 X5.3563 Y4.226
N11480 X5.3564 Y4.2258
N11485 X5.3574 Y4.225 Z-0.2363
N11490 X5.3584 Y4.2242
N11495 X5.3604 Y4.2227 Z-0.2364
N11500 X5.3625 Y4.2213 Z-0.2365
N11505 X5.3647 Y4.22 Z-0.2366
N11510 X5.3669 Y4.2188 Z-0.2367
N11515 X5.3692 Y4.2176 Z-0.2368
N11520 X5.3715 Y4.2166
N11525 X5.3739 Y4.2157 Z-0.2369
N11530 X5.3763 Y4.2149 Z-0.237
N11535 X5.3787 Y4.2142 Z-0.2371
N11540 X5.3812 Y4.2136 Z-0.2372
N11545 X5.3837 Y4.2131 Z-0.2373
N11550 X5.3862 Y4.2127 Z-0.2374
N11555 X5.3887 Y4.2125 Z-0.2375
N11560 X5.3913 Y4.2123
N11565 X5.3938 Z-0.2376
N11570 X5.3963 Y4.2124 Z-0.2377
N11575 X5.3989 Y4.2126 Z-0.2378
N11580 X5.4014 Y4.2129 Z-0.2379
N11585 X5.4039 Y4.2134 Z-0.238
N11590 X5.4064 Y4.2139 Z-0.2381
N11595 X5.4088 Y4.2145 Z-0.2382
N11600 X5.4112 Y4.2153 Z-0.2383
N11605 X5.4136 Y4.2162
N11610 X5.416 Y4.2171 Z-0.2384
N11615 X5.4183 Y4.2182 Z-0.2385
N11620 X5.4205 Y4.2194 Z-0.2386
N11625 X5.4227 Y4.2207 Z-0.2387
N11630 X5.4248 Y4.222 Z-0.2388
N11635 X5.4269 Y4.2235 Z-0.2389
N11640 X5.4289 Y4.2251 Z-0.239
N11645 X5.4308 Y4.2267 Z-0.2391
N11650 X5.4326 Y4.2284
N11655 X5.4344 Y4.2302 Z-0.2392
N11660 X5.4361 Y4.2321 Z-0.2393
N11665 X5.4377 Y4.2341 Z-0.2394
N11670 X5.4392 Y4.2361 Z-0.2395
N11675 X5.4406 Y4.2382 Z-0.2396
N11680 X5.4431 Y4.2426 Z-0.2398
N11685 X5.4443 Y4.2449
N11690 X5.4453 Y4.2472 Z-0.2399
N11695 X5.447 Y4.252 Z-0.2401
N11700 X5.4483 Y4.2569 Z-0.2403
N11705 X5.4488 Y4.2594 Z-0.2404
N11710 X5.4492 Y4.2619 Z-0.2405
N11715 X5.4495 Y4.2669 Z-0.2406
N11720 X5.4496 Y4.2695 Z-0.2407
N11725 X5.4495 Y4.272 Z-0.2408
N11730 X5.4493 Y4.2745 Z-0.2409
N11735 X5.449 Y4.277 Z-0.241
N11740 X5.4486 Y4.2795 Z-0.2411
N11745 X5.448 Y4.282 Z-0.2412
N11750 X5.4474 Y4.2844 Z-0.2413
N11755 X5.4466 Y4.2868
N11760 X5.4458 Y4.2892 Z-0.2414
N11765 X5.4448 Y4.2915 Z-0.2415
N11770 X5.4437 Y4.2938 Z-0.2416
N11775 X5.4425 Y4.2961 Z-0.2417
N11780 X5.4413 Y4.2983 Z-0.2418
N11785 X5.4399 Y4.3004 Z-0.2419
N11790 X5.4384 Y4.3025 Z-0.242
N11795 X5.4369 Y4.3044 Z-0.2421
N11800 X5.4352 Y4.3064
N11805 X5.4335 Y4.3082 Z-0.2422
N11810 X5.4317 Y4.31 Z-0.2423
N11815 X5.4298 Y4.3116 Z-0.2424
N11820 X5.4279 Y4.3132 Z-0.2425
N11825 X5.4258 Y4.3147 Z-0.2426
N11830 X5.4237 Y4.3162 Z-0.2427
N11835 X5.4216 Y4.3175 Z-0.2428
N11840 X5.4194 Y4.3187
N11845 X5.4171 Y4.3198 Z-0.2429
N11850 X5.4148 Y4.3208 Z-0.243
N11855 X5.4124 Y4.3217 Z-0.2431
N11860 X5.4101 Y4.3225 Z-0.2432
N11865 X5.4076 Y4.3232 Z-0.2433
N11870 X5.4052 Y4.3238 Z-0.2434
N11875 X5.4027 Y4.3243 Z-0.2435
N11880 X5.4002 Y4.3247 Z-0.2436
N11885 X5.3976 Y4.3249
N11890 X5.3951 Y4.3251 Z-0.2437
N11895 X5.3926 Z-0.2438
N11900 X5.3901 Y4.325 Z-0.2439
N11905 X5.3876 Y4.3248 Z-0.244
N11910 X5.3851 Y4.3245 Z-0.2441
N11915 X5.3826 Y4.3241 Z-0.2442
N11920 X5.3801 Y4.3235 Z-0.2443
N11925 X5.3777 Y4.3229
N11930 X5.3753 Y4.3221 Z-0.2444
N11935 X5.3729 Y4.3213 Z-0.2445
N11940 X5.3706 Y4.3203 Z-0.2446
N11945 X5.3683 Y4.3192 Z-0.2447
N11950 X5.3661 Y4.3181 Z-0.2448
N11955 X5.3639 Y4.3168 Z-0.2449
N11960 X5.3618 Y4.3154 Z-0.245
N11965 X5.3597 Y4.314
N11970 X5.3577 Y4.3124 Z-0.2451
N11975 X5.3558 Y4.3108 Z-0.2452
N11980 X5.354 Y4.3091 Z-0.2453
N11985 X5.3522 Y4.3073 Z-0.2454
N11990 X5.3505 Y4.3054 Z-0.2455
N11995 X5.3489 Y4.3034 Z-0.2456
N12000 X5.3474 Y4.3014 Z-0.2457
N12005 X5.346 Y4.2993
N12010 X5.3447 Y4.2971 Z-0.2458
N12015 X5.3435 Y4.2949 Z-0.2459
N12020 X5.3424 Y4.2927 Z-0.246
N12025 X5.3414 Y4.2904 Z-0.2461
N12030 X5.3405 Y4.288 Z-0.2462
N12035 X5.3397 Y4.2857 Z-0.2463
N12040 X5.339 Y4.2832 Z-0.2464
N12045 X5.3384 Y4.2808 Z-0.2465
N12050 X5.3379 Y4.2783
N12055 X5.3375 Y4.2758 Z-0.2466
N12060 X5.3373 Y4.2733 Z-0.2467
N12065 X5.3371 Y4.2708 Z-0.2468
N12070 Y4.2683 Z-0.2469
N12075 X5.3372 Y4.2658 Z-0.247
N12080 X5.3374 Y4.2633 Z-0.2471
N12085 X5.3377 Y4.2608 Z-0.2472
N12090 X5.3381 Y4.2583
N12095 X5.3387 Y4.2558 Z-0.2473
N12100 X5.3393 Y4.2534 Z-0.2474
N12105 X5.3401 Y4.251 Z-0.2475
N12110 X5.3409 Y4.2486 Z-0.2476
N12115 X5.3419 Y4.2463 Z-0.2477
N12120 X5.343 Y4.244 Z-0.2478
N12125 X5.3441 Y4.2418 Z-0.2479
N12130 X5.3454 Y4.2396
N12135 X5.3468 Y4.2375 Z-0.248
N12140 X5.3482 Y4.2355 Z-0.2481
N12145 X5.3498 Y4.2335 Z-0.2482
N12150 X5.3514 Y4.2316 Z-0.2483
N12155 X5.3531 Y4.2297 Z-0.2484
N12160 X5.3549 Y4.228 Z-0.2485
N12165 X5.3568 Y4.2263 Z-0.2486
N12170 X5.3587 Y4.2247
N12175 X5.3608 Y4.2232 Z-0.2487
N12180 X5.3628 Y4.2218 Z-0.2488
N12185 X5.365 Y4.2205 Z-0.2489
N12190 X5.3672 Y4.2193 Z-0.249
N12195 X5.3694 Y4.2182 Z-0.2491
N12200 X5.3717 Y4.2171 Z-0.2492
N12205 X5.3741 Y4.2162 Z-0.2493
N12210 X5.3765 Y4.2154
N12215 X5.3789 Y4.2147 Z-0.2494
N12220 X5.3813 Y4.2142 Z-0.2495
N12225 X5.3838 Y4.2137 Z-0.2496
N12230 X5.3863 Y4.2133 Z-0.2497
N12235 X5.3888 Y4.2131 Z-0.2498
N12240 X5.3913 Y4.2129 Z-0.2499
N12245 X5.3938 Z-0.25
N12250 X5.3963 Y4.213
N12255 X5.3988 Y4.2132 Z-0.2501
N12260 X5.4013 Y4.2135 Z-0.2502
N12265 X5.4038 Y4.2139 Z-0.2503
N12270 X5.4062 Y4.2145 Z-0.2504
N12275 X5.4087 Y4.2151 Z-0.2505
N12280 X5.411 Y4.2158 Z-0.2506
N12285 X5.4134 Y4.2167 Z-0.2507
N12290 X5.4157 Y4.2177
N12295 X5.418 Y4.2187 Z-0.2508
N12300 X5.4202 Y4.2199 Z-0.2509
N12305 X5.4224 Y4.2212 Z-0.251
N12310 X5.4245 Y4.2225 Z-0.2511
N12315 X5.4265 Y4.224 Z-0.2512
N12320 X5.4285 Y4.2255 Z-0.2513
N12325 X5.4304 Y4.2271 Z-0.2514
N12330 X5.4322 Y4.2289
N12335 X5.434 Y4.2306 Z-0.2515
N12340 X5.4356 Y4.2325 Z-0.2516
N12345 X5.4372 Y4.2345 Z-0.2517
N12350 X5.4387 Y4.2365 Z-0.2518
N12355 X5.4401 Y4.2385 Z-0.2519
N12360 X5.4426 Y4.2429 Z-0.2521
N12365 X5.4437 Y4.2451
N12370 X5.4448 Y4.2474 Z-0.2522
N12375 X5.4464 Y4.2522 Z-0.2524
N12380 X5.4477 Y4.257 Z-0.2526
N12385 X5.4482 Y4.2595 Z-0.2527
N12390 X5.4486 Y4.2619 Z-0.2528
N12395 X5.4489 Y4.2669 Z-0.2529
N12400 X5.449 Y4.2695 Z-0.253
N12405 X5.4489 Y4.272 Z-0.2531
N12410 X5.4487 Y4.2744 Z-0.2532
N12415 X5.4484 Y4.2769 Z-0.2533
N12420 X5.448 Y4.2794 Z-0.2534
N12425 X5.4475 Y4.2818 Z-0.2535
N12430 X5.4468 Y4.2842
N12435 X5.4461 Y4.2866 Z-0.2536
N12440 X5.4452 Y4.289 Z-0.2537
N12445 X5.4443 Y4.2913 Z-0.2538
N12450 X5.4432 Y4.2936 Z-0.2539
N12455 X5.442 Y4.2958 Z-0.254
N12460 X5.4408 Y4.298 Z-0.2541
N12465 X5.4394 Y4.3001 Z-0.2542
N12470 X5.4379 Y4.3021
N12475 X5.4364 Y4.3041 Z-0.2543
N12480 X5.4348 Y4.306 Z-0.2544
N12485 X5.4331 Y4.3078 Z-0.2545
N12490 X5.4313 Y4.3095 Z-0.2546
N12495 X5.4294 Y4.3112 Z-0.2547
N12500 X5.4275 Y4.3128 Z-0.2548
N12505 X5.4255 Y4.3143 Z-0.2549
N12510 X5.4234 Y4.3157
N12515 X5.4213 Y4.317 Z-0.255
N12520 X5.4191 Y4.3182 Z-0.2551
N12525 X5.4169 Y4.3193 Z-0.2552
N12530 X5.4146 Y4.3203 Z-0.2553
N12535 X5.4122 Y4.3212 Z-0.2554
N12540 X5.4099 Y4.322 Z-0.2555
N12545 X5.4075 Y4.3227
N12550 X5.405 Y4.3233 Z-0.2556
N12555 X5.4026 Y4.3237 Z-0.2557
N12560 X5.4001 Y4.3241 Z-0.2558
N12565 X5.3976 Y4.3243 Z-0.2559
N12570 X5.3951 Y4.3245 Z-0.256
N12575 X5.3926 Z-0.2561
N12580 X5.3901 Y4.3244 Z-0.2562
N12585 X5.3877 Y4.3242
N12590 X5.3852 Y4.3239 Z-0.2563
N12595 X5.3827 Y4.3235 Z-0.2564
N12600 X5.3803 Y4.323 Z-0.2565
N12605 X5.3779 Y4.3223 Z-0.2566
N12610 X5.3755 Y4.3216 Z-0.2567
N12615 X5.3731 Y4.3207 Z-0.2568
N12620 X5.3708 Y4.3198 Z-0.2569
N12625 X5.3686 Y4.3187
N12630 X5.3664 Y4.3175 Z-0.257
N12635 X5.3642 Y4.3163 Z-0.2571
N12640 X5.3621 Y4.3149 Z-0.2572
N12645 X5.3601 Y4.3135 Z-0.2573
N12650 X5.3581 Y4.312 Z-0.2574
N12655 X5.3562 Y4.3103 Z-0.2575
N12660 X5.3544 Y4.3086 Z-0.2576
N12665 X5.3527 Y4.3069
N12670 X5.351 Y4.305 Z-0.2577
N12675 X5.3494 Y4.3031 Z-0.2578
N12680 X5.3479 Y4.301 Z-0.2579
N12685 X5.3465 Y4.299 Z-0.258
N12690 X5.3452 Y4.2968 Z-0.2581
N12695 X5.344 Y4.2947 Z-0.2582
N12700 X5.3429 Y4.2924
N12705 X5.3419 Y4.2902 Z-0.2583
N12710 X5.341 Y4.2878 Z-0.2584
N12715 X5.3402 Y4.2855 Z-0.2585
N12720 X5.3395 Y4.2831 Z-0.2586
N12725 X5.339 Y4.2807 Z-0.2587
N12730 X5.3385 Y4.2782 Z-0.2588
N12735 X5.3381 Y4.2757 Z-0.2589
N12740 X5.3379 Y4.2733
N12745 X5.3377 Y4.2708 Z-0.259
N12750 Y4.2683 Z-0.2591
N12755 X5.3378 Y4.2658 Z-0.2592
N12760 X5.338 Y4.2633 Z-0.2593
N12765 X5.3383 Y4.2609 Z-0.2594
N12770 X5.3387 Y4.2584 Z-0.2595
N12775 X5.3392 Y4.256
N12780 X5.3399 Y4.2535 Z-0.2596
N12785 X5.3406 Y4.2512 Z-0.2597
N12790 X5.3415 Y4.2488 Z-0.2598
N12795 X5.3424 Y4.2465 Z-0.2599
N12800 X5.3435 Y4.2443 Z-0.26
N12805 X5.3446 Y4.2421 Z-0.2601
N12810 X5.3459 Y4.2399 Z-0.2602
N12815 X5.3472 Y4.2378
N12820 X5.3487 Y4.2358 Z-0.2603
N12825 X5.3502 Y4.2338 Z-0.2604
N12830 X5.3518 Y4.2319 Z-0.2605
N12835 X5.3535 Y4.2301 Z-0.2606
N12840 X5.3553 Y4.2284 Z-0.2607
N12845 X5.3572 Y4.2267 Z-0.2608
N12850 X5.3591 Y4.2252 Z-0.2609
N12855 X5.3611 Y4.2237
N12860 X5.3632 Y4.2223 Z-0.261
N12865 X5.3653 Y4.221 Z-0.2611
N12870 X5.3675 Y4.2198 Z-0.2612
N12875 X5.3697 Y4.2187 Z-0.2613
N12880 X5.372 Y4.2177 Z-0.2614
N12885 X5.3743 Y4.2168 Z-0.2615
N12890 X5.3766 Y4.216
N12895 X5.379 Y4.2153 Z-0.2616
N12900 X5.3814 Y4.2147 Z-0.2617
N12905 X5.3839 Y4.2143 Z-0.2618
N12910 X5.3863 Y4.2139 Z-0.2619
N12915 X5.3888 Y4.2137 Z-0.262
N12920 X5.3913 Y4.2135 Z-0.2621
N12925 X5.3938 Z-0.2622
N12930 X5.3963 Y4.2136
N12935 X5.3987 Y4.2138 Z-0.2623
N12940 X5.4012 Y4.2141 Z-0.2624
N12945 X5.4037 Y4.2145 Z-0.2625
N12950 X5.4061 Y4.215 Z-0.2626
N12955 X5.4085 Y4.2157 Z-0.2627
N12960 X5.4108 Y4.2164 Z-0.2628
N12965 X5.4132 Y4.2173
N12970 X5.4155 Y4.2182 Z-0.2629
N12975 X5.4177 Y4.2193 Z-0.263
N12980 X5.4199 Y4.2204 Z-0.2631
N12985 X5.4221 Y4.2217 Z-0.2632
N12990 X5.4242 Y4.223 Z-0.2633
N12995 X5.4262 Y4.2244 Z-0.2634
N13000 X5.4281 Y4.226 Z-0.2635
N13005 X5.43 Y4.2276
N13010 X5.4318 Y4.2293 Z-0.2636
N13015 X5.4336 Y4.2311 Z-0.2637
N13020 X5.4352 Y4.2329 Z-0.2638
N13025 X5.4368 Y4.2348 Z-0.2639
N13030 X5.4382 Y4.2368 Z-0.264
N13035 X5.4396 Y4.2389 Z-0.2641
N13040 X5.4421 Y4.2432 Z-0.2642
N13045 X5.4432 Y4.2454 Z-0.2643
N13050 X5.4442 Y4.2477 Z-0.2644
N13055 X5.4459 Y4.2523 Z-0.2646
N13060 X5.4472 Y4.2571 Z-0.2647
N13065 X5.4476 Y4.2596 Z-0.2648
N13070 X5.448 Y4.262 Z-0.2649
N13075 X5.4483 Y4.267 Z-0.2651
N13080 X5.4484 Y4.2694 Z-0.2652
N13085 X5.4483 Y4.2719 Z-0.2653
N13090 X5.4481 Y4.2744 Z-0.2654
N13095 X5.4478 Y4.2768
N13100 X5.4474 Y4.2793 Z-0.2655
N13105 X5.4469 Y4.2817 Z-0.2656
N13110 X5.4462 Y4.2841 Z-0.2657
N13115 X5.4455 Y4.2864 Z-0.2658
N13120 X5.4447 Y4.2888 Z-0.2659
N13125 X5.4437 Y4.2911 Z-0.266
N13130 X5.4427 Y4.2933
N13135 X5.4415 Y4.2955 Z-0.2661
N13140 X5.4403 Y4.2976 Z-0.2662
N13145 X5.4389 Y4.2997 Z-0.2663
N13150 X5.4375 Y4.3017 Z-0.2664
N13155 X5.436 Y4.3037 Z-0.2665
N13160 X5.4343 Y4.3056 Z-0.2666
N13165 X5.4327 Y4.3074
N13170 X5.4309 Y4.3091 Z-0.2667
N13175 X5.429 Y4.3107 Z-0.2668
N13180 X5.4271 Y4.3123 Z-0.2669
N13185 X5.4251 Y4.3138 Z-0.267
N13190 X5.4231 Y4.3152 Z-0.2671
N13195 X5.421 Y4.3164 Z-0.2672
N13200 X5.4188 Y4.3176 Z-0.2673
N13205 X5.4166 Y4.3187
N13210 X5.4143 Y4.3197 Z-0.2674
N13215 X5.412 Y4.3206 Z-0.2675
N13220 X5.4097 Y4.3214 Z-0.2676
N13225 X5.4073 Y4.3221 Z-0.2677
N13230 X5.4049 Y4.3227 Z-0.2678
N13235 X5.4025 Y4.3231 Z-0.2679
N13240 X5.4 Y4.3235
N13245 X5.3976 Y4.3237 Z-0.268
N13250 X5.3951 Y4.3239 Z-0.2681
N13255 X5.3926 Z-0.2682
N13260 X5.3902 Y4.3238 Z-0.2683
N13265 X5.3877 Y4.3236 Z-0.2684
N13270 X5.3853 Y4.3233 Z-0.2685
N13275 X5.3828 Y4.3229
N13280 X5.3804 Y4.3224 Z-0.2686
N13285 X5.378 Y4.3217 Z-0.2687
N13290 X5.3757 Y4.321 Z-0.2688
N13295 X5.3734 Y4.3201 Z-0.2689
N13300 X5.3711 Y4.3192 Z-0.269
N13305 X5.3688 Y4.3182 Z-0.2691
N13310 X5.3667 Y4.317
N13315 X5.3645 Y4.3158 Z-0.2692
N13320 X5.3624 Y4.3144 Z-0.2693
N13325 X5.3604 Y4.313 Z-0.2694
N13330 X5.3585 Y4.3115 Z-0.2695
N13335 X5.3566 Y4.3099 Z-0.2696
N13340 X5.3548 Y4.3082 Z-0.2697
N13345 X5.3531 Y4.3064
N13350 X5.3515 Y4.3046 Z-0.2698
N13355 X5.3499 Y4.3027 Z-0.2699
N13360 X5.3484 Y4.3007 Z-0.27
N13365 X5.347 Y4.2986 Z-0.2701
N13370 X5.3458 Y4.2965 Z-0.2702
N13375 X5.3446 Y4.2944 Z-0.2703
N13380 X5.3435 Y4.2922
N13385 X5.3425 Y4.2899 Z-0.2704
N13390 X5.3416 Y4.2876 Z-0.2705
N13395 X5.3408 Y4.2853 Z-0.2706
N13400 X5.3401 Y4.2829 Z-0.2707
N13405 X5.3396 Y4.2805 Z-0.2708
N13410 X5.3391 Y4.2781 Z-0.2709
N13415 X5.3387 Y4.2757 Z-0.271
N13420 X5.3385 Y4.2732
N13425 X5.3384 Y4.2707 Z-0.2711
N13430 X5.3383 Y4.2683 Z-0.2712
N13435 X5.3384 Y4.2658 Z-0.2713
N13440 X5.3386 Y4.2634 Z-0.2714
N13445 X5.3389 Y4.2609 Z-0.2715
N13450 X5.3393 Y4.2585 Z-0.2716
N13455 X5.3399 Y4.2561
N13460 X5.3405 Y4.2537 Z-0.2717
N13465 X5.3412 Y4.2514 Z-0.2718
N13470 X5.3421 Y4.2491 Z-0.2719
N13475 X5.343 Y4.2468 Z-0.272
N13480 X5.344 Y4.2446 Z-0.2721
N13485 X5.3452 Y4.2424 Z-0.2722
N13490 X5.3464 Y4.2403
N13495 X5.3478 Y4.2382 Z-0.2723
N13500 X5.3492 Y4.2362 Z-0.2724
N13505 X5.3507 Y4.2342 Z-0.2725
N13510 X5.3523 Y4.2324 Z-0.2726
N13515 X5.354 Y4.2306 Z-0.2727
N13520 X5.3557 Y4.2289 Z-0.2728
N13525 X5.3576 Y4.2272
N13530 X5.3595 Y4.2257 Z-0.2729
N13535 X5.3615 Y4.2242 Z-0.273
N13540 X5.3635 Y4.2228 Z-0.2731
N13545 X5.3656 Y4.2215 Z-0.2732
N13550 X5.3677 Y4.2204 Z-0.2733
N13555 X5.37 Y4.2193 Z-0.2734
N13560 X5.3722 Y4.2183
N13565 X5.3745 Y4.2174 Z-0.2735
N13570 X5.3768 Y4.2166 Z-0.2736
N13575 X5.3792 Y4.2159 Z-0.2737
N13580 X5.3816 Y4.2154 Z-0.2738
N13585 X5.384 Y4.2149 Z-0.2739
N13590 X5.3864 Y4.2145 Z-0.274
N13595 X5.3889 Y4.2143
N13600 X5.3913 Y4.2142 Z-0.2741
N13605 X5.3938 Y4.2141 Z-0.2742
N13610 X5.3962 Y4.2142 Z-0.2743
N13615 X5.3987 Y4.2144 Z-0.2744
N13620 X5.4011 Y4.2147 Z-0.2745
N13625 X5.4035 Y4.2151 Z-0.2746
N13630 X5.4059 Y4.2156
N13635 X5.4083 Y4.2163 Z-0.2747
N13640 X5.4106 Y4.217 Z-0.2748
N13645 X5.4129 Y4.2178 Z-0.2749
N13650 X5.4152 Y4.2188 Z-0.275
N13655 X5.4174 Y4.2198 Z-0.2751
N13660 X5.4196 Y4.221 Z-0.2752
N13665 X5.4217 Y4.2222
N13670 X5.4238 Y4.2235 Z-0.2753
N13675 X5.4258 Y4.225 Z-0.2754
N13680 X5.4277 Y4.2265 Z-0.2755
N13685 X5.4296 Y4.2281 Z-0.2756
N13690 X5.4298 Y4.2283
N13695 X5.4299 Y4.2284
N13700 X5.4309 Y4.2293
N13705 X5.4318 Y4.2302 Z-0.2757
N13710 X5.4335 Y4.232 Z-0.2758
N13715 X5.4352 Y4.2339 Z-0.2759
N13720 X5.4368 Y4.2359
N13725 X5.4382 Y4.2379 Z-0.276
N13730 X5.4396 Y4.2401 Z-0.2761
N13735 X5.4409 Y4.2422 Z-0.2762
N13740 X5.442 Y4.2445 Z-0.2763
N13745 X5.4441 Y4.2491 Z-0.2765
N13750 X5.4457 Y4.2538 Z-0.2766
N13755 X5.4463 Y4.2563 Z-0.2767
N13760 X5.4468 Y4.2588 Z-0.2768
N13765 X5.4475 Y4.2638 Z-0.277
N13770 X5.4478 Y4.2688 Z-0.2772
N13775 Y4.2701
N13780 X5.4477 Y4.2713 Z-0.2773
N13785 X5.4475 Y4.2738 Z-0.2774
N13790 X5.4473 Y4.2763
N13795 X5.4468 Y4.2788 Z-0.2775
N13800 X5.4463 Y4.2813 Z-0.2776
N13805 X5.4457 Y4.2838 Z-0.2777
N13810 X5.4449 Y4.2861 Z-0.2778
N13815 X5.4441 Y4.2885 Z-0.2779
N13820 X5.4431 Y4.2908 Z-0.278
N13825 X5.442 Y4.2931 Z-0.2781
N13830 X5.4409 Y4.2953
N13835 X5.4396 Y4.2975 Z-0.2782
N13840 X5.4382 Y4.2996 Z-0.2783
N13845 X5.4367 Y4.3016 Z-0.2784
N13850 X5.4352 Y4.3036 Z-0.2785
N13855 X5.4335 Y4.3055 Z-0.2786
N13860 X5.4318 Y4.3073 Z-0.2787
N13865 X5.43 Y4.309 Z-0.2788
N13870 X5.4281 Y4.3107
N13875 X5.4261 Y4.3123 Z-0.2789
N13880 X5.4241 Y4.3137 Z-0.279
N13885 X5.422 Y4.3151 Z-0.2791
N13890 X5.4198 Y4.3164 Z-0.2792
N13895 X5.4176 Y4.3175 Z-0.2793
N13900 X5.4153 Y4.3186 Z-0.2794
N13905 X5.413 Y4.3196 Z-0.2795
N13910 X5.4106 Y4.3204
N13915 X5.4082 Y4.3212 Z-0.2796
N13920 X5.4057 Y4.3218 Z-0.2797
N13925 X5.4032 Y4.3223 Z-0.2798
N13930 X5.4008 Y4.3227 Z-0.2799
N13935 X5.3983 Y4.323 Z-0.28
N13940 X5.3958 Y4.3232 Z-0.2801
N13945 X5.3933 Y4.3233 Z-0.2802
N13950 X5.3907 Y4.3232
N13955 X5.3895 Y4.3231 Z-0.2803
N13960 X5.3882 Y4.323
N13965 X5.3857 Y4.3227 Z-0.2804
N13970 X5.3832 Y4.3223 Z-0.2805
N13975 X5.3808 Y4.3218 Z-0.2806
N13980 X5.3784 Y4.3212 Z-0.2807
N13985 X5.376 Y4.3204 Z-0.2808
N13990 X5.3736 Y4.3196 Z-0.2809
N13995 X5.3713 Y4.3186
N14000 X5.369 Y4.3175 Z-0.281
N14005 X5.3668 Y4.3164 Z-0.2811
N14010 X5.3647 Y4.3151 Z-0.2812
N14015 X5.3626 Y4.3137 Z-0.2813
N14020 X5.3605 Y4.3122 Z-0.2814
N14025 X5.3585 Y4.3107 Z-0.2815
N14030 X5.3567 Y4.309 Z-0.2816
N14035 X5.3548 Y4.3073
N14040 X5.3531 Y4.3055 Z-0.2817
N14045 X5.3515 Y4.3036 Z-0.2818
N14050 X5.3499 Y4.3016 Z-0.2819
N14055 X5.3484 Y4.2996 Z-0.282
N14060 X5.3471 Y4.2975 Z-0.2821
N14065 X5.3458 Y4.2953 Z-0.2822
N14070 X5.3446 Y4.2931 Z-0.2823
N14075 X5.3436 Y4.2908
N14080 X5.3426 Y4.2885 Z-0.2824
N14085 X5.3418 Y4.2862 Z-0.2825
N14090 X5.341 Y4.2838 Z-0.2826
N14095 X5.3404 Y4.2813 Z-0.2827
N14100 X5.3399 Y4.2789 Z-0.2828
N14105 X5.3395 Y4.2764 Z-0.2829
N14110 X5.3392 Y4.2739 Z-0.283
N14115 X5.339 Y4.2714
N14120 Y4.2689 Z-0.2831
N14125 Y4.2664 Z-0.2832
N14130 X5.3392 Y4.2639 Z-0.2833
N14135 X5.3393 Y4.2627 Z-0.2834
N14140 X5.3395 Y4.2614
N14145 X5.3399 Y4.2589 Z-0.2835
N14150 X5.3404 Y4.2565 Z-0.2836
N14155 X5.341 Y4.2541 Z-0.2837
N14160 X5.3418 Y4.2517
N14165 X5.3426 Y4.2493 Z-0.2838
N14170 X5.3436 Y4.247 Z-0.2839
N14175 X5.3447 Y4.2447 Z-0.284
N14180 X5.3458 Y4.2425 Z-0.2841
N14185 X5.3471 Y4.2404 Z-0.2842
N14190 X5.3485 Y4.2383 Z-0.2843
N14195 X5.3499 Y4.2363 Z-0.2844
N14200 X5.3515 Y4.2343
N14205 X5.3531 Y4.2324 Z-0.2845
N14210 X5.3549 Y4.2306 Z-0.2846
N14215 X5.3567 Y4.2289 Z-0.2847
N14220 X5.3586 Y4.2272 Z-0.2848
N14225 X5.3605 Y4.2257 Z-0.2849
N14230 X5.3626 Y4.2242 Z-0.285
N14235 X5.3646 Y4.2229 Z-0.2851
N14240 X5.3668 Y4.2216
N14245 X5.369 Y4.2204 Z-0.2852
N14250 X5.3713 Y4.2194 Z-0.2853
N14255 X5.3736 Y4.2184 Z-0.2854
N14260 X5.3759 Y4.2176 Z-0.2855
N14265 X5.3783 Y4.2168 Z-0.2856
N14270 X5.3807 Y4.2162 Z-0.2857
N14275 X5.3832 Y4.2157 Z-0.2858
N14280 X5.3856 Y4.2153
N14285 X5.3881 Y4.215 Z-0.2859
N14290 X5.3906 Y4.2148 Z-0.286
N14295 X5.3932 Z-0.2861
N14300 X5.3956 Z-0.2862
N14305 X5.3981 Y4.215 Z-0.2863
N14310 X5.3994 Y4.2151
N14315 X5.4006 Y4.2153 Z-0.2864
N14320 X5.4031 Y4.2157
N14325 X5.4055 Y4.2162 Z-0.2865
N14330 X5.408 Y4.2168 Z-0.2866
N14335 X5.4104 Y4.2176 Z-0.2867
N14340 X5.4127 Y4.2184 Z-0.2868
N14345 X5.415 Y4.2194 Z-0.2869
N14350 X5.4173 Y4.2205 Z-0.287
N14355 X5.4195 Y4.2216 Z-0.2871
N14360 X5.4216 Y4.2229
N14365 X5.4237 Y4.2242 Z-0.2872
N14370 X5.4257 Y4.2257 Z-0.2873
N14375 X5.4277 Y4.2272 Z-0.2874
N14380 X5.4295 Y4.2289 Z-0.2875
N14385 X5.4313 Y4.2306 Z-0.2876
N14390 X5.4331 Y4.2324 Z-0.2877
N14395 X5.4347 Y4.2343 Z-0.2878
N14400 X5.4363 Y4.2363
N14405 X5.4377 Y4.2383 Z-0.2879
N14410 X5.4391 Y4.2404 Z-0.288
N14415 X5.4403 Y4.2426 Z-0.2881
N14420 X5.4415 Y4.2447 Z-0.2882
N14425 X5.4435 Y4.2493 Z-0.2884
N14430 X5.4451 Y4.254 Z-0.2885
N14435 X5.4457 Y4.2564 Z-0.2886
N14440 X5.4462 Y4.2589 Z-0.2887
N14445 X5.4466 Y4.2614 Z-0.2888
N14450 X5.4469 Y4.2638 Z-0.2889
N14455 X5.4471 Y4.2688 Z-0.2891
N14460 Y4.2713
N14465 X5.447 Y4.2725 Z-0.2892
N14470 X5.4469 Y4.2738
N14475 X5.4466 Y4.2762 Z-0.2893
N14480 X5.4462 Y4.2787 Z-0.2894
N14485 X5.4457 Y4.2812 Z-0.2895
N14490 X5.4451 Y4.2836 Z-0.2896
N14495 X5.4443 Y4.2859 Z-0.2897
N14500 X5.4435 Y4.2883 Z-0.2898
N14505 X5.4425 Y4.2906
N14510 X5.4415 Y4.2928 Z-0.2899
N14515 X5.4403 Y4.295 Z-0.29
N14520 X5.439 Y4.2972 Z-0.2901
N14525 X5.4377 Y4.2992 Z-0.2902
N14530 X5.4362 Y4.3012 Z-0.2903
N14535 X5.4347 Y4.3032 Z-0.2904
N14540 X5.433 Y4.3051
N14545 X5.4313 Y4.3069 Z-0.2905
N14550 X5.4295 Y4.3086 Z-0.2906
N14555 X5.4277 Y4.3102 Z-0.2907
N14560 X5.4257 Y4.3117 Z-0.2908
N14565 X5.4237 Y4.3132 Z-0.2909
N14570 X5.4216 Y4.3146 Z-0.291
N14575 X5.4195 Y4.3158 Z-0.2911
N14580 X5.4173 Y4.317
N14585 X5.415 Y4.318 Z-0.2912
N14590 X5.4127 Y4.319 Z-0.2913
N14595 X5.4104 Y4.3198 Z-0.2914
N14600 X5.408 Y4.3206 Z-0.2915
N14605 X5.4056 Y4.3212 Z-0.2916
N14610 X5.4031 Y4.3217 Z-0.2917
N14615 X5.4007 Y4.3221
N14620 X5.3982 Y4.3224 Z-0.2918
N14625 X5.3957 Y4.3225 Z-0.2919
N14630 X5.3933 Y4.3226 Z-0.292
N14635 X5.3908 Y4.3225 Z-0.2921
N14640 X5.3895
N14645 X5.3883 Y4.3224 Z-0.2922
N14650 X5.3858 Y4.3221 Z-0.2923
N14655 X5.3834 Y4.3217 Z-0.2924
N14660 X5.3809 Y4.3212
N14665 X5.3785 Y4.3205 Z-0.2925
N14670 X5.3762 Y4.3198 Z-0.2926
N14675 X5.3739 Y4.319 Z-0.2927
N14680 X5.3716 Y4.318 Z-0.2928
N14685 X5.3693 Y4.3169 Z-0.2929
N14690 X5.3671 Y4.3158 Z-0.293
N14695 X5.365 Y4.3145
N14700 X5.3629 Y4.3132 Z-0.2931
N14705 X5.3609 Y4.3117 Z-0.2932
N14710 X5.359 Y4.3102 Z-0.2933
N14715 X5.3571 Y4.3085 Z-0.2934
N14720 X5.3553 Y4.3068 Z-0.2935
N14725 X5.3536 Y4.305 Z-0.2936
N14730 X5.352 Y4.3032 Z-0.2937
N14735 X5.3504 Y4.3012
N14740 X5.349 Y4.2992 Z-0.2938
N14745 X5.3476 Y4.2971 Z-0.2939
N14750 X5.3464 Y4.295 Z-0.294
N14755 X5.3452 Y4.2928 Z-0.2941
N14760 X5.3442 Y4.2906 Z-0.2942
N14765 X5.3432 Y4.2883 Z-0.2943
N14770 X5.3424 Y4.2859
N14775 X5.3417 Y4.2836 Z-0.2944
N14780 X5.341 Y4.2812 Z-0.2945
N14785 X5.3405 Y4.2788 Z-0.2946
N14790 X5.3401 Y4.2763 Z-0.2947
N14795 X5.3399 Y4.2738 Z-0.2948
N14800 X5.3397 Y4.2714 Z-0.2949
N14805 X5.3396 Y4.2689
N14810 X5.3397 Y4.2664 Z-0.295
N14815 X5.3398 Y4.2652 Z-0.2951
N14820 X5.3399 Y4.264
N14825 X5.3401 Y4.2615 Z-0.2952
N14830 X5.3406 Y4.2591 Z-0.2953
N14835 X5.3411 Y4.2566 Z-0.2954
N14840 X5.3417 Y4.2542 Z-0.2955
N14845 X5.3424 Y4.2519
N14850 X5.3433 Y4.2496 Z-0.2956
N14855 X5.3442 Y4.2473 Z-0.2957
N14860 X5.3453 Y4.245 Z-0.2958
N14865 X5.3464 Y4.2429 Z-0.2959
N14870 X5.3477 Y4.2407 Z-0.296
N14875 X5.349 Y4.2387 Z-0.2961
N14880 X5.3505 Y4.2367 Z-0.2962
N14885 X5.352 Y4.2347
N14890 X5.3536 Y4.2329 Z-0.2963
N14895 X5.3553 Y4.2311 Z-0.2964
N14900 X5.3571 Y4.2294 Z-0.2965
N14905 X5.359 Y4.2278 Z-0.2966
N14910 X5.3609 Y4.2262 Z-0.2967
N14915 X5.3629 Y4.2248 Z-0.2968
N14920 X5.365 Y4.2234
N14925 X5.3671 Y4.2222 Z-0.2969
N14930 X5.3693 Y4.221 Z-0.297
N14935 X5.3716 Y4.22 Z-0.2971
N14940 X5.3738 Y4.219 Z-0.2972
N14945 X5.3762 Y4.2182 Z-0.2973
N14950 X5.3785 Y4.2175 Z-0.2974
N14955 X5.3809 Y4.2169
N14960 X5.3833 Y4.2164 Z-0.2975
N14965 X5.3858 Y4.216 Z-0.2976
N14970 X5.3882 Y4.2157 Z-0.2977
N14975 X5.3907 Y4.2155 Z-0.2978
N14980 X5.3931 Y4.2154 Z-0.2979
N14985 X5.3956 Y4.2155 Z-0.298
N14990 X5.3981 Y4.2157
N14995 X5.3993 Y4.2158 Z-0.2981
N15000 X5.4005 Y4.216
N15005 X5.4029 Y4.2164 Z-0.2982
N15010 X5.4054 Y4.2169 Z-0.2983
N15015 X5.4078 Y4.2175 Z-0.2984
N15020 X5.4101 Y4.2182 Z-0.2985
N15025 X5.4125 Y4.2191 Z-0.2986
N15030 X5.4147 Y4.22
N15035 X5.4169 Y4.2211 Z-0.2987
N15040 X5.4191 Y4.2222 Z-0.2988
N15045 X5.4212 Y4.2235 Z-0.2989
N15050 X5.4233 Y4.2248 Z-0.299
N15055 X5.4253 Y4.2263 Z-0.2991
N15060 X5.4272 Y4.2278 Z-0.2992
N15065 X5.4291 Y4.2294
N15070 X5.4309 Y4.2311 Z-0.2993
N15075 X5.4326 Y4.2329 Z-0.2994
N15080 X5.4342 Y4.2348 Z-0.2995
N15085 X5.4357 Y4.2367 Z-0.2996
N15090 X5.4371 Y4.2387 Z-0.2997
N15095 X5.4385 Y4.2407 Z-0.2998
N15100 X5.4397 Y4.2429 Z-0.2999
N15105 X5.4409 Y4.2451
N15110 X5.4428 Y4.2496 Z-0.3001
N15115 X5.4444 Y4.2542 Z-0.3003
N15120 X5.445 Y4.2566 Z-0.3004
N15125 X5.4455 Y4.259 Z-0.3005
N15130 X5.4459 Y4.2614
N15135 X5.4462 Y4.2639 Z-0.3006
N15140 X5.4464 Y4.2688 Z-0.3008
N15145 Y4.2713 Z-0.3009
N15150 X5.4463 Y4.2725
N15155 X5.4462 Y4.2737 Z-0.301
N15160 X5.4459 Y4.2762 Z-0.3011
N15165 X5.4455 Y4.2786
N15170 X5.445 Y4.281 Z-0.3012
N15175 X5.4444 Y4.2834 Z-0.3013
N15180 X5.4437 Y4.2857 Z-0.3014
N15185 X5.4428 Y4.288 Z-0.3015
N15190 X5.4419 Y4.2903 Z-0.3016
N15195 X5.4408 Y4.2925 Z-0.3017
N15200 X5.4397 Y4.2947
N15205 X5.4384 Y4.2968 Z-0.3018
N15210 X5.4371 Y4.2988 Z-0.3019
N15215 X5.4357 Y4.3008 Z-0.302
N15220 X5.4341 Y4.3028 Z-0.3021
N15225 X5.4325 Y4.3046 Z-0.3022
N15230 X5.4308 Y4.3064 Z-0.3023
N15235 X5.4291 Y4.3081
N15240 X5.4272 Y4.3097 Z-0.3024
N15245 X5.4253 Y4.3112 Z-0.3025
N15250 X5.4233 Y4.3126 Z-0.3026
N15255 X5.4212 Y4.314 Z-0.3027
N15260 X5.4191 Y4.3152 Z-0.3028
N15265 X5.4169 Y4.3164 Z-0.3029
N15270 X5.4147 Y4.3174
N15275 X5.4125 Y4.3183 Z-0.303
N15280 X5.4101 Y4.3192 Z-0.3031
N15285 X5.4078 Y4.3199 Z-0.3032
N15290 X5.4054 Y4.3205 Z-0.3033
N15295 X5.403 Y4.321 Z-0.3034
N15300 X5.4006 Y4.3214
N15305 X5.3982 Y4.3217 Z-0.3035
N15310 X5.3957 Y4.3219 Z-0.3036
N15315 X5.3933 Z-0.3037
N15320 X5.3908 Z-0.3038
N15325 X5.3896 Y4.3218
N15330 X5.3884 Y4.3217 Z-0.3039
N15335 X5.3859 Y4.3214 Z-0.304
N15340 X5.3835 Y4.321
N15345 X5.3811 Y4.3205 Z-0.3041
N15350 X5.3787 Y4.3199 Z-0.3042
N15355 X5.3764 Y4.3191 Z-0.3043
N15360 X5.3741 Y4.3183 Z-0.3044
N15365 X5.3718 Y4.3174 Z-0.3045
N15370 X5.3696 Y4.3163 Z-0.3046
N15375 X5.3675 Y4.3152
N15380 X5.3654 Y4.3139 Z-0.3047
N15385 X5.3633 Y4.3126 Z-0.3048
N15390 X5.3613 Y4.3112 Z-0.3049
N15395 X5.3594 Y4.3096 Z-0.305
N15400 X5.3576 Y4.308 Z-0.3051
N15405 X5.3558 Y4.3063 Z-0.3052
N15410 X5.3541 Y4.3046
N15415 X5.3525 Y4.3027 Z-0.3053
N15420 X5.351 Y4.3008 Z-0.3054
N15425 X5.3496 Y4.2988 Z-0.3055
N15430 X5.3482 Y4.2968 Z-0.3056
N15435 X5.347 Y4.2947 Z-0.3057
N15440 X5.3458 Y4.2925 Z-0.3058
N15445 X5.3448 Y4.2903
N15450 X5.3439 Y4.288 Z-0.3059
N15455 X5.343 Y4.2857 Z-0.306
N15460 X5.3423 Y4.2834 Z-0.3061
N15465 X5.3417 Y4.281 Z-0.3062
N15470 X5.3412 Y4.2786 Z-0.3063
N15475 X5.3408 Y4.2762 Z-0.3064
N15480 X5.3405 Y4.2738
N15485 X5.3404 Y4.2713 Z-0.3065
N15490 X5.3403 Y4.2689 Z-0.3066
N15495 X5.3404 Y4.2665 Z-0.3067
N15500 X5.3405 Y4.2653
N15505 Y4.264 Z-0.3068
N15510 X5.3408 Y4.2616 Z-0.3069
N15515 X5.3412 Y4.2592
N15520 X5.3417 Y4.2568 Z-0.307
N15525 X5.3424 Y4.2544 Z-0.3071
N15530 X5.3431 Y4.2521 Z-0.3072
N15535 X5.3439 Y4.2498 Z-0.3073
N15540 X5.3448 Y4.2476 Z-0.3074
N15545 X5.3459 Y4.2454 Z-0.3075
N15550 X5.347 Y4.2432
N15555 X5.3483 Y4.2411 Z-0.3076
N15560 X5.3496 Y4.2391 Z-0.3077
N15565 X5.351 Y4.2371 Z-0.3078
N15570 X5.3525 Y4.2352 Z-0.3079
N15575 X5.3541 Y4.2333 Z-0.308
N15580 X5.3558 Y4.2316 Z-0.3081
N15585 X5.3576 Y4.2299
N15590 X5.3594 Y4.2283 Z-0.3082
N15595 X5.3613 Y4.2268 Z-0.3083
N15600 X5.3633 Y4.2253 Z-0.3084
N15605 X5.3654 Y4.224 Z-0.3085
N15610 X5.3675 Y4.2228 Z-0.3086
N15615 X5.3696 Y4.2216
N15620 X5.3718 Y4.2206 Z-0.3087
N15625 X5.3741 Y4.2197 Z-0.3088
N15630 X5.3764 Y4.2189 Z-0.3089
N15635 X5.3787 Y4.2181 Z-0.309
N15640 X5.3811 Y4.2175 Z-0.3091
N15645 X5.3835 Y4.217 Z-0.3092
N15650 X5.3859 Y4.2166
N15655 X5.3883 Y4.2163 Z-0.3093
N15660 X5.3907 Y4.2162 Z-0.3094
N15665 X5.3931 Y4.2161 Z-0.3095
N15670 X5.3956 Y4.2162 Z-0.3096
N15675 X5.398 Y4.2164 Z-0.3097
N15680 X5.3992 Y4.2165
N15685 X5.4004 Y4.2166 Z-0.3098
N15690 X5.4028 Y4.217
N15695 X5.4052 Y4.2175 Z-0.3099
N15700 X5.4076 Y4.2182 Z-0.31
N15705 X5.4099 Y4.2189 Z-0.3101
N15710 X5.4122 Y4.2197 Z-0.3102
N15715 X5.4144 Y4.2206 Z-0.3103
N15720 X5.4166 Y4.2217
N15725 X5.4188 Y4.2228 Z-0.3104
N15730 X5.4209 Y4.224 Z-0.3105
N15735 X5.4229 Y4.2254 Z-0.3106
N15740 X5.4249 Y4.2268 Z-0.3107
N15745 X5.4268 Y4.2283 Z-0.3108
N15750 X5.4286 Y4.2299 Z-0.3109
N15755 X5.4304 Y4.2316
N15760 X5.4321 Y4.2333 Z-0.311
N15765 X5.4337 Y4.2352 Z-0.3111
N15770 X5.4352 Y4.2371 Z-0.3112
N15775 X5.4366 Y4.2391 Z-0.3113
N15780 X5.4379 Y4.2411 Z-0.3114
N15785 X5.4391 Y4.2432
N15790 X5.4402 Y4.2454 Z-0.3115
N15795 X5.4422 Y4.2498 Z-0.3117
N15800 X5.4437 Y4.2544 Z-0.3119
N15805 X5.4443 Y4.2568 Z-0.312
N15810 X5.4448 Y4.2591
N15815 X5.4452 Y4.2615 Z-0.3121
N15820 X5.4455 Y4.264 Z-0.3122
N15825 X5.4457 Y4.2688 Z-0.3124
N15830 Y4.2712 Z-0.3125
N15835 X5.4456 Y4.2724
N15840 X5.4455 Y4.2736 Z-0.3126
N15845 X5.4452 Y4.2761
N15850 X5.4449 Y4.2785 Z-0.3127
N15855 X5.4443 Y4.2808 Z-0.3128
N15860 X5.4437 Y4.2832 Z-0.3129
N15865 X5.443 Y4.2855 Z-0.313
N15870 X5.4422 Y4.2878 Z-0.3131
N15875 X5.4413 Y4.29
N15880 X5.4402 Y4.2922 Z-0.3132
N15885 X5.4391 Y4.2943 Z-0.3133
N15890 X5.4379 Y4.2964 Z-0.3134
N15895 X5.4365 Y4.2985 Z-0.3135
N15900 X5.4351 Y4.3004 Z-0.3136
N15905 X5.4336 Y4.3023 Z-0.3137
N15910 X5.432 Y4.3042
N15915 X5.4303 Y4.3059 Z-0.3138
N15920 X5.4286 Y4.3076 Z-0.3139
N15925 X5.4268 Y4.3092 Z-0.314
N15930 X5.4249 Y4.3107 Z-0.3141
N15935 X5.4229 Y4.3121 Z-0.3142
N15940 X5.4209 Y4.3134
N15945 X5.4188 Y4.3146 Z-0.3143
N15950 X5.4166 Y4.3157 Z-0.3144
N15955 X5.4144 Y4.3168 Z-0.3145
N15960 X5.4122 Y4.3177 Z-0.3146
N15965 X5.4099 Y4.3185 Z-0.3147
N15970 X5.4076 Y4.3192
N15975 X5.4053 Y4.3198 Z-0.3148
N15980 X5.4029 Y4.3203 Z-0.3149
N15985 X5.4017 Y4.3205 Z-0.315
N15990 X5.4015 Y4.3206
N15995 X5.4008 Y4.3207
N16000 X5.4002 Y4.3208
N16005 X5.3989 Y4.3209 Z-0.3151
N16010 X5.3963 Y4.3211
N16015 X5.3937 Y4.3212 Z-0.3152
N16020 X5.3912 Z-0.3153
N16025 X5.3886 Y4.321 Z-0.3154
N16030 X5.3873 Y4.3209 Z-0.3155
N16035 X5.3861 Y4.3207
N16040 X5.3836 Y4.3203 Z-0.3156
N16045 X5.3811 Y4.3198 Z-0.3157
N16050 X5.3786 Y4.3191 Z-0.3158
N16055 X5.3761 Y4.3183 Z-0.3159
N16060 X5.3737 Y4.3174
N16065 X5.3713 Y4.3163 Z-0.316
N16070 X5.369 Y4.3152 Z-0.3161
N16075 X5.3667 Y4.314 Z-0.3162
N16080 X5.3646 Y4.3126 Z-0.3163
N16085 X5.3625 Y4.3112 Z-0.3164
N16090 X5.3615 Y4.3104
N16095 X5.3604 Y4.3096 Z-0.3165
N16100 X5.3585 Y4.308 Z-0.3166
N16105 X5.3566 Y4.3062 Z-0.3167
N16110 X5.3549 Y4.3044 Z-0.3168
N16115 X5.3532 Y4.3024
N16120 X5.3516 Y4.3004 Z-0.3169
N16125 X5.3501 Y4.2983 Z-0.317
N16130 X5.3487 Y4.2962 Z-0.3171
N16135 X5.3474 Y4.294 Z-0.3172
N16140 X5.3462 Y4.2917 Z-0.3173
N16145 X5.3452 Y4.2894 Z-0.3174
N16150 X5.3447 Y4.2882
N16155 X5.3442 Y4.287 Z-0.3175
N16160 X5.3434 Y4.2845 Z-0.3176
N16165 X5.3427 Y4.2821
N16170 X5.3421 Y4.2795 Z-0.3177
N16175 X5.3417 Y4.277 Z-0.3178
N16180 X5.3413 Y4.2745 Z-0.3179
N16185 X5.3411 Y4.2719 Z-0.318
N16190 X5.341 Y4.2694 Z-0.3181
N16195 X5.3411 Y4.2668 Z-0.3182
N16200 X5.3412 Y4.2643 Z-0.3183
N16205 X5.3414 Y4.263
N16210 X5.3415 Y4.2617 Z-0.3184
N16215 X5.342 Y4.2592 Z-0.3185
N16220 X5.3425 Y4.2567
N16225 X5.3432 Y4.2542 Z-0.3186
N16230 X5.3439 Y4.2518 Z-0.3187
N16235 X5.3448 Y4.2494 Z-0.3188
N16240 X5.3459 Y4.247 Z-0.3189
N16245 X5.347 Y4.2448 Z-0.319
N16250 X5.3482 Y4.2425 Z-0.3191
N16255 X5.3496 Y4.2404 Z-0.3192
N16260 X5.351 Y4.2383 Z-0.3193
N16265 X5.3518 Y4.2372
N16270 X5.3526 Y4.2362
N16275 X5.3542 Y4.2343 Z-0.3194
N16280 X5.356 Y4.2324 Z-0.3195
N16285 X5.3578 Y4.2306 Z-0.3196
N16290 X5.3598 Y4.2289 Z-0.3197
N16295 X5.3617 Y4.2274 Z-0.3198
N16300 X5.3638 Y4.2259 Z-0.3199
N16305 X5.3659 Y4.2245 Z-0.32
N16310 X5.3682 Y4.2232 Z-0.3201
N16315 X5.3704 Y4.222
N16320 X5.3728 Y4.221 Z-0.3202
N16325 X5.374 Y4.2205 Z-0.3203
N16330 X5.3752 Y4.22
N16335 X5.3776 Y4.2192 Z-0.3204
N16340 X5.38 Y4.2185 Z-0.3205
N16345 X5.3825 Y4.2179 Z-0.3206
N16350 X5.385 Y4.2175 Z-0.3207
N16355 X5.3876 Y4.2171 Z-0.3208
N16360 X5.3901 Y4.2169 Z-0.3209
N16365 X5.3927
N16370 X5.3952 Z-0.321
N16375 X5.3978 Y4.2171 Z-0.3211
N16380 X5.3991 Y4.2172 Z-0.3212
N16385 X5.4003 Y4.2173
N16390 X5.4028 Y4.2178 Z-0.3213
N16395 X5.4053 Y4.2183 Z-0.3214
N16400 X5.4078 Y4.219 Z-0.3215
N16405 X5.4102 Y4.2197 Z-0.3216
N16410 X5.4126 Y4.2206 Z-0.3217
N16415 X5.4149 Y4.2217
N16420 X5.4172 Y4.2228 Z-0.3218
N16425 X5.4194 Y4.224 Z-0.3219
N16430 X5.4216 Y4.2254 Z-0.322
N16435 X5.4237 Y4.2268 Z-0.3221
N16440 X5.4247 Y4.2276
N16445 X5.4257 Y4.2284 Z-0.3222
N16450 X5.4277 Y4.23 Z-0.3223
N16455 X5.4296 Y4.2318 Z-0.3224
N16460 X5.4313 Y4.2336 Z-0.3225
N16465 X5.433 Y4.2356
N16470 X5.4346 Y4.2376 Z-0.3226
N16475 X5.4361 Y4.2396 Z-0.3227
N16480 X5.4375 Y4.2418 Z-0.3228
N16485 X5.4387 Y4.244 Z-0.3229
N16490 X5.4399 Y4.2462 Z-0.323
N16495 X5.4418 Y4.2509 Z-0.3232
N16500 X5.4426 Y4.2533 Z-0.3233
N16505 X5.4433 Y4.2557
N16510 X5.4444 Y4.2607 Z-0.3235
N16515 X5.4447 Y4.2632 Z-0.3236
N16520 X5.4449 Y4.2658 Z-0.3237
N16525 X5.445 Y4.2709 Z-0.3239
N16530 X5.4448 Y4.2734 Z-0.324
N16535 X5.4447 Y4.2747
N16540 X5.4445 Y4.2759 Z-0.3241
N16545 X5.4441 Y4.2784
N16550 X5.4436 Y4.2809 Z-0.3242
N16555 X5.4429 Y4.2834 Z-0.3243
N16560 X5.4421 Y4.2858 Z-0.3244
N16565 X5.4412 Y4.2882 Z-0.3245
N16570 X5.4402 Y4.2905 Z-0.3246
N16575 X5.4391 Y4.2928 Z-0.3247
N16580 X5.4379 Y4.295 Z-0.3248
N16585 X5.4365 Y4.2972 Z-0.3249
N16590 X5.4351 Y4.2992
N16595 X5.4343 Y4.3003 Z-0.325
N16600 X5.4335 Y4.3013
N16605 X5.4319 Y4.3032 Z-0.3251
N16610 X5.4302 Y4.305 Z-0.3252
N16615 X5.4283 Y4.3068 Z-0.3253
N16620 X5.4264 Y4.3085 Z-0.3254
N16625 X5.4244 Y4.3101 Z-0.3255
N16630 X5.4224 Y4.3116 Z-0.3256
N16635 X5.4202 Y4.3129
N16640 X5.418 Y4.3142 Z-0.3257
N16645 X5.4158 Y4.3153 Z-0.3258
N16650 X5.4146 Y4.3159 Z-0.3259
N16655 X5.4135 Y4.3164
N16660 X5.4111 Y4.3173 Z-0.326
N16665 X5.4087 Y4.3181 Z-0.3261
N16670 X5.4063 Y4.3188 Z-0.3262
N16675 X5.4038 Y4.3194 Z-0.3263
N16680 X5.4014 Y4.3199 Z-0.3264
N16685 X5.3988 Y4.3202
N16690 X5.3963 Y4.3204 Z-0.3265
N16695 X5.3937 Y4.3205 Z-0.3266
N16700 X5.3912 Y4.3204 Z-0.3267
N16705 X5.3887 Y4.3203 Z-0.3268
N16710 X5.3874 Y4.3201
N16715 X5.3862 Y4.32 Z-0.3269
N16720 X5.3837 Y4.3196 Z-0.327
N16725 X5.3812 Y4.319 Z-0.3271
N16730 X5.3788 Y4.3184 Z-0.3272
N16735 X5.3763 Y4.3176
N16740 X5.3739 Y4.3167 Z-0.3273
N16745 X5.3716 Y4.3157 Z-0.3274
N16750 X5.3693 Y4.3146 Z-0.3275
N16755 X5.3671 Y4.3133 Z-0.3276
N16760 X5.365 Y4.312 Z-0.3277
N16765 X5.3629 Y4.3106 Z-0.3278
N16770 X5.3619 Y4.3098
N16775 X5.3609 Y4.309 Z-0.3279
N16780 X5.359 Y4.3074
N16785 X5.3572 Y4.3057 Z-0.328
N16790 X5.3554 Y4.3039 Z-0.3281
N16795 X5.3537 Y4.302 Z-0.3282
N16800 X5.3522 Y4.3 Z-0.3283
N16805 X5.3507 Y4.2979 Z-0.3284
N16810 X5.3493 Y4.2958 Z-0.3285
N16815 X5.348 Y4.2936 Z-0.3286
N16820 X5.3469 Y4.2914 Z-0.3287
N16825 X5.3458 Y4.2891
N16830 X5.3454 Y4.2879 Z-0.3288
N16835 X5.3449 Y4.2867
N16840 X5.3441 Y4.2843 Z-0.3289
N16845 X5.3434 Y4.2819 Z-0.329
N16850 X5.3428 Y4.2794 Z-0.3291
N16855 X5.3424 Y4.2769 Z-0.3292
N16860 X5.342 Y4.2744 Z-0.3293
N16865 X5.3418 Y4.2719 Z-0.3294
N16870 Y4.2694
N16875 Y4.2669 Z-0.3295
N16880 X5.342 Y4.2643 Z-0.3296
