%
O07714 (Thermocyler_Block_4X4_4)
(Using high feed G1 F500. instead of G0.)
(T8 D=0.125 CR=0. - ZMIN=-0.7725 - flat end mill)
N10 G90 G94 G17
N15 G20
N20 G53 G0 Z0.

(Ramp1)
N30 T8 M6
N35 S4000 M3
N40 G54
N45 M8
N60 G0 X4.5594 Y3.4465
N65 G43 Z0.5906 H8
N70 G0 Z0.076
N75 G1 Z0. F8.
N80 G3 X4.5503 Y3.4253 I-0.0001 J-0.0125
N85 G1 X4.5506 Y3.425
N90 X4.5532 Y3.4226 Z-0.0001
N95 X4.5538 Y3.4221 Z-0.0002
N100 X4.5587 Y3.4183 Z-0.0004
N105 X4.5615 Y3.4166 Z-0.0005
N110 X4.5643 Y3.4149 Z-0.0006
N115 X4.5699 Y3.4123 Z-0.0008
N120 X4.5731 Y3.4111 Z-0.0009
N125 X4.5755 Y3.4103 Z-0.001
N130 X4.5811 Y3.4089 Z-0.0012
N135 X4.5867 Y3.408 Z-0.0014
N140 X4.5894 Y3.4078 Z-0.0015
N145 X4.5922 Y3.4077 Z-0.0016
N150 X4.5978 Y3.4079 Z-0.0018
N155 X4.6034 Y3.4086 Z-0.002
N160 X4.609 Y3.4098 Z-0.0022
N165 X4.6132 Y3.4111 Z-0.0024
N170 X4.6146 Y3.4115
N175 X4.6202 Y3.4139 Z-0.0026
N180 X4.6226 Y3.4152 Z-0.0027
N185 X4.625 Y3.4166 Z-0.0028
N190 X4.6257 Y3.4171 Z-0.0029
N195 X4.6313 Y3.421 Z-0.0031
N200 X4.6326 Y3.4221 Z-0.0032
N205 X4.6369 Y3.426 Z-0.0034
N210 X4.6383 Y3.4276
N215 X4.6405 Y3.4301 Z-0.0035
N220 X4.6425 Y3.4326 Z-0.0037
N225 X4.6428 Y3.4331
N230 X4.6463 Y3.4386 Z-0.0039
N235 X4.6481 Y3.4418 Z-0.004
N240 X4.6491 Y3.4441 Z-0.0041
N245 X4.6513 Y3.4496 Z-0.0043
N250 X4.6521 Y3.4523 Z-0.0044
N255 X4.6528 Y3.4551 Z-0.0045
N260 X4.6536 Y3.4592 Z-0.0047
N265 X4.6538 Y3.4606
N270 X4.6543 Y3.4661 Z-0.0049
N275 Y3.4716 Z-0.0051
N280 X4.6538 Y3.4771 Z-0.0053
N285 X4.6536 Y3.4785 Z-0.0054
N290 X4.6528 Y3.4826 Z-0.0055
N295 X4.6521 Y3.4854 Z-0.0056
N300 X4.6513 Y3.4881 Z-0.0057
N305 X4.6491 Y3.4936 Z-0.0059
N310 X4.6481 Y3.4959 Z-0.006
N315 X4.6463 Y3.4991 Z-0.0061
N320 X4.6428 Y3.5046 Z-0.0063
N325 X4.6425 Y3.5051 Z-0.0064
N330 X4.6405 Y3.5076 Z-0.0065
N335 X4.6383 Y3.5101 Z-0.0066
N340 X4.6369 Y3.5117 Z-0.0067
N345 X4.6326 Y3.5156 Z-0.0069
N350 X4.6313 Y3.5167
N355 X4.6257 Y3.5206 Z-0.0072
N360 X4.625 Y3.5211
N365 X4.6226 Y3.5225 Z-0.0073
N370 X4.6202 Y3.5238 Z-0.0074
N375 X4.6146 Y3.5262 Z-0.0076
N380 X4.6132 Y3.5267 Z-0.0077
N385 X4.609 Y3.5279 Z-0.0078
N390 X4.6034 Y3.5292 Z-0.008
N395 X4.5978 Y3.5298 Z-0.0082
N400 X4.5922 Y3.53 Z-0.0084
N405 X4.5894 Y3.5299 Z-0.0085
N410 X4.5867 Y3.5297 Z-0.0086
N415 X4.5811 Y3.5288 Z-0.0088
N420 X4.5755 Y3.5274 Z-0.009
N425 X4.5731 Y3.5267 Z-0.0091
N430 X4.5699 Y3.5254 Z-0.0092
N435 X4.5643 Y3.5228 Z-0.0094
N440 X4.5615 Y3.5211 Z-0.0095
N445 X4.5587 Y3.5194 Z-0.0096
N450 X4.5538 Y3.5156 Z-0.0099
N455 X4.5532 Y3.5151
N460 X4.5506 Y3.5127 Z-0.01
N465 X4.5481 Y3.5101 Z-0.0101
N470 X4.5476 Y3.5096 Z-0.0102
N475 X4.5436 Y3.5046 Z-0.0104
N480 X4.542 Y3.5023 Z-0.0105
N485 X4.54 Y3.4991 Z-0.0106
N490 X4.5386 Y3.4964 Z-0.0107
N495 X4.5373 Y3.4936 Z-0.0108
N500 X4.5364 Y3.4915 Z-0.0109
N505 X4.5352 Y3.4881 Z-0.011
N510 X4.5336 Y3.4826 Z-0.0112
N515 X4.5326 Y3.4771 Z-0.0114
N520 X4.5321 Y3.4716 Z-0.0116
N525 Y3.4689 Z-0.0117
N530 Y3.4661 Z-0.0118
N535 X4.5326 Y3.4606 Z-0.012
N540 X4.5336 Y3.4551 Z-0.0122
N545 X4.5352 Y3.4496 Z-0.0124
N550 X4.5364 Y3.4462 Z-0.0125
N555 X4.5373 Y3.4441 Z-0.0126
N560 X4.5386 Y3.4413 Z-0.0127
N565 X4.54 Y3.4386 Z-0.0128
N570 X4.542 Y3.4354 Z-0.013
N575 X4.5436 Y3.4331 Z-0.0131
N580 X4.5476 Y3.4281 Z-0.0133
N585 X4.5481 Y3.4276
N590 X4.5506 Y3.425 Z-0.0134
N595 X4.5532 Y3.4226 Z-0.0136
N600 X4.5538 Y3.4221
N605 X4.5587 Y3.4183 Z-0.0138
N610 X4.5615 Y3.4166 Z-0.0139
N615 X4.5643 Y3.4149 Z-0.014
N620 X4.5699 Y3.4123 Z-0.0142
N625 X4.5731 Y3.4111 Z-0.0144
N630 X4.5755 Y3.4103
N635 X4.5811 Y3.4089 Z-0.0147
N640 X4.5867 Y3.408 Z-0.0148
N645 X4.5894 Y3.4078 Z-0.0149
N650 X4.5922 Y3.4077 Z-0.015
N655 X4.5978 Y3.4079 Z-0.0152
N660 X4.6034 Y3.4086 Z-0.0154
N665 X4.609 Y3.4098 Z-0.0156
N670 X4.6132 Y3.4111 Z-0.0158
N675 X4.6146 Y3.4115
N680 X4.6202 Y3.4139 Z-0.0161
N685 X4.6226 Y3.4152
N690 X4.625 Y3.4166 Z-0.0162
N695 X4.6257 Y3.4171 Z-0.0163
N700 X4.6313 Y3.421 Z-0.0165
N705 X4.6326 Y3.4221 Z-0.0166
N710 X4.6369 Y3.426 Z-0.0168
N715 X4.6383 Y3.4276
N720 X4.6405 Y3.4301 Z-0.017
N725 X4.6425 Y3.4326 Z-0.0171
N730 X4.6428 Y3.4331
N735 X4.6463 Y3.4386 Z-0.0173
N740 X4.6481 Y3.4418 Z-0.0175
N745 X4.6491 Y3.4441
N750 X4.6513 Y3.4496 Z-0.0177
N755 X4.6521 Y3.4523 Z-0.0178
N760 X4.6528 Y3.4551 Z-0.0179
N765 X4.6536 Y3.4592 Z-0.0181
N770 X4.6538 Y3.4606
N775 X4.6543 Y3.4661 Z-0.0183
N780 Y3.4716 Z-0.0185
N785 X4.6538 Y3.4771 Z-0.0187
N790 X4.6536 Y3.4785 Z-0.0188
N795 X4.6528 Y3.4826 Z-0.0189
N800 X4.6521 Y3.4854 Z-0.019
N805 X4.6513 Y3.4881 Z-0.0191
N810 X4.6491 Y3.4936 Z-0.0193
N815 X4.6481 Y3.4959 Z-0.0194
N820 X4.6463 Y3.4991 Z-0.0195
N825 X4.6428 Y3.5046 Z-0.0198
N830 X4.6425 Y3.5051
N835 X4.6405 Y3.5076 Z-0.0199
N840 X4.6383 Y3.5101 Z-0.02
N845 X4.6369 Y3.5117 Z-0.0201
N850 X4.6326 Y3.5156 Z-0.0203
N855 X4.6313 Y3.5167 Z-0.0204
N860 X4.6257 Y3.5206 Z-0.0206
N865 X4.625 Y3.5211
N870 X4.6226 Y3.5225 Z-0.0207
N875 X4.6202 Y3.5238 Z-0.0208
N880 X4.6146 Y3.5262 Z-0.021
N885 X4.6132 Y3.5267 Z-0.0211
N890 X4.609 Y3.5279 Z-0.0212
N895 X4.6034 Y3.5292 Z-0.0214
N900 X4.5978 Y3.5298 Z-0.0216
N905 X4.5922 Y3.53 Z-0.0218
N910 X4.5894 Y3.5299 Z-0.0219
N915 X4.5867 Y3.5297 Z-0.022
N920 X4.5811 Y3.5288 Z-0.0222
N925 X4.5755 Y3.5274 Z-0.0224
N930 X4.5731 Y3.5267 Z-0.0225
N935 X4.5699 Y3.5254 Z-0.0226
N940 X4.5643 Y3.5228 Z-0.0228
N945 X4.5615 Y3.5211 Z-0.023
N950 X4.5587 Y3.5194 Z-0.0231
N955 X4.5538 Y3.5156 Z-0.0233
N960 X4.5532 Y3.5151
N965 X4.5506 Y3.5127 Z-0.0234
N970 X4.5481 Y3.5101 Z-0.0236
N975 X4.5476 Y3.5096
N980 X4.5436 Y3.5046 Z-0.0238
N985 X4.542 Y3.5023 Z-0.0239
N990 X4.54 Y3.4991 Z-0.024
N995 X4.5386 Y3.4964 Z-0.0241
N1000 X4.5373 Y3.4936 Z-0.0243
N1005 X4.5364 Y3.4915
N1010 X4.5352 Y3.4881 Z-0.0245
N1015 X4.5336 Y3.4826 Z-0.0247
N1020 X4.5326 Y3.4771 Z-0.0249
N1025 X4.5321 Y3.4716 Z-0.025
N1030 Y3.4689 Z-0.0251
N1035 Y3.4661 Z-0.0252
N1040 X4.5326 Y3.4606 Z-0.0254
N1045 X4.5336 Y3.4551 Z-0.0256
N1050 X4.5352 Y3.4496 Z-0.0258
N1055 X4.5364 Y3.4462 Z-0.026
N1060 X4.5373 Y3.4441
N1065 X4.5386 Y3.4413 Z-0.0261
N1070 X4.54 Y3.4386 Z-0.0262
N1075 X4.542 Y3.4354 Z-0.0264
N1080 X4.5436 Y3.4331 Z-0.0265
N1085 X4.5476 Y3.4281 Z-0.0267
N1090 X4.5481 Y3.4276
N1095 X4.5506 Y3.425 Z-0.0268
N1100 X4.5532 Y3.4226 Z-0.027
N1105 X4.5538 Y3.4221
N1110 X4.5587 Y3.4183 Z-0.0272
N1115 X4.5615 Y3.4166 Z-0.0273
N1120 X4.5643 Y3.4149 Z-0.0274
N1125 X4.5699 Y3.4123 Z-0.0277
N1130 X4.5731 Y3.4111 Z-0.0278
N1135 X4.5755 Y3.4103 Z-0.0279
N1140 X4.5811 Y3.4089 Z-0.0281
N1145 X4.5867 Y3.408 Z-0.0283
N1150 X4.5894 Y3.4078 Z-0.0284
N1155 X4.5922 Y3.4077 Z-0.0285
N1160 X4.5978 Y3.4079 Z-0.0287
N1165 X4.6034 Y3.4086 Z-0.0289
N1170 X4.609 Y3.4098 Z-0.0291
N1175 X4.6132 Y3.4111 Z-0.0292
N1180 X4.6146 Y3.4115 Z-0.0293
N1185 X4.6202 Y3.4139 Z-0.0295
N1190 X4.6226 Y3.4152 Z-0.0296
N1195 X4.625 Y3.4166 Z-0.0297
N1200 X4.6257 Y3.4171
N1205 X4.6313 Y3.421 Z-0.0299
N1210 X4.6326 Y3.4221 Z-0.03
N1215 X4.6369 Y3.426 Z-0.0302
N1220 X4.6383 Y3.4276 Z-0.0303
N1225 X4.6405 Y3.4301 Z-0.0304
N1230 X4.6425 Y3.4326 Z-0.0305
N1235 X4.6428 Y3.4331
N1240 X4.6463 Y3.4386 Z-0.0307
N1245 X4.6481 Y3.4418 Z-0.0309
N1250 X4.6491 Y3.4441 Z-0.031
N1255 X4.6513 Y3.4496 Z-0.0312
N1260 X4.6521 Y3.4523 Z-0.0313
N1265 X4.6528 Y3.4551 Z-0.0314
N1270 X4.6536 Y3.4592 Z-0.0315
N1275 X4.6538 Y3.4606 Z-0.0316
N1280 X4.6543 Y3.4661 Z-0.0318
N1285 Y3.4716 Z-0.0319
N1290 X4.6538 Y3.4771 Z-0.0321
N1295 X4.6536 Y3.4785 Z-0.0322
N1300 X4.6528 Y3.4826 Z-0.0323
N1305 X4.6521 Y3.4854 Z-0.0324
N1310 X4.6513 Y3.4881 Z-0.0325
N1315 X4.6491 Y3.4936 Z-0.0327
N1320 X4.6481 Y3.4959 Z-0.0328
N1325 X4.6463 Y3.4991 Z-0.033
N1330 X4.6428 Y3.5046 Z-0.0332
N1335 X4.6425 Y3.5051
N1340 X4.6405 Y3.5076 Z-0.0333
N1345 X4.6383 Y3.5101 Z-0.0334
N1350 X4.6369 Y3.5117 Z-0.0335
N1355 X4.6326 Y3.5156 Z-0.0337
N1360 X4.6313 Y3.5167 Z-0.0338
N1365 X4.6257 Y3.5206 Z-0.034
N1370 X4.625 Y3.5211
N1375 X4.6226 Y3.5225 Z-0.0341
N1380 X4.6202 Y3.5238 Z-0.0342
N1385 X4.6146 Y3.5262 Z-0.0344
N1390 X4.6132 Y3.5267 Z-0.0345
N1395 X4.609 Y3.5279 Z-0.0346
N1400 X4.6034 Y3.5292 Z-0.0348
N1405 X4.5978 Y3.5298 Z-0.035
N1410 X4.5922 Y3.53 Z-0.0352
N1415 X4.5894 Y3.5299 Z-0.0353
N1420 X4.5867 Y3.5297 Z-0.0354
N1425 X4.5811 Y3.5288 Z-0.0356
N1430 X4.5755 Y3.5274 Z-0.0358
N1435 X4.5731 Y3.5267 Z-0.0359
N1440 X4.5699 Y3.5254 Z-0.036
N1445 X4.5643 Y3.5228 Z-0.0363
N1450 X4.5615 Y3.5211 Z-0.0364
N1455 X4.5587 Y3.5194 Z-0.0365
N1460 X4.5538 Y3.5156 Z-0.0367
N1465 X4.5532 Y3.5151
N1470 X4.5506 Y3.5127 Z-0.0368
N1475 X4.5481 Y3.5101 Z-0.037
N1480 X4.5476 Y3.5096
N1485 X4.5436 Y3.5046 Z-0.0372
N1490 X4.542 Y3.5023 Z-0.0373
N1495 X4.54 Y3.4991 Z-0.0375
N1500 X4.5386 Y3.4964 Z-0.0376
N1505 X4.5373 Y3.4936 Z-0.0377
N1510 X4.5364 Y3.4915
N1515 X4.5352 Y3.4881 Z-0.0379
N1520 X4.5336 Y3.4826 Z-0.0381
N1525 X4.5326 Y3.4771 Z-0.0383
N1530 X4.5321 Y3.4716 Z-0.0385
N1535 Y3.4689 Z-0.0386
N1540 Y3.4661 Z-0.0387
N1545 X4.5326 Y3.4606 Z-0.0388
N1550 X4.5336 Y3.4551 Z-0.039
N1555 X4.5352 Y3.4496 Z-0.0392
N1560 X4.5364 Y3.4462 Z-0.0394
N1565 X4.5374 Y3.4439 Z-0.0395
N1570 X4.5384 Y3.4417
N1575 X4.5408 Y3.4373 Z-0.0397
N1580 X4.5435 Y3.4332 Z-0.0399
N1585 X4.5465 Y3.4293 Z-0.0401
N1590 X4.5499 Y3.4257 Z-0.0402
N1595 X4.5535 Y3.4224 Z-0.0404
N1600 X4.5573 Y3.4193 Z-0.0406
N1605 X4.5614 Y3.4166 Z-0.0407
N1610 X4.5657 Y3.4142 Z-0.0409
N1615 X4.5702 Y3.4122 Z-0.0411
N1620 X4.5749 Y3.4105 Z-0.0413
N1625 X4.5796 Y3.4092 Z-0.0414
N1630 X4.5845 Y3.4083 Z-0.0416
N1635 X4.5894 Y3.4078 Z-0.0418
N1640 X4.5943 Y3.4077 Z-0.0419
N1645 X4.5992 Y3.408 Z-0.0421
N1650 X4.6041 Y3.4087 Z-0.0423
N1655 X4.6089 Y3.4097 Z-0.0425
N1660 X4.6136 Y3.4112 Z-0.0426
N1665 X4.6182 Y3.413 Z-0.0428
N1670 X4.6226 Y3.4152 Z-0.043
N1675 X4.6268 Y3.4177 Z-0.0431
N1680 X4.6308 Y3.4206 Z-0.0433
N1685 X4.6346 Y3.4238 Z-0.0435
N1690 X4.638 Y3.4273 Z-0.0437
N1695 X4.6412 Y3.431 Z-0.0438
N1700 X4.6441 Y3.435 Z-0.044
N1705 X4.6467 Y3.4392 Z-0.0442
N1710 X4.6489 Y3.4436 Z-0.0444
N1715 X4.6508 Y3.4482 Z-0.0445
N1720 X4.6522 Y3.4529 Z-0.0447
N1725 X4.6533 Y3.4577 Z-0.0449
N1730 X4.654 Y3.4625 Z-0.045
N1735 X4.6544 Y3.4675 Z-0.0452
N1740 X4.6543 Y3.4724 Z-0.0454
N1745 X4.6538 Y3.4773 Z-0.0456
N1750 X4.6529 Y3.4821 Z-0.0457
N1755 X4.6517 Y3.4869 Z-0.0459
N1760 X4.65 Y3.4915 Z-0.0461
N1765 X4.648 Y3.4961 Z-0.0462
N1770 X4.6456 Y3.5004 Z-0.0464
N1775 X4.6429 Y3.5045 Z-0.0466
N1780 X4.6399 Y3.5084 Z-0.0468
N1785 X4.6366 Y3.512 Z-0.0469
N1790 X4.633 Y3.5154 Z-0.0471
N1795 X4.6291 Y3.5184 Z-0.0473
N1800 X4.625 Y3.5211 Z-0.0474
N1805 X4.6207 Y3.5235 Z-0.0476
N1810 X4.6162 Y3.5256 Z-0.0478
N1815 X4.6116 Y3.5272 Z-0.048
N1820 X4.6068 Y3.5285 Z-0.0481
N1825 X4.602 Y3.5294 Z-0.0483
N1830 X4.5971 Y3.5299 Z-0.0485
N1835 X4.5921 Y3.53 Z-0.0487
N1840 X4.5872 Y3.5298 Z-0.0488
N1845 X4.5823 Y3.5291 Z-0.049
N1850 X4.5799 Y3.5285 Z-0.0491
N1855 X4.5775 Y3.528 Z-0.0492
N1860 X4.5728 Y3.5265 Z-0.0493
N1865 X4.5682 Y3.5247 Z-0.0495
N1870 X4.5638 Y3.5225 Z-0.0497
N1875 X4.5596 Y3.52 Z-0.0499
N1880 X4.5556 Y3.5171 Z-0.05
N1885 X4.5518 Y3.5139 Z-0.0502
N1890 X4.5483 Y3.5105 Z-0.0504
N1895 X4.5451 Y3.5067 Z-0.0505
N1900 X4.5423 Y3.5027 Z-0.0507
N1905 X4.5397 Y3.4985 Z-0.0509
N1910 X4.5375 Y3.4941 Z-0.0511
N1915 X4.5356 Y3.4895 Z-0.0512
N1920 X4.5342 Y3.4848 Z-0.0514
N1925 X4.5331 Y3.48 Z-0.0516
N1930 X4.5324 Y3.4752 Z-0.0517
N1935 X4.5321 Y3.4702 Z-0.0519
N1940 Y3.4653 Z-0.0521
N1945 X4.5326 Y3.4604 Z-0.0523
N1950 X4.5335 Y3.4556 Z-0.0524
N1955 X4.5348 Y3.4508 Z-0.0526
N1960 X4.5364 Y3.4462 Z-0.0528
N1965 X4.5384 Y3.4417 Z-0.0529
N1970 X4.5408 Y3.4373 Z-0.0531
N1975 X4.5435 Y3.4332 Z-0.0533
N1980 X4.5465 Y3.4293 Z-0.0535
N1985 X4.5499 Y3.4257 Z-0.0536
N1990 X4.5535 Y3.4224 Z-0.0538
N1995 X4.5573 Y3.4193 Z-0.054
N2000 X4.5614 Y3.4166 Z-0.0541
N2005 X4.5657 Y3.4142 Z-0.0543
N2010 X4.5702 Y3.4122 Z-0.0545
N2015 X4.5749 Y3.4105 Z-0.0547
N2020 X4.5796 Y3.4092 Z-0.0548
N2025 X4.5845 Y3.4083 Z-0.055
N2030 X4.5894 Y3.4078 Z-0.0552
N2035 X4.5943 Y3.4077 Z-0.0554
N2040 X4.5992 Y3.408 Z-0.0555
N2045 X4.6041 Y3.4087 Z-0.0557
N2050 X4.6089 Y3.4097 Z-0.0559
N2055 X4.6136 Y3.4112 Z-0.056
N2060 X4.6182 Y3.413 Z-0.0562
N2065 X4.6226 Y3.4152 Z-0.0564
N2070 X4.6268 Y3.4177 Z-0.0566
N2075 X4.6308 Y3.4206 Z-0.0567
N2080 X4.6346 Y3.4238 Z-0.0569
N2085 X4.638 Y3.4273 Z-0.0571
N2090 X4.6412 Y3.431 Z-0.0572
N2095 X4.6441 Y3.435 Z-0.0574
N2100 X4.6467 Y3.4392 Z-0.0576
N2105 X4.6479 Y3.4414 Z-0.0577
N2110 X4.6489 Y3.4436 Z-0.0578
N2115 X4.6499 Y3.4459
N2120 X4.6508 Y3.4482 Z-0.0579
N2125 X4.6522 Y3.4529 Z-0.0581
N2130 X4.6533 Y3.4577 Z-0.0583
N2135 X4.654 Y3.4625 Z-0.0584
N2140 X4.6542 Y3.465 Z-0.0585
N2145 X4.6543 Y3.4675 Z-0.0586
N2150 X4.6542 Y3.4724 Z-0.0588
N2155 X4.654 Y3.4748 Z-0.0589
N2160 X4.6538 Y3.4773 Z-0.059
N2165 X4.6529 Y3.4821 Z-0.0591
N2170 X4.6516 Y3.4869 Z-0.0593
N2175 X4.65 Y3.4915 Z-0.0595
N2180 X4.648 Y3.496 Z-0.0596
N2185 X4.6456 Y3.5004 Z-0.0598
N2190 X4.645 Y3.5014 Z-0.0599
N2195 X4.6443 Y3.5024
N2200 X4.6429 Y3.5045 Z-0.06
N2205 X4.6414 Y3.5064 Z-0.0601
N2210 X4.6399 Y3.5083 Z-0.0602
N2215 X4.6382 Y3.5102
N2220 X4.6365 Y3.512 Z-0.0603
N2225 X4.6348 Y3.5137 Z-0.0604
N2230 X4.6329 Y3.5153 Z-0.0605
N2235 X4.631 Y3.5169 Z-0.0606
N2240 X4.6291 Y3.5184 Z-0.0607
N2245 X4.625 Y3.5211 Z-0.0608
N2250 X4.6228 Y3.5223 Z-0.0609
N2255 X4.6207 Y3.5235 Z-0.061
N2260 X4.6184 Y3.5245 Z-0.0611
N2265 X4.6162 Y3.5255 Z-0.0612
N2270 X4.6139 Y3.5264 Z-0.0613
N2275 X4.6115 Y3.5272 Z-0.0614
N2280 X4.6092 Y3.5279
N2285 X4.6068 Y3.5285 Z-0.0615
N2290 X4.6019 Y3.5293 Z-0.0617
N2295 X4.5995 Y3.5296 Z-0.0618
N2300 X4.597 Y3.5298 Z-0.0619
N2305 X4.5946 Y3.53 Z-0.062
N2310 X4.5921 Z-0.0621
N2315 X4.5897 Y3.5299
N2320 X4.5872 Y3.5297 Z-0.0622
N2325 X4.5848 Y3.5294 Z-0.0623
N2330 X4.5823 Y3.529 Z-0.0624
N2335 X4.5775 Y3.5279 Z-0.0626
N2340 X4.5752 Y3.5272 Z-0.0627
N2345 X4.5728 Y3.5265
N2350 X4.5705 Y3.5256 Z-0.0628
N2355 X4.5683 Y3.5246 Z-0.0629
N2360 X4.566 Y3.5236 Z-0.063
N2365 X4.5639 Y3.5224 Z-0.0631
N2370 X4.5596 Y3.5199 Z-0.0633
N2375 X4.5576 Y3.5185
N2380 X4.5556 Y3.517 Z-0.0634
N2385 X4.5537 Y3.5155 Z-0.0635
N2390 X4.5519 Y3.5139 Z-0.0636
N2395 X4.5501 Y3.5122 Z-0.0637
N2400 X4.5484 Y3.5104 Z-0.0638
N2405 X4.5468 Y3.5086 Z-0.0639
N2410 X4.5452 Y3.5067
N2415 X4.5423 Y3.5027 Z-0.0641
N2420 X4.541 Y3.5006 Z-0.0642
N2425 X4.5398 Y3.4985 Z-0.0643
N2430 X4.5386 Y3.4963 Z-0.0644
N2435 X4.5376 Y3.4941 Z-0.0645
N2440 X4.5366 Y3.4918
N2445 X4.5357 Y3.4895 Z-0.0646
N2450 X4.5349 Y3.4872 Z-0.0647
N2455 X4.5342 Y3.4848 Z-0.0648
N2460 X4.5331 Y3.48 Z-0.065
N2465 X4.5327 Y3.4776 Z-0.0651
N2470 X4.5324 Y3.4751
N2475 X4.5322 Y3.4727 Z-0.0652
N2480 X4.5321 Y3.4702 Z-0.0653
N2485 Y3.4678 Z-0.0654
N2490 X4.5322 Y3.4653 Z-0.0655
N2495 X4.5324 Y3.4629 Z-0.0656
N2500 X4.5327 Y3.4604 Z-0.0657
N2505 X4.5336 Y3.4556 Z-0.0658
N2510 X4.5342 Y3.4532 Z-0.0659
N2515 X4.5349 Y3.4508 Z-0.066
N2520 X4.5356 Y3.4485 Z-0.0661
N2525 X4.5365 Y3.4462 Z-0.0662
N2530 X4.5375 Y3.4439 Z-0.0663
N2535 X4.5385 Y3.4417
N2540 X4.5396 Y3.4395 Z-0.0664
N2545 X4.5409 Y3.4374 Z-0.0665
N2550 X4.5436 Y3.4333 Z-0.0667
N2555 X4.545 Y3.4313 Z-0.0668
N2560 X4.5466 Y3.4294 Z-0.0669
N2565 X4.5482 Y3.4276
N2570 X4.5499 Y3.4258 Z-0.067
N2575 X4.5517 Y3.4241 Z-0.0671
N2580 X4.5535 Y3.4224 Z-0.0672
N2585 X4.5554 Y3.4209 Z-0.0673
N2590 X4.5574 Y3.4194 Z-0.0674
N2595 X4.5615 Y3.4167 Z-0.0675
N2600 X4.5636 Y3.4154 Z-0.0676
N2605 X4.5658 Y3.4143 Z-0.0677
N2610 X4.568 Y3.4132 Z-0.0678
N2615 X4.5703 Y3.4123 Z-0.0679
N2620 X4.5726 Y3.4114 Z-0.068
N2625 X4.5749 Y3.4106 Z-0.0681
N2630 X4.5773 Y3.4099
N2635 X4.5796 Y3.4093 Z-0.0682
N2640 X4.5845 Y3.4084 Z-0.0684
N2645 X4.5869 Y3.4081 Z-0.0685
N2650 X4.5894 Y3.4079 Z-0.0686
N2655 X4.5918 Y3.4078 Z-0.0687
N2660 X4.5943
N2665 X4.5967 Y3.4079 Z-0.0688
N2670 X4.5992 Y3.4081 Z-0.0689
N2675 X4.6041 Y3.4088 Z-0.0691
N2680 X4.6065 Y3.4093 Z-0.0692
N2685 X4.6089 Y3.4098 Z-0.0693
N2690 X4.6112 Y3.4105
N2695 X4.6136 Y3.4113 Z-0.0694
N2700 X4.6159 Y3.4122 Z-0.0695
N2705 X4.6181 Y3.4131 Z-0.0696
N2710 X4.6203 Y3.4142 Z-0.0697
N2715 X4.6225 Y3.4153 Z-0.0698
N2720 X4.6267 Y3.4178 Z-0.0699
N2725 X4.6288 Y3.4192 Z-0.07
N2730 X4.6307 Y3.4207 Z-0.0701
N2735 X4.6326 Y3.4223 Z-0.0702
N2740 X4.6345 Y3.4239 Z-0.0703
N2745 X4.6363 Y3.4256 Z-0.0704
N2750 X4.638 Y3.4273 Z-0.0705
N2755 X4.6396 Y3.4292
N2760 X4.6412 Y3.4311 Z-0.0706
N2765 X4.644 Y3.4351 Z-0.0708
N2770 X4.6454 Y3.4371 Z-0.0709
N2775 X4.6466 Y3.4393 Z-0.071
N2780 X4.6477 Y3.4414 Z-0.0711
N2785 X4.6488 Y3.4437
N2790 X4.6498 Y3.4459 Z-0.0712
N2795 X4.6506 Y3.4482 Z-0.0713
N2800 X4.6514 Y3.4505 Z-0.0714
N2805 X4.6521 Y3.4529 Z-0.0715
N2810 X4.6532 Y3.4577 Z-0.0717
N2815 X4.6536 Y3.4601
N2820 X4.6539 Y3.4626 Z-0.0718
N2825 X4.6542 Y3.4675 Z-0.072
N2830 X4.6541 Y3.4724 Z-0.0722
N2835 X4.6539 Y3.4748 Z-0.0723
N2840 X4.6536 Y3.4773
N2845 X4.6527 Y3.4821 Z-0.0725
N2850 X4.6515 Y3.4868 Z-0.0727
N2855 X4.6498 Y3.4915 Z-0.0729
N2860 X4.6478 Y3.496 Z-0.073
N2865 X4.6455 Y3.5003 Z-0.0732
N2870 X4.6449 Y3.5013
N2875 X4.6442 Y3.5024 Z-0.0733
N2880 X4.6428 Y3.5044 Z-0.0734
N2885 X4.6413 Y3.5064 Z-0.0735
N2890 X4.6398 Y3.5083
N2895 X4.6381 Y3.5101 Z-0.0736
N2900 X4.6364 Y3.5119 Z-0.0737
N2905 X4.6347 Y3.5136 Z-0.0738
N2910 X4.6328 Y3.5152 Z-0.0739
N2915 X4.631 Y3.5168 Z-0.074
N2920 X4.629 Y3.5183 Z-0.0741
N2925 X4.6249 Y3.521 Z-0.0742
N2930 X4.6228 Y3.5222 Z-0.0743
N2935 X4.6206 Y3.5234 Z-0.0744
N2940 X4.6184 Y3.5244 Z-0.0745
N2945 X4.6161 Y3.5254 Z-0.0746
N2950 X4.6138 Y3.5263 Z-0.0747
N2955 X4.6115 Y3.527
N2960 X4.6091 Y3.5277 Z-0.0748
N2965 X4.6068 Y3.5283 Z-0.0749
N2970 X4.6019 Y3.5292 Z-0.0751
N2975 X4.5995 Y3.5295 Z-0.0752
N2980 X4.597 Y3.5297 Z-0.0753
N2985 X4.5946 Y3.5298
N2990 X4.5921 Z-0.0754
N2995 X4.5897 Y3.5297 Z-0.0755
N3000 X4.5872 Y3.5295 Z-0.0756
N3005 X4.5848 Y3.5293 Z-0.0757
N3010 X4.5824 Y3.5289 Z-0.0758
N3015 X4.5776 Y3.5278 Z-0.0759
N3020 X4.5752 Y3.5271 Z-0.076
N3025 X4.5729 Y3.5263 Z-0.0761
N3030 X4.5706 Y3.5255 Z-0.0762
N3035 X4.5683 Y3.5245 Z-0.0763
N3040 X4.5661 Y3.5235 Z-0.0764
N3045 X4.5639 Y3.5223 Z-0.0765
N3050 X4.5597 Y3.5198 Z-0.0766
N3055 X4.5577 Y3.5184 Z-0.0767
N3060 X4.5557 Y3.5169 Z-0.0768
N3065 X4.5538 Y3.5154 Z-0.0769
N3070 X4.552 Y3.5138 Z-0.077
N3075 X4.5502 Y3.5121 Z-0.0771
N3080 X4.5485 Y3.5103
N3085 X4.5469 Y3.5085 Z-0.0772
N3090 X4.5453 Y3.5066 Z-0.0773
N3095 X4.5424 Y3.5026 Z-0.0775
N3100 X4.5411 Y3.5005 Z-0.0776
N3105 X4.5399 Y3.4984 Z-0.0777
N3110 X4.5387 Y3.4962
N3115 X4.5377 Y3.494 Z-0.0778
N3120 X4.5367 Y3.4918 Z-0.0779
N3125 X4.5358 Y3.4895 Z-0.078
N3130 X4.535 Y3.4871 Z-0.0781
N3135 X4.5344 Y3.4848 Z-0.0782
N3140 X4.5333 Y3.48 Z-0.0783
N3145 X4.5329 Y3.4776 Z-0.0784
N3150 X4.5326 Y3.4751 Z-0.0785
N3155 X4.5323 Y3.4719 Z-0.0786
N3160 Y3.4703 Z-0.0787
N3165 X4.5322 Y3.4687
N3170 Y3.4685
N3175 X4.5323 Y3.4673 Z-0.0788
N3180 Y3.4661
N3185 X4.5325 Y3.4636 Z-0.0789
N3190 X4.5327 Y3.4612 Z-0.079
N3195 X4.5331 Y3.4588 Z-0.0791
N3200 X4.5336 Y3.4564 Z-0.0792
N3205 X4.5341 Y3.454 Z-0.0793
N3210 X4.5348 Y3.4516
N3215 X4.5355 Y3.4493 Z-0.0794
N3220 X4.5363 Y3.447 Z-0.0795
N3225 X4.5373 Y3.4447 Z-0.0796
N3230 X4.5394 Y3.4403 Z-0.0798
N3235 X4.5406 Y3.4381 Z-0.0799
N3240 X4.5419 Y3.436
N3245 X4.5432 Y3.434 Z-0.08
N3250 X4.5447 Y3.432 Z-0.0801
N3255 X4.5462 Y3.4301 Z-0.0802
N3260 X4.5478 Y3.4282 Z-0.0803
N3265 X4.5495 Y3.4264 Z-0.0804
N3270 X4.5512 Y3.4247 Z-0.0805
N3275 X4.5549 Y3.4215 Z-0.0806
N3280 X4.5568 Y3.4199 Z-0.0807
N3285 X4.5588 Y3.4185 Z-0.0808
N3290 X4.5609 Y3.4172 Z-0.0809
N3295 X4.563 Y3.4159 Z-0.081
N3300 X4.5652 Y3.4148 Z-0.0811
N3305 X4.5674 Y3.4137
N3310 X4.5696 Y3.4127 Z-0.0812
N3315 X4.5719 Y3.4118 Z-0.0813
N3320 X4.5765 Y3.4102 Z-0.0815
N3325 X4.5789 Y3.4096 Z-0.0816
N3330 X4.5813 Y3.4091 Z-0.0817
N3335 X4.5837 Y3.4087
N3340 X4.5862 Y3.4083 Z-0.0818
N3345 X4.5886 Y3.4081 Z-0.0819
N3350 X4.5911 Y3.408 Z-0.082
N3355 X4.5935 Y3.4079 Z-0.0821
N3360 X4.596 Y3.408 Z-0.0822
N3365 X4.6008 Y3.4084 Z-0.0823
N3370 X4.6033 Y3.4088 Z-0.0824
N3375 X4.6057 Y3.4092 Z-0.0825
N3380 X4.6081 Y3.4098 Z-0.0826
N3385 X4.6104 Y3.4104 Z-0.0827
N3390 X4.6128 Y3.4112 Z-0.0828
N3395 X4.6151 Y3.412
N3400 X4.6196 Y3.4139 Z-0.083
N3405 X4.6218 Y3.4151 Z-0.0831
N3410 X4.6239 Y3.4162 Z-0.0832
N3415 X4.626 Y3.4175 Z-0.0833
N3420 X4.6281 Y3.4189 Z-0.0834
N3425 X4.63 Y3.4203
N3430 X4.632 Y3.4219 Z-0.0835
N3435 X4.6338 Y3.4235 Z-0.0836
N3440 X4.6356 Y3.4251 Z-0.0837
N3445 X4.639 Y3.4287 Z-0.0839
N3450 X4.6406 Y3.4306 Z-0.084
N3455 X4.6421 Y3.4325
N3460 X4.6435 Y3.4345 Z-0.0841
N3465 X4.6448 Y3.4366 Z-0.0842
N3470 X4.6461 Y3.4387 Z-0.0843
N3475 X4.6473 Y3.4408 Z-0.0844
N3480 X4.6484 Y3.443 Z-0.0845
N3485 X4.6494 Y3.4452 Z-0.0846
N3490 X4.6511 Y3.4498 Z-0.0847
N3495 X4.6518 Y3.4522 Z-0.0848
N3500 X4.6524 Y3.4546 Z-0.0849
N3505 X4.6529 Y3.457 Z-0.085
N3510 X4.6534 Y3.4594 Z-0.0851
N3515 X4.6537 Y3.4618 Z-0.0852
N3520 X4.6539 Y3.4642
N3525 X4.6541 Y3.4667 Z-0.0853
N3530 Y3.4691 Z-0.0854
N3535 X4.6538 Y3.474 Z-0.0856
N3540 X4.6532 Y3.4789 Z-0.0858
N3545 X4.6522 Y3.4837 Z-0.0859
N3550 X4.6508 Y3.4884 Z-0.0861
N3555 X4.65 Y3.4907 Z-0.0862
N3560 X4.6491 Y3.493 Z-0.0863
N3565 X4.647 Y3.4974 Z-0.0864
N3570 X4.6445 Y3.5016 Z-0.0866
N3575 X4.6431 Y3.5037 Z-0.0867
N3580 X4.6417 Y3.5057 Z-0.0868
N3585 X4.6402 Y3.5076 Z-0.0869
N3590 X4.6386 Y3.5094 Z-0.087
N3595 X4.6369 Y3.5112
N3600 X4.6352 Y3.513 Z-0.0871
N3605 X4.6315 Y3.5162 Z-0.0873
N3610 X4.6295 Y3.5177 Z-0.0874
N3615 X4.6275 Y3.5191 Z-0.0875
N3620 X4.6255 Y3.5205 Z-0.0876
N3625 X4.6234 Y3.5217
N3630 X4.6212 Y3.5229 Z-0.0877
N3635 X4.619 Y3.524 Z-0.0878
N3640 X4.6168 Y3.525 Z-0.0879
N3645 X4.6145 Y3.5259 Z-0.088
N3650 X4.6098 Y3.5274 Z-0.0882
N3655 X4.6075 Y3.528
N3660 X4.6051 Y3.5285 Z-0.0883
N3665 X4.6027 Y3.529 Z-0.0884
N3670 X4.6002 Y3.5293 Z-0.0885
N3675 X4.5978 Y3.5295 Z-0.0886
N3680 X4.5954 Y3.5297 Z-0.0887
N3685 X4.5929 Z-0.0888
N3690 X4.5905
N3695 X4.5856 Y3.5292 Z-0.089
N3700 X4.5831 Y3.5289 Z-0.0891
N3705 X4.5807 Y3.5284 Z-0.0892
N3710 X4.5784 Y3.5279 Z-0.0893
N3715 X4.576 Y3.5272 Z-0.0894
N3720 X4.5737 Y3.5265
N3725 X4.5713 Y3.5256 Z-0.0895
N3730 X4.5691 Y3.5247 Z-0.0896
N3735 X4.5668 Y3.5237 Z-0.0897
N3740 X4.5625 Y3.5214 Z-0.0899
N3745 X4.5604 Y3.5201
N3750 X4.5584 Y3.5187 Z-0.09
N3755 X4.5564 Y3.5173 Z-0.0901
N3760 X4.5545 Y3.5158 Z-0.0902
N3765 X4.5526 Y3.5142 Z-0.0903
N3770 X4.5508 Y3.5125 Z-0.0904
N3775 X4.5475 Y3.509 Z-0.0905
N3780 X4.5459 Y3.5071 Z-0.0906
N3785 X4.5444 Y3.5052 Z-0.0907
N3790 X4.543 Y3.5032 Z-0.0908
N3795 X4.5416 Y3.5011 Z-0.0909
N3800 X4.5404 Y3.499 Z-0.091
N3805 X4.5392 Y3.4969 Z-0.0911
N3810 X4.5381 Y3.4947
N3815 X4.5371 Y3.4924 Z-0.0912
N3820 X4.5354 Y3.4878 Z-0.0914
N3825 X4.5347 Y3.4855 Z-0.0915
N3830 X4.5341 Y3.4831 Z-0.0916
N3835 X4.5335 Y3.4807 Z-0.0917
N3840 X4.5331 Y3.4783
N3845 X4.5328 Y3.4759 Z-0.0918
N3850 X4.5326 Y3.4734 Z-0.0919
N3855 X4.5324 Y3.471 Z-0.092
N3860 Y3.4685 Z-0.0921
N3865 X4.5326 Y3.4637 Z-0.0923
N3870 X4.5329 Y3.4612
N3875 X4.5332 Y3.4588 Z-0.0924
N3880 X4.5337 Y3.4564 Z-0.0925
N3885 X4.5342 Y3.454 Z-0.0926
N3890 X4.5349 Y3.4516 Z-0.0927
N3895 X4.5356 Y3.4493 Z-0.0928
N3900 X4.5364 Y3.447 Z-0.0929
N3905 X4.5374 Y3.4447
N3910 X4.5395 Y3.4403 Z-0.0931
N3915 X4.5407 Y3.4382 Z-0.0932
N3920 X4.542 Y3.4361 Z-0.0933
N3925 X4.5433 Y3.4341 Z-0.0934
N3930 X4.5448 Y3.4321 Z-0.0935
N3935 X4.5463 Y3.4302
N3940 X4.5479 Y3.4283 Z-0.0936
N3945 X4.5496 Y3.4265 Z-0.0937
N3950 X4.5513 Y3.4248 Z-0.0938
N3955 X4.555 Y3.4216 Z-0.094
N3960 X4.5569 Y3.4201 Z-0.0941
N3965 X4.5589 Y3.4186
N3970 X4.561 Y3.4173 Z-0.0942
N3975 X4.5631 Y3.416 Z-0.0943
N3980 X4.5652 Y3.4149 Z-0.0944
N3985 X4.5674 Y3.4138 Z-0.0945
N3990 X4.5697 Y3.4128 Z-0.0946
N3995 X4.5719 Y3.4119
N4000 X4.5766 Y3.4104 Z-0.0948
N4005 X4.5789 Y3.4097 Z-0.0949
N4010 X4.5813 Y3.4092 Z-0.095
N4015 X4.5837 Y3.4088 Z-0.0951
N4020 X4.5862 Y3.4085 Z-0.0952
N4025 X4.5886 Y3.4082
N4030 X4.5911 Y3.4081 Z-0.0953
N4035 X4.5935 Y3.408 Z-0.0954
N4040 X4.596 Y3.4081 Z-0.0955
N4045 X4.6008 Y3.4085 Z-0.0957
N4050 X4.6033 Y3.4089 Z-0.0958
N4055 X4.6057 Y3.4093
N4060 X4.608 Y3.4099 Z-0.0959
N4065 X4.6104 Y3.4105 Z-0.096
N4070 X4.6127 Y3.4113 Z-0.0961
N4075 X4.615 Y3.4121 Z-0.0962
N4080 X4.6195 Y3.4141 Z-0.0964
N4085 X4.6217 Y3.4152
N4090 X4.6239 Y3.4164 Z-0.0965
N4095 X4.6259 Y3.4176 Z-0.0966
N4100 X4.628 Y3.419 Z-0.0967
N4105 X4.63 Y3.4205 Z-0.0968
N4110 X4.6319 Y3.422 Z-0.0969
N4115 X4.6337 Y3.4236 Z-0.097
N4120 X4.6355 Y3.4252
N4125 X4.6389 Y3.4288 Z-0.0972
N4130 X4.6405 Y3.4306 Z-0.0973
N4135 X4.642 Y3.4326 Z-0.0974
N4140 X4.6434 Y3.4346 Z-0.0975
N4145 X4.6447 Y3.4366 Z-0.0976
N4150 X4.646 Y3.4387
N4155 X4.6471 Y3.4409 Z-0.0977
N4160 X4.6482 Y3.4431 Z-0.0978
N4165 X4.6492 Y3.4453 Z-0.0979
N4170 X4.6509 Y3.4499 Z-0.0981
N4175 X4.6516 Y3.4522
N4180 X4.6523 Y3.4546 Z-0.0982
N4185 X4.6528 Y3.457 Z-0.0983
N4190 X4.6532 Y3.4594 Z-0.0984
N4195 X4.6535 Y3.4618 Z-0.0985
N4200 X4.6538 Y3.4643 Z-0.0986
N4205 X4.6539 Y3.4667 Z-0.0987
N4210 Y3.4691
N4215 X4.6537 Y3.474 Z-0.0989
N4220 X4.6531 Y3.4789 Z-0.0991
N4225 X4.6521 Y3.4837 Z-0.0993
N4230 X4.6507 Y3.4884 Z-0.0994
N4235 X4.6498 Y3.4906 Z-0.0995
N4240 X4.6489 Y3.4929 Z-0.0996
N4245 X4.6468 Y3.4973 Z-0.0998
N4250 X4.6444 Y3.5015 Z-0.0999
N4255 X4.643 Y3.5036 Z-0.1
N4260 X4.6416 Y3.5056 Z-0.1001
N4265 X4.64 Y3.5075 Z-0.1002
N4270 X4.6384 Y3.5093 Z-0.1003
N4275 X4.6368 Y3.5111 Z-0.1004
N4280 X4.635 Y3.5128
N4285 X4.6314 Y3.5161 Z-0.1006
N4290 X4.6294 Y3.5176 Z-0.1007
N4295 X4.6274 Y3.519 Z-0.1008
N4300 X4.6254 Y3.5203 Z-0.1009
N4305 X4.6233 Y3.5216 Z-0.101
N4310 X4.6211 Y3.5227
N4315 X4.6189 Y3.5238 Z-0.1011
N4320 X4.6167 Y3.5248 Z-0.1012
N4325 X4.6144 Y3.5257 Z-0.1013
N4330 X4.6098 Y3.5272 Z-0.1015
N4335 X4.6074 Y3.5278 Z-0.1016
N4340 X4.605 Y3.5284
N4345 X4.6026 Y3.5288 Z-0.1017
N4350 X4.6002 Y3.5291 Z-0.1018
N4355 X4.5978 Y3.5293 Z-0.1019
N4360 X4.5954 Y3.5295 Z-0.102
N4365 X4.5929 Z-0.1021
N4370 X4.5905 Z-0.1022
N4375 X4.5856 Y3.529 Z-0.1023
N4380 X4.5832 Y3.5287 Z-0.1024
N4385 X4.5808 Y3.5282 Z-0.1025
N4390 X4.5784 Y3.5277 Z-0.1026
N4395 X4.576 Y3.527 Z-0.1027
N4400 X4.5737 Y3.5263 Z-0.1028
N4405 X4.5714 Y3.5255
N4410 X4.5691 Y3.5245 Z-0.1029
N4415 X4.5669 Y3.5235 Z-0.103
N4420 X4.5626 Y3.5212 Z-0.1032
N4425 X4.5605 Y3.5199 Z-0.1033
N4430 X4.5585 Y3.5186
N4435 X4.5565 Y3.5171 Z-0.1034
N4440 X4.5546 Y3.5156 Z-0.1035
N4445 X4.5528 Y3.514 Z-0.1036
N4450 X4.551 Y3.5124 Z-0.1037
N4455 X4.5476 Y3.5088 Z-0.1039
N4460 X4.5461 Y3.507
N4465 X4.5446 Y3.505 Z-0.104
N4470 X4.5431 Y3.503 Z-0.1041
N4475 X4.5418 Y3.501 Z-0.1042
N4480 X4.5406 Y3.4989 Z-0.1043
N4485 X4.5394 Y3.4968 Z-0.1044
N4490 X4.5383 Y3.4946 Z-0.1045
N4495 X4.5373 Y3.4923
N4500 X4.5356 Y3.4878 Z-0.1047
N4505 X4.5349 Y3.4854 Z-0.1048
N4510 X4.5343 Y3.4831 Z-0.1049
N4515 X4.5338 Y3.4807 Z-0.105
N4520 X4.5333 Y3.4783 Z-0.1051
N4525 X4.533 Y3.4759
N4530 X4.5328 Y3.4734 Z-0.1052
N4535 X4.5326 Y3.471 Z-0.1053
N4540 Y3.4685 Z-0.1054
N4545 X4.5328 Y3.4637 Z-0.1056
N4550 X4.5331 Y3.4612
N4555 X4.5334 Y3.4588 Z-0.1057
N4560 X4.5339 Y3.4564 Z-0.1058
N4565 X4.5345 Y3.4541 Z-0.1059
N4570 X4.5351 Y3.4517 Z-0.106
N4575 X4.5358 Y3.4494 Z-0.1061
N4580 X4.5367 Y3.4471 Z-0.1062
N4585 X4.5376 Y3.4448
N4590 X4.5397 Y3.4404 Z-0.1064
N4595 X4.5409 Y3.4383 Z-0.1065
N4600 X4.5422 Y3.4362 Z-0.1066
N4605 X4.5435 Y3.4342 Z-0.1067
N4610 X4.545 Y3.4322 Z-0.1068
N4615 X4.5465 Y3.4303
N4620 X4.5481 Y3.4285 Z-0.1069
N4625 X4.5497 Y3.4267 Z-0.107
N4630 X4.5515 Y3.425 Z-0.1071
N4635 X4.5551 Y3.4217 Z-0.1073
N4640 X4.5571 Y3.4203
N4645 X4.5591 Y3.4188 Z-0.1074
N4650 X4.5611 Y3.4175 Z-0.1075
N4655 X4.5632 Y3.4163 Z-0.1076
N4660 X4.5653 Y3.4151 Z-0.1077
N4665 X4.5675 Y3.414 Z-0.1078
N4670 X4.5697 Y3.413 Z-0.1079
N4675 X4.572 Y3.4121
N4680 X4.5766 Y3.4106 Z-0.1081
N4685 X4.579 Y3.41 Z-0.1082
N4690 X4.5814 Y3.4095 Z-0.1083
N4695 X4.5838 Y3.409 Z-0.1084
N4700 X4.5862 Y3.4087 Z-0.1085
N4705 X4.5886 Y3.4085
N4710 X4.5911 Y3.4084 Z-0.1086
N4715 X4.5935 Y3.4083 Z-0.1087
N4720 X4.5959 Y3.4084 Z-0.1088
N4725 X4.6008 Y3.4088 Z-0.109
N4730 X4.6032 Y3.4092 Z-0.1091
N4735 X4.6056 Y3.4096
N4740 X4.608 Y3.4102 Z-0.1092
N4745 X4.6103 Y3.4108 Z-0.1093
N4750 X4.6127 Y3.4115 Z-0.1094
N4755 X4.6149 Y3.4124 Z-0.1095
N4760 X4.6194 Y3.4143 Z-0.1096
N4765 X4.6216 Y3.4154 Z-0.1097
N4770 X4.6237 Y3.4166 Z-0.1098
N4775 X4.6258 Y3.4179 Z-0.1099
N4780 X4.6278 Y3.4192 Z-0.11
N4785 X4.6298 Y3.4207 Z-0.1101
N4790 X4.6317 Y3.4222 Z-0.1102
N4795 X4.6336 Y3.4238
N4800 X4.6353 Y3.4254 Z-0.1103
N4805 X4.6387 Y3.4289 Z-0.1105
N4810 X4.6403 Y3.4308 Z-0.1106
N4815 X4.6417 Y3.4327 Z-0.1107
N4820 X4.6432 Y3.4347 Z-0.1108
N4825 X4.6445 Y3.4368
N4830 X4.6457 Y3.4389 Z-0.1109
N4835 X4.6469 Y3.441 Z-0.111
N4840 X4.648 Y3.4432 Z-0.1111
N4845 X4.649 Y3.4454 Z-0.1112
N4850 X4.6507 Y3.45 Z-0.1113
N4855 X4.6514 Y3.4523 Z-0.1114
N4860 X4.652 Y3.4547 Z-0.1115
N4865 X4.6525 Y3.457 Z-0.1116
N4870 X4.6529 Y3.4594 Z-0.1117
N4875 X4.6533 Y3.4619 Z-0.1118
N4880 X4.6535 Y3.4643 Z-0.1119
N4885 X4.6537 Y3.4667
N4890 Y3.4691 Z-0.112
N4895 X4.6534 Y3.474 Z-0.1122
N4900 X4.6528 Y3.4788 Z-0.1124
N4905 X4.6518 Y3.4836 Z-0.1125
N4910 X4.6504 Y3.4883 Z-0.1127
N4915 X4.6496 Y3.4906 Z-0.1128
N4920 X4.6487 Y3.4928 Z-0.1129
N4925 X4.6466 Y3.4972 Z-0.113
N4930 X4.6441 Y3.5014 Z-0.1132
N4935 X4.6428 Y3.5034 Z-0.1133
N4940 X4.6413 Y3.5054 Z-0.1134
N4945 X4.6398 Y3.5073 Z-0.1135
N4950 X4.6382 Y3.5092 Z-0.1136
N4955 X4.6366 Y3.5109
N4960 X4.6349 Y3.5127 Z-0.1137
N4965 X4.6312 Y3.5159 Z-0.1139
N4970 X4.6293 Y3.5173 Z-0.114
N4975 X4.6273 Y3.5188 Z-0.1141
N4980 X4.6252 Y3.5201 Z-0.1142
N4985 X4.6232 Y3.5213
N4990 X4.621 Y3.5225 Z-0.1143
N4995 X4.6188 Y3.5236 Z-0.1144
N5000 X4.6166 Y3.5246 Z-0.1145
N5005 X4.6143 Y3.5255 Z-0.1146
N5010 X4.6097 Y3.527 Z-0.1147
N5015 X4.6074 Y3.5276 Z-0.1148
N5020 X4.605 Y3.5281 Z-0.1149
N5025 X4.6026 Y3.5285 Z-0.115
N5030 X4.6002 Y3.5289 Z-0.1151
N5035 X4.5978 Y3.5291 Z-0.1152
N5040 X4.5953 Y3.5292 Z-0.1153
N5045 X4.5929 Y3.5293
N5050 X4.5905 Y3.5292 Z-0.1154
N5055 X4.5856 Y3.5288 Z-0.1156
N5060 X4.5832 Y3.5284 Z-0.1157
N5065 X4.5808 Y3.528 Z-0.1158
N5070 X4.5785 Y3.5274
N5075 X4.5761 Y3.5268 Z-0.1159
N5080 X4.5738 Y3.526 Z-0.116
N5085 X4.5715 Y3.5252 Z-0.1161
N5090 X4.5693 Y3.5243 Z-0.1162
N5095 X4.567 Y3.5233 Z-0.1163
N5100 X4.5628 Y3.521 Z-0.1164
N5105 X4.5607 Y3.5197 Z-0.1165
N5110 X4.5587 Y3.5184 Z-0.1166
N5115 X4.5567 Y3.5169 Z-0.1167
N5120 X4.5548 Y3.5154 Z-0.1168
N5125 X4.5529 Y3.5138 Z-0.1169
N5130 X4.5512 Y3.5122 Z-0.117
N5135 X4.5478 Y3.5087 Z-0.1171
N5140 X4.5463 Y3.5068 Z-0.1172
N5145 X4.5448 Y3.5049 Z-0.1173
N5150 X4.5434 Y3.5029 Z-0.1174
N5155 X4.542 Y3.5009 Z-0.1175
N5160 X4.5408 Y3.4988
N5165 X4.5396 Y3.4966 Z-0.1176
N5170 X4.5386 Y3.4945 Z-0.1177
N5175 X4.5376 Y3.4922 Z-0.1178
N5180 X4.5359 Y3.4877 Z-0.118
N5185 X4.5353 Y3.4858
N5190 X4.5347 Y3.4838 Z-0.1181
N5195 Y3.4836
N5200 X4.5344 Y3.4824 Z-0.1182
N5205 X4.5341 Y3.4812
N5210 X4.5337 Y3.4787 Z-0.1183
N5215 X4.5333 Y3.4763 Z-0.1184
N5220 X4.5331 Y3.4738 Z-0.1185
N5225 X4.5329 Y3.4713
N5230 Y3.4688 Z-0.1186
N5235 X4.5331 Y3.4638 Z-0.1188
N5240 X4.5333 Y3.4613 Z-0.1189
N5245 X4.5337 Y3.4589 Z-0.119
N5250 X4.5342 Y3.4564 Z-0.1191
N5255 X4.5347 Y3.454 Z-0.1192
N5260 X4.5354 Y3.4516
N5265 X4.5362 Y3.4492 Z-0.1193
N5270 X4.537 Y3.4469 Z-0.1194
N5275 X4.538 Y3.4446 Z-0.1195
N5280 X4.539 Y3.4423 Z-0.1196
N5285 X4.5402 Y3.4401 Z-0.1197
N5290 X4.5427 Y3.4358 Z-0.1199
N5295 X4.5441 Y3.4338
N5300 X4.5456 Y3.4318 Z-0.12
N5305 X4.5472 Y3.4298 Z-0.1201
N5310 X4.5489 Y3.428 Z-0.1202
N5315 X4.5506 Y3.4262 Z-0.1203
N5320 X4.5524 Y3.4244 Z-0.1204
N5325 X4.5543 Y3.4228 Z-0.1205
N5330 X4.5562 Y3.4212
N5335 X4.5582 Y3.4197 Z-0.1206
N5340 X4.5603 Y3.4183 Z-0.1207
N5345 X4.5646 Y3.4158 Z-0.1209
N5350 X4.5668 Y3.4147 Z-0.121
N5355 X4.569 Y3.4136 Z-0.1211
N5360 X4.5713 Y3.4127 Z-0.1212
N5365 X4.5737 Y3.4118
N5370 X4.5761 Y3.4111 Z-0.1213
N5375 X4.5785 Y3.4104 Z-0.1214
N5380 X4.5809 Y3.4098 Z-0.1215
N5385 X4.5833 Y3.4094 Z-0.1216
N5390 X4.5858 Y3.409 Z-0.1217
N5395 X4.5883 Y3.4088 Z-0.1218
N5400 X4.5908 Y3.4086
N5405 X4.5933 Z-0.1219
N5410 X4.5982 Y3.4088 Z-0.1221
N5415 X4.6007 Y3.409 Z-0.1222
N5420 X4.6032 Y3.4094 Z-0.1223
N5425 X4.6056 Y3.4099 Z-0.1224
N5430 X4.608 Y3.4104 Z-0.1225
N5435 X4.6105 Y3.4111
N5440 X4.6128 Y3.4119 Z-0.1226
N5445 X4.6152 Y3.4127 Z-0.1227
N5450 X4.6175 Y3.4137 Z-0.1228
N5455 X4.6197 Y3.4147 Z-0.1229
N5460 X4.622 Y3.4159 Z-0.123
N5465 X4.6262 Y3.4184 Z-0.1232
N5470 X4.6283 Y3.4198
N5475 X4.6302 Y3.4213 Z-0.1233
N5480 X4.6322 Y3.4229 Z-0.1234
N5485 X4.634 Y3.4246 Z-0.1235
N5490 X4.6358 Y3.4263 Z-0.1236
N5495 X4.6376 Y3.4281 Z-0.1237
N5500 X4.6392 Y3.43 Z-0.1238
N5505 X4.6408 Y3.4319
N5510 X4.6423 Y3.4339 Z-0.1239
N5515 X4.6437 Y3.4359 Z-0.124
N5520 X4.6462 Y3.4402 Z-0.1242
N5525 X4.6473 Y3.4424 Z-0.1243
N5530 X4.6484 Y3.4447 Z-0.1244
N5535 X4.6493 Y3.447 Z-0.1245
N5540 X4.6502 Y3.4493
N5545 X4.6509 Y3.4517 Z-0.1246
N5550 X4.6516 Y3.4541 Z-0.1247
N5555 X4.6522 Y3.4565 Z-0.1248
N5560 X4.6526 Y3.459 Z-0.1249
N5565 X4.653 Y3.4615 Z-0.125
N5570 X4.6532 Y3.4639 Z-0.1251
N5575 X4.6534 Y3.4664 Z-0.1252
N5580 Y3.4689
N5585 X4.6532 Y3.4739 Z-0.1254
N5590 X4.6525 Y3.4788 Z-0.1256
N5595 X4.6515 Y3.4837 Z-0.1258
N5600 X4.6501 Y3.4885 Z-0.1259
N5605 X4.6492 Y3.4908 Z-0.126
N5610 X4.6483 Y3.4931 Z-0.1261
N5615 X4.6461 Y3.4975 Z-0.1263
N5620 X4.6436 Y3.5018 Z-0.1265
N5625 X4.6422 Y3.5039
N5630 X4.6407 Y3.5059 Z-0.1266
N5635 X4.6391 Y3.5078 Z-0.1267
N5640 X4.6374 Y3.5097 Z-0.1268
N5645 X4.6357 Y3.5114 Z-0.1269
N5650 X4.6339 Y3.5132 Z-0.127
N5655 X4.632 Y3.5148 Z-0.1271
N5660 X4.6301 Y3.5164
N5665 X4.6281 Y3.5179 Z-0.1272
N5670 X4.6261 Y3.5193 Z-0.1273
N5675 X4.6239 Y3.5206 Z-0.1274
N5680 X4.6218 Y3.5218 Z-0.1275
N5685 X4.6173 Y3.524 Z-0.1277
N5690 X4.615 Y3.5249 Z-0.1278
N5695 X4.6127 Y3.5258
N5700 X4.6103 Y3.5265 Z-0.1279
N5705 X4.6079 Y3.5272 Z-0.128
N5710 X4.6055 Y3.5277 Z-0.1281
N5715 X4.603 Y3.5282 Z-0.1282
N5720 X4.6006 Y3.5285 Z-0.1283
N5725 X4.5981 Y3.5288 Z-0.1284
N5730 X4.5956 Y3.529
N5735 X4.5932 Z-0.1285
N5740 X4.5882 Y3.5288 Z-0.1287
N5745 X4.5857 Y3.5285 Z-0.1288
N5750 X4.5832 Y3.5282 Z-0.1289
N5755 X4.5808 Y3.5277 Z-0.129
N5760 X4.5784 Y3.5271 Z-0.1291
N5765 X4.576 Y3.5265
N5770 X4.5736 Y3.5257 Z-0.1292
N5775 X4.5713 Y3.5248 Z-0.1293
N5780 X4.569 Y3.5239 Z-0.1294
N5785 X4.5667 Y3.5228 Z-0.1295
N5790 X4.5645 Y3.5217 Z-0.1296
N5795 X4.5603 Y3.5192 Z-0.1297
N5800 X4.5582 Y3.5178 Z-0.1298
N5805 X4.5563 Y3.5163 Z-0.1299
N5810 X4.5543 Y3.5147 Z-0.13
N5815 X4.5525 Y3.513 Z-0.1301
N5820 X4.5507 Y3.5113 Z-0.1302
N5825 X4.549 Y3.5095 Z-0.1303
N5830 X4.5473 Y3.5077 Z-0.1304
N5835 X4.5457 Y3.5057
N5840 X4.5443 Y3.5037 Z-0.1305
N5845 X4.5429 Y3.5017 Z-0.1306
N5850 X4.5403 Y3.4974 Z-0.1308
N5855 X4.5392 Y3.4952 Z-0.1309
N5860 X4.5381 Y3.4929 Z-0.131
N5865 X4.5372 Y3.4906
N5870 X4.5364 Y3.4883 Z-0.1311
N5875 X4.5356 Y3.486 Z-0.1312
N5880 X4.535 Y3.4836 Z-0.1313
N5885 X4.5344 Y3.4811 Z-0.1314
N5890 X4.5339 Y3.4787 Z-0.1315
N5895 X4.5336 Y3.4762 Z-0.1316
N5900 X4.5333 Y3.4738 Z-0.1317
N5905 X4.5332 Y3.4713
N5910 X4.5331 Y3.4688 Z-0.1318
N5915 X4.5333 Y3.4638 Z-0.132
N5920 X4.5336 Y3.4614 Z-0.1321
N5925 X4.534 Y3.4589 Z-0.1322
N5930 X4.5344 Y3.4565 Z-0.1323
N5935 X4.535 Y3.454
N5940 X4.5357 Y3.4517 Z-0.1324
N5945 X4.5364 Y3.4493 Z-0.1325
N5950 X4.5373 Y3.447 Z-0.1326
N5955 X4.5382 Y3.4447 Z-0.1327
N5960 X4.5393 Y3.4424 Z-0.1328
N5965 X4.5404 Y3.4402 Z-0.1329
N5970 X4.543 Y3.436 Z-0.133
N5975 X4.5444 Y3.4339 Z-0.1331
N5980 X4.5458 Y3.4319 Z-0.1332
N5985 X4.5474 Y3.43 Z-0.1333
N5990 X4.5491 Y3.4281 Z-0.1334
N5995 X4.5508 Y3.4264 Z-0.1335
N6000 X4.5526 Y3.4246 Z-0.1336
N6005 X4.5545 Y3.423
N6010 X4.5564 Y3.4214 Z-0.1337
N6015 X4.5584 Y3.42 Z-0.1338
N6020 X4.5604 Y3.4186 Z-0.1339
N6025 X4.5647 Y3.416 Z-0.1341
N6030 X4.5669 Y3.4149 Z-0.1342
N6035 X4.5691 Y3.4139 Z-0.1343
N6040 X4.5714 Y3.4129
N6045 X4.5738 Y3.4121 Z-0.1344
N6050 X4.5761 Y3.4113 Z-0.1345
N6055 X4.5785 Y3.4107 Z-0.1346
N6060 X4.5809 Y3.4101 Z-0.1347
N6065 X4.5834 Y3.4096 Z-0.1348
N6070 X4.5858 Y3.4093 Z-0.1349
N6075 X4.5883 Y3.409
N6080 X4.5908 Y3.4089 Z-0.135
N6085 X4.5933 Y3.4088 Z-0.1351
N6090 X4.5982 Y3.409 Z-0.1353
N6095 X4.6007 Y3.4093 Z-0.1354
N6100 X4.6031 Y3.4097 Z-0.1355
N6105 X4.6056 Y3.4101 Z-0.1356
N6110 X4.608 Y3.4107
N6115 X4.6104 Y3.4114 Z-0.1357
N6120 X4.6127 Y3.4121 Z-0.1358
N6125 X4.6151 Y3.413 Z-0.1359
N6130 X4.6174 Y3.4139 Z-0.136
N6135 X4.6196 Y3.415 Z-0.1361
N6140 X4.6218 Y3.4161 Z-0.1362
N6145 X4.6261 Y3.4187 Z-0.1363
N6150 X4.6281 Y3.4201 Z-0.1364
N6155 X4.6301 Y3.4215 Z-0.1365
N6160 X4.632 Y3.4231 Z-0.1366
N6165 X4.6339 Y3.4248 Z-0.1367
N6170 X4.6357 Y3.4265 Z-0.1368
N6175 X4.6374 Y3.4283
N6180 X4.639 Y3.4301 Z-0.1369
N6185 X4.6406 Y3.4321 Z-0.137
N6190 X4.642 Y3.434 Z-0.1371
N6195 X4.6434 Y3.4361 Z-0.1372
N6200 X4.646 Y3.4403 Z-0.1374
N6205 X4.6471 Y3.4426 Z-0.1375
N6210 X4.6481 Y3.4448
N6215 X4.6491 Y3.4471 Z-0.1376
N6220 X4.6499 Y3.4494 Z-0.1377
N6225 X4.6507 Y3.4518 Z-0.1378
N6230 X4.6513 Y3.4542 Z-0.1379
N6235 X4.6519 Y3.4566 Z-0.138
N6240 X4.6524 Y3.459 Z-0.1381
N6245 X4.6527 Y3.4615
N6250 X4.653 Y3.4639 Z-0.1382
N6255 X4.6531 Y3.4664 Z-0.1383
N6260 X4.6532 Y3.4689 Z-0.1384
N6265 X4.6529 Y3.4738 Z-0.1386
N6270 X4.6523 Y3.4788 Z-0.1387
N6275 X4.6513 Y3.4836 Z-0.1389
N6280 X4.6499 Y3.4884 Z-0.1391
N6285 X4.649 Y3.4907 Z-0.1392
N6290 X4.648 Y3.493 Z-0.1393
N6295 X4.6459 Y3.4974 Z-0.1394
N6300 X4.6434 Y3.5017 Z-0.1396
N6305 X4.6419 Y3.5037 Z-0.1397
N6310 X4.6405 Y3.5057 Z-0.1398
N6315 X4.6389 Y3.5076 Z-0.1399
N6320 X4.6372 Y3.5095 Z-0.14
N6325 X4.6355 Y3.5113
N6330 X4.6337 Y3.513 Z-0.1401
N6335 X4.6319 Y3.5146 Z-0.1402
N6340 X4.63 Y3.5162 Z-0.1403
N6345 X4.628 Y3.5176 Z-0.1404
N6350 X4.6259 Y3.519 Z-0.1405
N6355 X4.6238 Y3.5204 Z-0.1406
N6360 X4.6217 Y3.5216 Z-0.1407
N6365 X4.6172 Y3.5237 Z-0.1408
N6370 X4.6149 Y3.5247 Z-0.1409
N6375 X4.6126 Y3.5255 Z-0.141
N6380 X4.6102 Y3.5263 Z-0.1411
N6385 X4.6079 Y3.5269 Z-0.1412
N6390 X4.6054 Y3.5275 Z-0.1413
N6395 X4.603 Y3.5279
N6400 X4.6006 Y3.5283 Z-0.1414
N6405 X4.5981 Y3.5285 Z-0.1415
N6410 X4.5956 Y3.5287 Z-0.1416
N6415 X4.5932 Z-0.1417
N6420 X4.5882 Y3.5285 Z-0.1419
N6425 X4.5857 Y3.5283
N6430 X4.5833 Y3.5279 Z-0.142
N6435 X4.5809 Y3.5274 Z-0.1421
N6440 X4.5785 Y3.5269 Z-0.1422
N6445 X4.5761 Y3.5262 Z-0.1423
N6450 X4.5737 Y3.5255 Z-0.1424
N6455 X4.5714 Y3.5246 Z-0.1425
N6460 X4.5691 Y3.5237
N6465 X4.5669 Y3.5226 Z-0.1426
N6470 X4.5647 Y3.5215 Z-0.1427
N6475 X4.5604 Y3.5189 Z-0.1429
N6480 X4.5584 Y3.5175 Z-0.143
N6485 X4.5564 Y3.5161 Z-0.1431
N6490 X4.5545 Y3.5145 Z-0.1432
N6495 X4.5526 Y3.5129
N6500 X4.5509 Y3.5111 Z-0.1433
N6505 X4.5491 Y3.5093 Z-0.1434
N6510 X4.5475 Y3.5075 Z-0.1435
N6515 X4.546 Y3.5056 Z-0.1436
N6520 X4.5445 Y3.5036 Z-0.1437
N6525 X4.5431 Y3.5015 Z-0.1438
N6530 X4.5406 Y3.4973 Z-0.1439
N6535 X4.5394 Y3.4951 Z-0.144
N6540 X4.5384 Y3.4928 Z-0.1441
N6545 X4.5375 Y3.4905 Z-0.1442
N6550 X4.5366 Y3.4882 Z-0.1443
N6555 X4.5359 Y3.4859 Z-0.1444
N6560 X4.5352 Y3.4835
N6565 X4.5347 Y3.4811 Z-0.1445
N6570 X4.5342 Y3.4786 Z-0.1446
N6575 X4.5339 Y3.4762 Z-0.1447
N6580 X4.5336 Y3.4737 Z-0.1448
N6585 X4.5335 Y3.4713 Z-0.1449
N6590 X4.5334 Y3.4688 Z-0.145
N6595 X4.5336 Y3.4639 Z-0.1451
N6600 X4.5339 Y3.4614 Z-0.1452
N6605 X4.5342 Y3.459 Z-0.1453
N6610 X4.5347 Y3.4565 Z-0.1454
N6615 X4.5353 Y3.4541 Z-0.1455
N6620 X4.5359 Y3.4517 Z-0.1456
N6625 X4.5367 Y3.4494 Z-0.1457
N6630 X4.5375 Y3.4471
N6635 X4.5385 Y3.4448 Z-0.1458
N6640 X4.5395 Y3.4426 Z-0.1459
N6645 X4.5407 Y3.4404 Z-0.146
N6650 X4.5432 Y3.4361 Z-0.1462
N6655 X4.5446 Y3.4341 Z-0.1463
N6660 X4.5461 Y3.4321
N6665 X4.5476 Y3.4302 Z-0.1464
N6670 X4.5493 Y3.4283 Z-0.1465
N6675 X4.551 Y3.4266 Z-0.1466
N6680 X4.5528 Y3.4249 Z-0.1467
N6685 X4.5546 Y3.4232 Z-0.1468
N6690 X4.5566 Y3.4217 Z-0.1469
N6695 X4.5585 Y3.4202
N6700 X4.5606 Y3.4188 Z-0.147
N6705 X4.5648 Y3.4163 Z-0.1472
N6710 X4.567 Y3.4152 Z-0.1473
N6715 X4.5693 Y3.4141 Z-0.1474
N6720 X4.5715 Y3.4132 Z-0.1475
N6725 X4.5739 Y3.4124
N6730 X4.5762 Y3.4116 Z-0.1476
N6735 X4.5786 Y3.411 Z-0.1477
N6740 X4.581 Y3.4104 Z-0.1478
N6745 X4.5834 Y3.4099 Z-0.1479
N6750 X4.5859 Y3.4096 Z-0.148
N6755 X4.5883 Y3.4093 Z-0.1481
N6760 X4.5908 Y3.4092 Z-0.1482
N6765 X4.5933 Y3.4091
N6770 X4.5982 Y3.4094 Z-0.1484
N6775 X4.6006 Y3.4096 Z-0.1485
N6780 X4.6031 Y3.41 Z-0.1486
N6785 X4.6055 Y3.4104 Z-0.1487
N6790 X4.6079 Y3.411 Z-0.1488
N6795 X4.6103 Y3.4117
N6800 X4.6126 Y3.4124 Z-0.1489
N6805 X4.6149 Y3.4133 Z-0.149
N6810 X4.6172 Y3.4142 Z-0.1491
N6815 X4.6195 Y3.4153 Z-0.1492
N6820 X4.6217 Y3.4164 Z-0.1493
N6825 X4.6259 Y3.4189 Z-0.1494
N6830 X4.6279 Y3.4203 Z-0.1495
N6835 X4.6299 Y3.4218 Z-0.1496
N6840 X4.6318 Y3.4234 Z-0.1497
N6845 X4.6336 Y3.425 Z-0.1498
N6850 X4.6354 Y3.4267 Z-0.1499
N6855 X4.6371 Y3.4285 Z-0.15
N6860 X4.6388 Y3.4303
N6865 X4.6403 Y3.4323 Z-0.1501
N6870 X4.6418 Y3.4342 Z-0.1502
N6875 X4.6432 Y3.4363 Z-0.1503
N6880 X4.6457 Y3.4405 Z-0.1505
N6885 X4.6468 Y3.4427 Z-0.1506
N6890 X4.6478 Y3.4449
N6895 X4.6488 Y3.4472 Z-0.1507
N6900 X4.6496 Y3.4495 Z-0.1508
N6905 X4.6504 Y3.4519 Z-0.1509
N6910 X4.651 Y3.4543 Z-0.151
N6915 X4.6516 Y3.4567 Z-0.1511
N6920 X4.652 Y3.4591 Z-0.1512
N6925 X4.6524 Y3.4615
N6930 X4.6526 Y3.464 Z-0.1513
N6935 X4.6528 Y3.4664 Z-0.1514
N6940 Y3.4689 Z-0.1515
N6945 X4.6526 Y3.4738 Z-0.1517
N6950 X4.6519 Y3.4787 Z-0.1518
N6955 X4.6509 Y3.4835 Z-0.152
N6960 X4.6495 Y3.4882 Z-0.1522
N6965 X4.6487 Y3.4905 Z-0.1523
N6970 X4.6477 Y3.4928 Z-0.1524
N6975 X4.6455 Y3.4972 Z-0.1525
N6980 X4.6431 Y3.5015 Z-0.1527
N6985 X4.6417 Y3.5035 Z-0.1528
N6990 X4.6402 Y3.5055 Z-0.1529
N6995 X4.6386 Y3.5074 Z-0.153
N7000 X4.637 Y3.5092 Z-0.1531
N7005 X4.6353 Y3.511
N7010 X4.6335 Y3.5127 Z-0.1532
N7015 X4.6316 Y3.5143 Z-0.1533
N7020 X4.6297 Y3.5159 Z-0.1534
N7025 X4.6278 Y3.5173 Z-0.1535
N7030 X4.6257 Y3.5187 Z-0.1536
N7035 X4.6236 Y3.52 Z-0.1537
N7040 X4.6215 Y3.5213
N7045 X4.6171 Y3.5234 Z-0.1539
N7050 X4.6148 Y3.5243 Z-0.154
N7055 X4.6125 Y3.5252 Z-0.1541
N7060 X4.6101 Y3.5259 Z-0.1542
N7065 X4.6078 Y3.5266 Z-0.1543
N7070 X4.6054 Y3.5271
N7075 X4.6029 Y3.5276 Z-0.1544
N7080 X4.6005 Y3.5279 Z-0.1545
N7085 X4.5981 Y3.5282 Z-0.1546
N7090 X4.5956 Y3.5283 Z-0.1547
N7095 X4.5932 Y3.5284 Z-0.1548
N7100 X4.5882 Y3.5281 Z-0.1549
N7105 X4.5858 Y3.5279 Z-0.155
N7110 X4.5834 Y3.5275 Z-0.1551
N7115 X4.5809 Y3.5271 Z-0.1552
N7120 X4.5786 Y3.5265 Z-0.1553
N7125 X4.5762 Y3.5258 Z-0.1554
N7130 X4.5738 Y3.5251 Z-0.1555
N7135 X4.5715 Y3.5242
N7140 X4.5693 Y3.5233 Z-0.1556
N7145 X4.567 Y3.5223 Z-0.1557
N7150 X4.5649 Y3.5211 Z-0.1558
N7155 X4.5606 Y3.5186 Z-0.156
N7160 X4.5586 Y3.5172 Z-0.1561
N7165 X4.5566 Y3.5157
N7170 X4.5547 Y3.5142 Z-0.1562
N7175 X4.5529 Y3.5126 Z-0.1563
N7180 X4.5511 Y3.5109 Z-0.1564
N7185 X4.5494 Y3.5091 Z-0.1565
N7190 X4.5478 Y3.5072 Z-0.1566
N7195 X4.5463 Y3.5053 Z-0.1567
N7200 X4.5448 Y3.5034
N7205 X4.5434 Y3.5013 Z-0.1568
N7210 X4.5409 Y3.4971 Z-0.157
N7215 X4.5398 Y3.4949 Z-0.1571
N7220 X4.5388 Y3.4927 Z-0.1572
N7225 X4.5379 Y3.4906
N7230 X4.5371 Y3.4886 Z-0.1573
N7235 X4.5365 Y3.4865 Z-0.1574
N7240 X4.5358 Y3.4843 Z-0.1575
N7245 Y3.4841
N7250 X4.5355 Y3.4829
N7255 X4.5352 Y3.4817 Z-0.1576
N7260 X4.5347 Y3.4792 Z-0.1577
N7265 X4.5343 Y3.4767
N7270 X4.534 Y3.4742 Z-0.1578
N7275 X4.5338 Y3.4692 Z-0.158
N7280 Y3.4667 Z-0.1581
N7285 X4.534 Y3.4641 Z-0.1582
N7290 X4.5343 Y3.4616 Z-0.1583
N7295 X4.5346 Y3.4591 Z-0.1584
N7300 X4.5351 Y3.4566
N7305 X4.5357 Y3.4542 Z-0.1585
N7310 X4.5363 Y3.4518 Z-0.1586
N7315 X4.5371 Y3.4494 Z-0.1587
N7320 X4.538 Y3.447 Z-0.1588
N7325 X4.539 Y3.4447 Z-0.1589
N7330 X4.54 Y3.4424 Z-0.159
N7335 X4.5412 Y3.4402 Z-0.1591
N7340 X4.5425 Y3.438 Z-0.1592
N7345 X4.5438 Y3.4359
N7350 X4.5453 Y3.4338 Z-0.1593
N7355 X4.5468 Y3.4318 Z-0.1594
N7360 X4.5501 Y3.428 Z-0.1596
N7365 X4.5519 Y3.4262 Z-0.1597
N7370 X4.5537 Y3.4245 Z-0.1598
N7375 X4.5557 Y3.4229 Z-0.1599
N7380 X4.5576 Y3.4213
N7385 X4.5597 Y3.4199 Z-0.16
N7390 X4.5618 Y3.4185 Z-0.1601
N7395 X4.564 Y3.4172 Z-0.1602
N7400 X4.5662 Y3.416 Z-0.1603
N7405 X4.5685 Y3.4149 Z-0.1604
N7410 X4.5708 Y3.4139 Z-0.1605
N7415 X4.5731 Y3.413 Z-0.1606
N7420 X4.5755 Y3.4122
N7425 X4.578 Y3.4115 Z-0.1607
N7430 X4.5804 Y3.4109 Z-0.1608
N7435 X4.5829 Y3.4104 Z-0.1609
N7440 X4.5853 Y3.41 Z-0.161
N7445 X4.5904 Y3.4096 Z-0.1612
N7450 X4.5929 Y3.4095 Z-0.1613
N7455 X4.5954 Y3.4096
N7460 X4.5979 Y3.4097 Z-0.1614
N7465 X4.6004 Y3.41 Z-0.1615
N7470 X4.6029 Y3.4104 Z-0.1616
N7475 X4.6054 Y3.4108 Z-0.1617
N7480 X4.6078 Y3.4114 Z-0.1618
N7485 X4.6103 Y3.4121 Z-0.1619
N7490 X4.6127 Y3.4128 Z-0.162
N7495 X4.615 Y3.4137 Z-0.1621
N7500 X4.6173 Y3.4147
N7505 X4.6196 Y3.4158 Z-0.1622
N7510 X4.6218 Y3.4169 Z-0.1623
N7515 X4.624 Y3.4182 Z-0.1624
N7520 X4.6261 Y3.4196 Z-0.1625
N7525 X4.6282 Y3.421 Z-0.1626
N7530 X4.6321 Y3.4242 Z-0.1628
N7535 X4.634 Y3.4258
N7540 X4.6358 Y3.4276 Z-0.1629
N7545 X4.6375 Y3.4295 Z-0.163
N7550 X4.6391 Y3.4314 Z-0.1631
N7555 X4.6407 Y3.4334 Z-0.1632
N7560 X4.6421 Y3.4354 Z-0.1633
N7565 X4.6435 Y3.4375 Z-0.1634
N7570 X4.6448 Y3.4397 Z-0.1635
N7575 X4.646 Y3.4419
N7580 X4.647 Y3.4441 Z-0.1636
N7585 X4.648 Y3.4464 Z-0.1637
N7590 X4.6489 Y3.4488 Z-0.1638
N7595 X4.6497 Y3.4512 Z-0.1639
N7600 X4.6504 Y3.4536 Z-0.164
N7605 X4.651 Y3.4561 Z-0.1641
N7610 X4.6515 Y3.4585 Z-0.1642
N7615 X4.6522 Y3.4635 Z-0.1643
N7620 X4.6524 Y3.466 Z-0.1644
N7625 Y3.4673 Z-0.1645
N7630 Y3.4685
N7635 X4.6522 Y3.4736 Z-0.1647
N7640 X4.6516 Y3.4786 Z-0.1649
N7645 X4.6505 Y3.4834 Z-0.165
N7650 X4.6491 Y3.4882 Z-0.1652
N7655 X4.6482 Y3.4906 Z-0.1653
N7660 X4.6472 Y3.4929 Z-0.1654
N7665 X4.645 Y3.4974 Z-0.1656
N7670 X4.6438 Y3.4996
N7675 X4.6424 Y3.5017 Z-0.1657
N7680 X4.641 Y3.5038 Z-0.1658
N7685 X4.6394 Y3.5058 Z-0.1659
N7690 X4.6361 Y3.5096 Z-0.1661
N7695 X4.6344 Y3.5113 Z-0.1662
N7700 X4.6325 Y3.5131 Z-0.1663
N7705 X4.6306 Y3.5147
N7710 X4.6286 Y3.5162 Z-0.1664
N7715 X4.6266 Y3.5177 Z-0.1665
N7720 X4.6245 Y3.5191 Z-0.1666
N7725 X4.6223 Y3.5203 Z-0.1667
N7730 X4.6201 Y3.5215 Z-0.1668
N7735 X4.6179 Y3.5226 Z-0.1669
N7740 X4.6156 Y3.5236 Z-0.167
N7745 X4.6132 Y3.5245
N7750 X4.6108 Y3.5253 Z-0.1671
N7755 X4.6084 Y3.526 Z-0.1672
N7760 X4.606 Y3.5266 Z-0.1673
N7765 X4.6035 Y3.5271 Z-0.1674
N7770 X4.601 Y3.5275 Z-0.1675
N7775 X4.596 Y3.5279 Z-0.1677
N7780 X4.5935 Y3.528
N7785 X4.591 Y3.5279 Z-0.1678
N7790 X4.5885 Y3.5278 Z-0.1679
N7795 X4.586 Y3.5275 Z-0.168
N7800 X4.5835 Y3.5272 Z-0.1681
N7805 X4.5811 Y3.5267 Z-0.1682
N7810 X4.5786 Y3.5261 Z-0.1683
N7815 X4.5762 Y3.5254 Z-0.1684
N7820 X4.5738 Y3.5247
N7825 X4.5715 Y3.5238 Z-0.1685
N7830 X4.5691 Y3.5228 Z-0.1686
N7835 X4.5669 Y3.5217 Z-0.1687
N7840 X4.5647 Y3.5206 Z-0.1688
N7845 X4.5625 Y3.5193 Z-0.1689
N7850 X4.5604 Y3.518 Z-0.169
N7855 X4.5583 Y3.5165 Z-0.1691
N7860 X4.5544 Y3.5134 Z-0.1692
N7865 X4.5526 Y3.5117 Z-0.1693
N7870 X4.5508 Y3.5099 Z-0.1694
N7875 X4.5491 Y3.5081 Z-0.1695
N7880 X4.5475 Y3.5062 Z-0.1696
N7885 X4.5459 Y3.5042 Z-0.1697
N7890 X4.5445 Y3.5022 Z-0.1698
N7895 X4.5431 Y3.5001
N7900 X4.5418 Y3.4979 Z-0.1699
N7905 X4.5406 Y3.4957 Z-0.17
N7910 X4.5395 Y3.4934 Z-0.1701
N7915 X4.5385 Y3.4912 Z-0.1702
N7920 X4.5377 Y3.4888 Z-0.1703
N7925 X4.5369 Y3.4864 Z-0.1704
N7930 X4.5362 Y3.484 Z-0.1705
N7935 X4.5356 Y3.4816
N7940 X4.5351 Y3.4791 Z-0.1706
N7945 X4.5347 Y3.4767 Z-0.1707
N7950 X4.5344 Y3.4742 Z-0.1708
N7955 X4.5342 Y3.4692 Z-0.171
N7960 Y3.4667 Z-0.1711
N7965 X4.5344 Y3.4642 Z-0.1712
N7970 X4.5346 Y3.4617
N7975 X4.535 Y3.4592 Z-0.1713
N7980 X4.5355 Y3.4567 Z-0.1714
N7985 X4.536 Y3.4543 Z-0.1715
N7990 X4.5367 Y3.4519 Z-0.1716
N7995 X4.5375 Y3.4495 Z-0.1717
N8000 X4.5384 Y3.4472 Z-0.1718
N8005 X4.5393 Y3.4449 Z-0.1719
N8010 X4.5404 Y3.4426
N8015 X4.5416 Y3.4404 Z-0.172
N8020 X4.5428 Y3.4382 Z-0.1721
N8025 X4.5442 Y3.4361 Z-0.1722
N8030 X4.5456 Y3.434 Z-0.1723
N8035 X4.5471 Y3.4321 Z-0.1724
N8040 X4.5504 Y3.4283 Z-0.1726
N8045 X4.5522 Y3.4265
N8050 X4.554 Y3.4248 Z-0.1727
N8055 X4.5559 Y3.4232 Z-0.1728
N8060 X4.5579 Y3.4217 Z-0.1729
N8065 X4.5599 Y3.4202 Z-0.173
N8070 X4.562 Y3.4188 Z-0.1731
N8075 X4.5642 Y3.4176 Z-0.1732
N8080 X4.5664 Y3.4164 Z-0.1733
N8085 X4.5686 Y3.4153
N8090 X4.5709 Y3.4143 Z-0.1734
N8095 X4.5733 Y3.4134 Z-0.1735
N8100 X4.5757 Y3.4126 Z-0.1736
N8105 X4.5781 Y3.4119 Z-0.1737
N8110 X4.5805 Y3.4113 Z-0.1738
N8115 X4.5829 Y3.4108 Z-0.1739
N8120 X4.5854 Y3.4104 Z-0.174
N8125 X4.5904 Y3.41 Z-0.1741
N8130 X4.5929 Y3.4099 Z-0.1742
N8135 X4.5954 Y3.41 Z-0.1743
N8140 X4.5979 Y3.4101 Z-0.1744
N8145 X4.6004 Y3.4104 Z-0.1745
N8150 X4.6028 Y3.4107 Z-0.1746
N8155 X4.6053 Y3.4112
N8160 X4.6077 Y3.4118 Z-0.1747
N8165 X4.6101 Y3.4124 Z-0.1748
N8170 X4.6125 Y3.4132 Z-0.1749
N8175 X4.6149 Y3.4141 Z-0.175
N8180 X4.6172 Y3.4151 Z-0.1751
N8185 X4.6194 Y3.4161 Z-0.1752
N8190 X4.6217 Y3.4173 Z-0.1753
N8195 X4.6238 Y3.4185
N8200 X4.6259 Y3.4199 Z-0.1754
N8205 X4.628 Y3.4213 Z-0.1755
N8210 X4.6319 Y3.4244 Z-0.1757
N8215 X4.6337 Y3.4261 Z-0.1758
N8220 X4.6355 Y3.4279 Z-0.1759
N8225 X4.6372 Y3.4297 Z-0.176
N8230 X4.6388 Y3.4316
N8235 X4.6403 Y3.4336 Z-0.1761
N8240 X4.6418 Y3.4356 Z-0.1762
N8245 X4.6432 Y3.4377 Z-0.1763
N8250 X4.6444 Y3.4399 Z-0.1764
N8255 X4.6456 Y3.4421 Z-0.1765
N8260 X4.6467 Y3.4443 Z-0.1766
N8265 X4.6477 Y3.4466 Z-0.1767
N8270 X4.6486 Y3.4489
N8275 X4.6494 Y3.4513 Z-0.1768
N8280 X4.6501 Y3.4537 Z-0.1769
N8285 X4.6507 Y3.4561 Z-0.177
N8290 X4.6511 Y3.4586 Z-0.1771
N8295 X4.6518 Y3.4635 Z-0.1773
N8300 X4.652 Y3.466 Z-0.1774
N8305 X4.6521 Y3.4685
N8310 X4.652 Y3.471 Z-0.1775
N8315 X4.6518 Y3.4735 Z-0.1776
N8320 X4.6512 Y3.4785 Z-0.1778
N8325 X4.6502 Y3.4833 Z-0.178
N8330 X4.6488 Y3.4881 Z-0.1781
N8335 X4.6479 Y3.4905 Z-0.1782
N8340 X4.6469 Y3.4928 Z-0.1783
N8345 X4.6447 Y3.4972 Z-0.1785
N8350 X4.6434 Y3.4994 Z-0.1786
N8355 X4.6421 Y3.5015 Z-0.1787
N8360 X4.6407 Y3.5036
N8365 X4.6391 Y3.5055 Z-0.1788
N8370 X4.6359 Y3.5093 Z-0.179
N8375 X4.6341 Y3.5111 Z-0.1791
N8380 X4.6323 Y3.5128 Z-0.1792
N8385 X4.6304 Y3.5144 Z-0.1793
N8390 X4.6284 Y3.5159 Z-0.1794
N8395 X4.6264 Y3.5174
N8400 X4.6243 Y3.5187 Z-0.1795
N8405 X4.6221 Y3.52 Z-0.1796
N8410 X4.6199 Y3.5212 Z-0.1797
N8415 X4.6177 Y3.5223 Z-0.1798
N8420 X4.6154 Y3.5232 Z-0.1799
N8425 X4.6131 Y3.5241 Z-0.18
N8430 X4.6107 Y3.5249 Z-0.1801
N8435 X4.6083 Y3.5256
N8440 X4.6059 Y3.5262 Z-0.1802
N8445 X4.6034 Y3.5267 Z-0.1803
N8450 X4.601 Y3.5271 Z-0.1804
N8455 X4.596 Y3.5275 Z-0.1806
N8460 X4.5935 Y3.5276 Z-0.1807
N8465 X4.591 Y3.5275
N8470 X4.5885 Y3.5274 Z-0.1808
N8475 X4.5861 Y3.5271 Z-0.1809
N8480 X4.5836 Y3.5268 Z-0.181
N8485 X4.5811 Y3.5263 Z-0.1811
N8490 X4.5787 Y3.5257 Z-0.1812
N8495 X4.5763 Y3.5251 Z-0.1813
N8500 X4.574 Y3.5243 Z-0.1814
N8505 X4.5716 Y3.5234
N8510 X4.5693 Y3.5225 Z-0.1815
N8515 X4.5671 Y3.5214 Z-0.1816
N8520 X4.5649 Y3.5202 Z-0.1817
N8525 X4.5627 Y3.519 Z-0.1818
N8530 X4.5606 Y3.5177 Z-0.1819
N8535 X4.5586 Y3.5162 Z-0.182
N8540 X4.5547 Y3.5131 Z-0.1821
N8545 X4.5528 Y3.5114 Z-0.1822
N8550 X4.5511 Y3.5097 Z-0.1823
N8555 X4.5494 Y3.5078 Z-0.1824
N8560 X4.5478 Y3.506 Z-0.1825
N8565 X4.5462 Y3.504 Z-0.1826
N8570 X4.5448 Y3.502 Z-0.1827
N8575 X4.5434 Y3.4999
N8580 X4.5422 Y3.4977 Z-0.1828
N8585 X4.541 Y3.4955 Z-0.1829
N8590 X4.5399 Y3.4933 Z-0.183
N8595 X4.5389 Y3.491 Z-0.1831
N8600 X4.538 Y3.4887 Z-0.1832
N8605 X4.5372 Y3.4863 Z-0.1833
N8610 X4.5365 Y3.4839 Z-0.1834
N8615 X4.5359 Y3.4815
N8620 X4.5355 Y3.4791 Z-0.1835
N8625 X4.5351 Y3.4766 Z-0.1836
N8630 X4.5348 Y3.4741 Z-0.1837
N8635 X4.5346 Y3.4692 Z-0.1839
N8640 Y3.4667 Z-0.184
N8645 X4.5348 Y3.4642
N8650 X4.535 Y3.4617 Z-0.1841
N8655 X4.5354 Y3.4593 Z-0.1842
N8660 X4.5358 Y3.4568 Z-0.1843
N8665 X4.5364 Y3.4544 Z-0.1844
N8670 X4.5371 Y3.452 Z-0.1845
N8675 X4.5378 Y3.4496 Z-0.1846
N8680 X4.5387 Y3.4473 Z-0.1847
N8685 X4.5397 Y3.445
N8690 X4.5407 Y3.4428 Z-0.1848
N8695 X4.5419 Y3.4406 Z-0.1849
N8700 X4.5431 Y3.4384 Z-0.185
N8705 X4.5445 Y3.4363 Z-0.1851
N8710 X4.5459 Y3.4343 Z-0.1852
N8715 X4.5474 Y3.4323 Z-0.1853
N8720 X4.5507 Y3.4285 Z-0.1854
N8725 X4.5524 Y3.4268 Z-0.1855
N8730 X4.5543 Y3.4251 Z-0.1856
N8735 X4.5562 Y3.4235 Z-0.1857
N8740 X4.5581 Y3.422 Z-0.1858
N8745 X4.5601 Y3.4205 Z-0.1859
N8750 X4.5622 Y3.4192 Z-0.186
N8755 X4.5644 Y3.4179
N8760 X4.5666 Y3.4167 Z-0.1861
N8765 X4.5688 Y3.4156 Z-0.1862
N8770 X4.5711 Y3.4146 Z-0.1863
N8775 X4.5734 Y3.4138 Z-0.1864
N8780 X4.5758 Y3.413 Z-0.1865
N8785 X4.5781 Y3.4123 Z-0.1866
N8790 X4.5806 Y3.4117
N8795 X4.583 Y3.4112 Z-0.1867
N8800 X4.5855 Y3.4108 Z-0.1868
N8805 X4.5904 Y3.4104 Z-0.187
N8810 X4.5929 Y3.4103 Z-0.1871
N8815 X4.5954 Y3.4104 Z-0.1872
N8820 X4.5979 Y3.4105 Z-0.1873
N8825 X4.6003 Y3.4108
N8830 X4.6028 Y3.4111 Z-0.1874
N8835 X4.6052 Y3.4116 Z-0.1875
N8840 X4.6076 Y3.4121 Z-0.1876
N8845 X4.61 Y3.4128 Z-0.1877
N8850 X4.6124 Y3.4136 Z-0.1878
N8855 X4.6147 Y3.4144 Z-0.1879
N8860 X4.617 Y3.4154
N8865 X4.6193 Y3.4165 Z-0.188
N8870 X4.6215 Y3.4176 Z-0.1881
N8875 X4.6236 Y3.4189 Z-0.1882
N8880 X4.6257 Y3.4202 Z-0.1883
N8885 X4.6277 Y3.4216 Z-0.1884
N8890 X4.6316 Y3.4247 Z-0.1886
N8895 X4.6335 Y3.4264
N8900 X4.6352 Y3.4281 Z-0.1887
N8905 X4.6369 Y3.43 Z-0.1888
N8910 X4.6385 Y3.4319 Z-0.1889
N8915 X4.64 Y3.4338 Z-0.189
N8920 X4.6415 Y3.4358 Z-0.1891
N8925 X4.6428 Y3.4379 Z-0.1892
N8930 X4.6441 Y3.4401
N8935 X4.6453 Y3.4422 Z-0.1893
N8940 X4.6463 Y3.4445 Z-0.1894
N8945 X4.6473 Y3.4467 Z-0.1895
N8950 X4.6482 Y3.4491 Z-0.1896
N8955 X4.649 Y3.4514 Z-0.1897
N8960 X4.6497 Y3.4538 Z-0.1898
N8965 X4.6503 Y3.4562 Z-0.1899
N8970 X4.6508 Y3.4587
N8975 X4.6514 Y3.4636 Z-0.1901
N8980 X4.6516 Y3.466 Z-0.1902
N8985 Y3.4673
N8990 Y3.4685 Z-0.1903
N8995 X4.6514 Y3.4735 Z-0.1905
N9000 X4.6508 Y3.4784 Z-0.1906
N9005 X4.6498 Y3.4833 Z-0.1908
N9010 X4.6484 Y3.488 Z-0.191
N9015 X4.6475 Y3.4903 Z-0.1911
N9020 X4.6465 Y3.4926 Z-0.1912
N9025 X4.6443 Y3.497 Z-0.1913
N9030 X4.6431 Y3.4992 Z-0.1914
N9035 X4.6418 Y3.5013 Z-0.1915
N9040 X4.6403 Y3.5033 Z-0.1916
N9045 X4.6388 Y3.5053 Z-0.1917
N9050 X4.6356 Y3.509 Z-0.1918
N9055 X4.6338 Y3.5108 Z-0.1919
N9060 X4.632 Y3.5125 Z-0.192
N9065 X4.6301 Y3.5141 Z-0.1921
N9070 X4.6282 Y3.5156 Z-0.1922
N9075 X4.6261 Y3.517 Z-0.1923
N9080 X4.6241 Y3.5184 Z-0.1924
N9085 X4.6219 Y3.5196
N9090 X4.6198 Y3.5208 Z-0.1925
N9095 X4.6175 Y3.5219 Z-0.1926
N9100 X4.6153 Y3.5229 Z-0.1927
N9105 X4.6129 Y3.5238 Z-0.1928
N9110 X4.6106 Y3.5245 Z-0.1929
N9115 X4.6082 Y3.5252 Z-0.193
N9120 X4.6058 Y3.5258 Z-0.1931
N9125 X4.6034 Y3.5263
N9130 X4.6009 Y3.5267 Z-0.1932
N9135 X4.596 Y3.5271 Z-0.1934
N9140 X4.5935 Y3.5272 Z-0.1935
N9145 X4.591 Y3.5271 Z-0.1936
N9150 X4.5886 Y3.527 Z-0.1937
N9155 X4.5861 Y3.5267
N9160 X4.5837 Y3.5264 Z-0.1938
N9165 X4.5812 Y3.5259 Z-0.1939
N9170 X4.5788 Y3.5253 Z-0.194
N9175 X4.5764 Y3.5247 Z-0.1941
N9180 X4.5741 Y3.5239 Z-0.1942
N9185 X4.5718 Y3.523 Z-0.1943
N9190 X4.5695 Y3.5221
N9195 X4.5673 Y3.521 Z-0.1944
N9200 X4.5651 Y3.5199 Z-0.1945
N9205 X4.5629 Y3.5186 Z-0.1946
N9210 X4.5608 Y3.5173 Z-0.1947
N9215 X4.5588 Y3.5159 Z-0.1948
N9220 X4.555 Y3.5128 Z-0.195
N9225 X4.5531 Y3.5111
N9230 X4.5514 Y3.5094 Z-0.1951
N9235 X4.5497 Y3.5076 Z-0.1952
N9240 X4.5481 Y3.5057 Z-0.1953
N9245 X4.5466 Y3.5037 Z-0.1954
N9250 X4.5451 Y3.5017 Z-0.1955
N9255 X4.5438 Y3.4996 Z-0.1956
N9260 X4.5425 Y3.4975
N9265 X4.5414 Y3.4953 Z-0.1957
N9270 X4.5403 Y3.4931 Z-0.1958
N9275 X4.5393 Y3.4908 Z-0.1959
N9280 X4.5384 Y3.4885 Z-0.196
N9285 X4.5376 Y3.4862 Z-0.1961
N9290 X4.537 Y3.4838 Z-0.1962
N9295 X4.5364 Y3.4814
N9300 X4.5359 Y3.479 Z-0.1963
N9305 X4.5355 Y3.4766 Z-0.1964
N9310 X4.5352 Y3.4741 Z-0.1965
N9315 X4.535 Y3.4692 Z-0.1967
N9320 X4.5351 Y3.4667 Z-0.1968
N9325 X4.5352 Y3.4642
N9330 Y3.464 Z-0.1969
N9335 Y3.4637
N9340 X4.5353 Y3.4634
N9345 X4.5355 Y3.4615
N9350 X4.5359 Y3.459 Z-0.197
N9355 X4.5364 Y3.4565 Z-0.1971
N9360 X4.537 Y3.454 Z-0.1972
N9365 X4.5377 Y3.4516 Z-0.1973
N9370 X4.5385 Y3.4492 Z-0.1974
N9375 X4.5394 Y3.4468 Z-0.1975
N9380 X4.5404 Y3.4445 Z-0.1976
N9385 X4.5415 Y3.4422
N9390 X4.5427 Y3.44 Z-0.1977
N9395 X4.544 Y3.4378 Z-0.1978
N9400 X4.5455 Y3.4357 Z-0.1979
N9405 X4.5469 Y3.4337 Z-0.198
N9410 X4.5485 Y3.4317 Z-0.1981
N9415 X4.5502 Y3.4298 Z-0.1982
N9420 X4.5519 Y3.428 Z-0.1983
N9425 X4.5537 Y3.4262 Z-0.1984
N9430 X4.5556 Y3.4245
N9435 X4.5576 Y3.4229 Z-0.1985
N9440 X4.5597 Y3.4214 Z-0.1986
N9445 X4.5618 Y3.42 Z-0.1987
N9450 X4.5639 Y3.4187 Z-0.1988
N9455 X4.5662 Y3.4174 Z-0.1989
N9460 X4.5684 Y3.4163 Z-0.199
N9465 X4.5708 Y3.4153 Z-0.1991
N9470 X4.5731 Y3.4143 Z-0.1992
N9475 X4.5755 Y3.4135
N9480 X4.578 Y3.4128 Z-0.1993
N9485 X4.5804 Y3.4122 Z-0.1994
N9490 X4.5829 Y3.4117 Z-0.1995
N9495 X4.5879 Y3.411 Z-0.1997
N9500 X4.5904 Y3.4108 Z-0.1998
N9505 X4.593 Z-0.1999
N9510 X4.5955
N9515 X4.5981 Y3.411 Z-0.2
N9520 X4.6006 Y3.4113 Z-0.2001
N9525 X4.6031 Y3.4116 Z-0.2002
N9530 X4.6055 Y3.4121 Z-0.2003
N9535 X4.608 Y3.4127 Z-0.2004
N9540 X4.6104 Y3.4134 Z-0.2005
N9545 X4.6128 Y3.4142 Z-0.2006
N9550 X4.6152 Y3.4151 Z-0.2007
N9555 X4.6175 Y3.4162
N9560 X4.6198 Y3.4173 Z-0.2008
N9565 X4.622 Y3.4185 Z-0.2009
N9570 X4.6242 Y3.4198 Z-0.201
N9575 X4.6263 Y3.4212 Z-0.2011
N9580 X4.6283 Y3.4227 Z-0.2012
N9585 X4.6303 Y3.4243 Z-0.2013
N9590 X4.6322 Y3.4259 Z-0.2014
N9595 X4.634 Y3.4277
N9600 X4.6358 Y3.4295 Z-0.2015
N9605 X4.6375 Y3.4314 Z-0.2016
N9610 X4.6391 Y3.4334 Z-0.2017
N9615 X4.6406 Y3.4354 Z-0.2018
N9620 X4.642 Y3.4375 Z-0.2019
N9625 X4.6433 Y3.4397 Z-0.202
N9630 X4.6445 Y3.4419 Z-0.2021
N9635 X4.6456 Y3.4441 Z-0.2022
N9640 X4.6467 Y3.4464
N9645 X4.6476 Y3.4488 Z-0.2023
N9650 X4.6484 Y3.4512 Z-0.2024
N9655 X4.6491 Y3.4536 Z-0.2025
N9660 X4.6497 Y3.4561 Z-0.2026
N9665 X4.6502 Y3.4585 Z-0.2027
N9670 X4.6509 Y3.4636 Z-0.2029
N9675 X4.6511 Y3.4661
N9680 Y3.4673 Z-0.203
N9685 Y3.4686
N9690 X4.6509 Y3.4736 Z-0.2032
N9695 X4.6502 Y3.4787 Z-0.2034
N9700 X4.6492 Y3.4836 Z-0.2036
N9705 X4.6485 Y3.486 Z-0.2037
N9710 X4.6477 Y3.4884
N9715 X4.6458 Y3.4931 Z-0.2039
N9720 X4.6434 Y3.4975 Z-0.2041
N9725 X4.6422 Y3.4997 Z-0.2042
N9730 X4.6408 Y3.5018 Z-0.2043
N9735 X4.6393 Y3.5039 Z-0.2044
N9740 X4.6377 Y3.5059
N9745 X4.636 Y3.5078 Z-0.2045
N9750 X4.6343 Y3.5096 Z-0.2046
N9755 X4.6325 Y3.5113 Z-0.2047
N9760 X4.6306 Y3.513 Z-0.2048
N9765 X4.6286 Y3.5146 Z-0.2049
N9770 X4.6266 Y3.5161 Z-0.205
N9775 X4.6245 Y3.5175 Z-0.2051
N9780 X4.6223 Y3.5188
N9785 X4.6201 Y3.5201 Z-0.2052
N9790 X4.6178 Y3.5212 Z-0.2053
N9795 X4.6155 Y3.5222 Z-0.2054
N9800 X4.6132 Y3.5231 Z-0.2055
N9805 X4.6108 Y3.5239 Z-0.2056
N9810 X4.6084 Y3.5246 Z-0.2057
N9815 X4.606 Y3.5253 Z-0.2058
N9820 X4.6035 Y3.5258 Z-0.2059
N9825 X4.5985 Y3.5264 Z-0.206
N9830 X4.596 Y3.5266 Z-0.2061
N9835 X4.5934 Y3.5267 Z-0.2062
N9840 X4.5909 Y3.5266 Z-0.2063
N9845 X4.5884 Y3.5265 Z-0.2064
N9850 X4.5859 Y3.5262 Z-0.2065
N9855 X4.5834 Y3.5258 Z-0.2066
N9860 X4.5809 Y3.5253
N9865 X4.5785 Y3.5247 Z-0.2067
N9870 X4.5761 Y3.524 Z-0.2068
N9875 X4.5737 Y3.5232 Z-0.2069
N9880 X4.5713 Y3.5223 Z-0.207
N9885 X4.569 Y3.5213 Z-0.2071
N9890 X4.5667 Y3.5202 Z-0.2072
N9895 X4.5645 Y3.519 Z-0.2073
N9900 X4.5624 Y3.5177
N9905 X4.5603 Y3.5163 Z-0.2074
N9910 X4.5582 Y3.5148 Z-0.2075
N9915 X4.5563 Y3.5132 Z-0.2076
N9920 X4.5544 Y3.5116 Z-0.2077
N9925 X4.5526 Y3.5099 Z-0.2078
N9930 X4.5508 Y3.508 Z-0.2079
N9935 X4.5491 Y3.5061 Z-0.208
N9940 X4.5476 Y3.5042
N9945 X4.5461 Y3.5022 Z-0.2081
N9950 X4.5447 Y3.5001 Z-0.2082
N9955 X4.5433 Y3.4979 Z-0.2083
N9960 X4.5421 Y3.4957 Z-0.2084
N9965 X4.541 Y3.4935 Z-0.2085
N9970 X4.54 Y3.4912 Z-0.2086
N9975 X4.5391 Y3.4888 Z-0.2087
N9980 X4.5383 Y3.4864 Z-0.2088
N9985 X4.5375 Y3.484
N9990 X4.5369 Y3.4816 Z-0.2089
N9995 X4.5364 Y3.4791 Z-0.209
N10000 X4.5358 Y3.4741 Z-0.2092
N10005 X4.5356 Y3.4716 Z-0.2093
N10010 X4.5355 Y3.4691 Z-0.2094
N10015 X4.5356 Y3.4666 Z-0.2095
N10020 X4.5357 Y3.4641
N10025 X4.536 Y3.4616 Z-0.2096
N10030 X4.5364 Y3.4591 Z-0.2097
N10035 X4.5369 Y3.4566 Z-0.2098
N10040 X4.5375 Y3.4541 Z-0.2099
N10045 X4.5382 Y3.4517 Z-0.21
N10050 X4.539 Y3.4494 Z-0.2101
N10055 X4.5399 Y3.447 Z-0.2102
N10060 X4.5409 Y3.4447
N10065 X4.542 Y3.4425 Z-0.2103
N10070 X4.5432 Y3.4403 Z-0.2104
N10075 X4.5445 Y3.4381 Z-0.2105
N10080 X4.5459 Y3.436 Z-0.2106
N10085 X4.5474 Y3.434 Z-0.2107
N10090 X4.5489 Y3.432 Z-0.2108
N10095 X4.5506 Y3.4301 Z-0.2109
N10100 X4.5523 Y3.4283
N10105 X4.5541 Y3.4266 Z-0.211
N10110 X4.556 Y3.4249 Z-0.2111
N10115 X4.5579 Y3.4233 Z-0.2112
N10120 X4.56 Y3.4218 Z-0.2113
N10125 X4.5621 Y3.4204 Z-0.2114
N10130 X4.5642 Y3.4191 Z-0.2115
N10135 X4.5664 Y3.4179 Z-0.2116
N10140 X4.5686 Y3.4168
N10145 X4.5709 Y3.4157 Z-0.2117
N10150 X4.5733 Y3.4148 Z-0.2118
N10155 X4.5757 Y3.414 Z-0.2119
N10160 X4.5781 Y3.4133 Z-0.212
N10165 X4.5805 Y3.4127 Z-0.2121
N10170 X4.583 Y3.4122 Z-0.2122
N10175 X4.588 Y3.4115 Z-0.2123
N10180 X4.5905 Y3.4114 Z-0.2124
N10185 X4.593 Y3.4113 Z-0.2125
N10190 X4.5955 Z-0.2126
N10195 X4.598 Y3.4115 Z-0.2127
N10200 X4.6005 Y3.4118 Z-0.2128
N10205 X4.603 Y3.4122 Z-0.2129
N10210 X4.6054 Y3.4126 Z-0.213
N10215 X4.6079 Y3.4132
N10220 X4.6103 Y3.4139 Z-0.2131
N10225 X4.6126 Y3.4147 Z-0.2132
N10230 X4.615 Y3.4156 Z-0.2133
N10235 X4.6173 Y3.4166 Z-0.2134
N10240 X4.6195 Y3.4177 Z-0.2135
N10245 X4.6217 Y3.4189 Z-0.2136
N10250 X4.6239 Y3.4202 Z-0.2137
N10255 X4.626 Y3.4216
N10260 X4.628 Y3.4231 Z-0.2138
N10265 X4.63 Y3.4247 Z-0.2139
N10270 X4.6319 Y3.4263 Z-0.214
N10275 X4.6337 Y3.428 Z-0.2141
N10280 X4.6354 Y3.4298 Z-0.2142
N10285 X4.6371 Y3.4317 Z-0.2143
N10290 X4.6387 Y3.4337 Z-0.2144
N10295 X4.6402 Y3.4357
N10300 X4.6416 Y3.4378 Z-0.2145
N10305 X4.6429 Y3.4399 Z-0.2146
N10310 X4.6441 Y3.4421 Z-0.2147
N10315 X4.6452 Y3.4443 Z-0.2148
N10320 X4.6462 Y3.4466 Z-0.2149
N10325 X4.6471 Y3.449 Z-0.215
N10330 X4.6479 Y3.4513 Z-0.2151
N10335 X4.6486 Y3.4537
N10340 X4.6492 Y3.4562 Z-0.2152
N10345 X4.6497 Y3.4586 Z-0.2153
N10350 X4.6504 Y3.4636 Z-0.2155
N10355 X4.6506 Y3.4661 Z-0.2156
N10360 Y3.4674
N10365 X4.6507 Y3.4686 Z-0.2157
N10370 X4.6504 Y3.4736 Z-0.2158
N10375 X4.6497 Y3.4786 Z-0.216
N10380 X4.6487 Y3.4835 Z-0.2162
N10385 X4.648 Y3.4859 Z-0.2163
N10390 X4.6472 Y3.4882 Z-0.2164
N10395 X4.6453 Y3.4929 Z-0.2165
N10400 X4.643 Y3.4973 Z-0.2167
N10405 X4.6417 Y3.4995 Z-0.2168
N10410 X4.6403 Y3.5016 Z-0.2169
N10415 X4.6389 Y3.5036 Z-0.217
N10420 X4.6373 Y3.5055 Z-0.2171
N10425 X4.6357 Y3.5074 Z-0.2172
N10430 X4.6339 Y3.5092
N10435 X4.6321 Y3.511 Z-0.2173
N10440 X4.6303 Y3.5126 Z-0.2174
N10445 X4.6283 Y3.5142 Z-0.2175
N10450 X4.6263 Y3.5157 Z-0.2176
N10455 X4.6242 Y3.5171 Z-0.2177
N10460 X4.6221 Y3.5184 Z-0.2178
N10465 X4.6199 Y3.5196 Z-0.2179
N10470 X4.6176 Y3.5207
N10475 X4.6153 Y3.5217 Z-0.218
N10480 X4.613 Y3.5226 Z-0.2181
N10485 X4.6107 Y3.5235 Z-0.2182
N10490 X4.6083 Y3.5242 Z-0.2183
N10495 X4.6058 Y3.5248 Z-0.2184
N10500 X4.6034 Y3.5253 Z-0.2185
N10505 X4.5984 Y3.5259 Z-0.2186
N10510 X4.5959 Y3.5261 Z-0.2187
N10515 X4.5934 Y3.5262 Z-0.2188
N10520 X4.5909 Y3.5261 Z-0.2189
N10525 X4.5884 Y3.5259 Z-0.219
N10530 X4.586 Y3.5257 Z-0.2191
N10535 X4.5835 Y3.5253 Z-0.2192
N10540 X4.581 Y3.5248
N10545 X4.5786 Y3.5242 Z-0.2193
N10550 X4.5762 Y3.5235 Z-0.2194
N10555 X4.5738 Y3.5227 Z-0.2195
N10560 X4.5715 Y3.5218 Z-0.2196
N10565 X4.5692 Y3.5208 Z-0.2197
N10570 X4.567 Y3.5197 Z-0.2198
N10575 X4.5648 Y3.5185 Z-0.2199
N10580 X4.5626 Y3.5172
N10585 X4.5606 Y3.5159 Z-0.22
N10590 X4.5585 Y3.5144 Z-0.2201
N10595 X4.5566 Y3.5128 Z-0.2202
N10600 X4.5547 Y3.5112 Z-0.2203
N10605 X4.5529 Y3.5095 Z-0.2204
N10610 X4.5512 Y3.5077 Z-0.2205
N10615 X4.5495 Y3.5058 Z-0.2206
N10620 X4.548 Y3.5039
N10625 X4.5465 Y3.5019 Z-0.2207
N10630 X4.5451 Y3.4998 Z-0.2208
N10635 X4.5438 Y3.4977 Z-0.2209
N10640 X4.5426 Y3.4955 Z-0.221
N10645 X4.5415 Y3.4932 Z-0.2211
N10650 X4.5405 Y3.491 Z-0.2212
N10655 X4.5395 Y3.4886 Z-0.2213
N10660 X4.5387 Y3.4863
N10665 X4.538 Y3.4839 Z-0.2214
N10670 X4.5374 Y3.4815 Z-0.2215
N10675 X4.5369 Y3.479 Z-0.2216
N10680 X4.5363 Y3.4741 Z-0.2218
N10685 X4.5361 Y3.4716 Z-0.2219
N10690 X4.536 Y3.4691
N10695 X4.5361 Y3.4666 Z-0.222
N10700 X4.5362 Y3.4641 Z-0.2221
N10705 X4.5365 Y3.4616 Z-0.2222
N10710 X4.5369 Y3.4592 Z-0.2223
N10715 X4.5374 Y3.4567 Z-0.2224
N10720 X4.538 Y3.4543 Z-0.2225
N10725 X4.5386 Y3.4519 Z-0.2226
N10730 X4.5394 Y3.4495
N10735 X4.5403 Y3.4472 Z-0.2227
N10740 X4.5413 Y3.4449 Z-0.2228
N10745 X4.5424 Y3.4427 Z-0.2229
N10750 X4.5436 Y3.4405 Z-0.223
N10755 X4.5449 Y3.4384 Z-0.2231
N10760 X4.5463 Y3.4363 Z-0.2232
N10765 X4.5478 Y3.4343 Z-0.2233
N10770 X4.5493 Y3.4323
N10775 X4.5509 Y3.4305 Z-0.2234
N10780 X4.5527 Y3.4287 Z-0.2235
N10785 X4.5545 Y3.4269 Z-0.2236
N10790 X4.5563 Y3.4253 Z-0.2237
N10795 X4.5583 Y3.4237 Z-0.2238
N10800 X4.5603 Y3.4222 Z-0.2239
N10805 X4.5623 Y3.4208
N10810 X4.5645 Y3.4195 Z-0.224
N10815 X4.5666 Y3.4183 Z-0.2241
N10820 X4.5689 Y3.4172 Z-0.2242
N10825 X4.5711 Y3.4162 Z-0.2243
N10830 X4.5735 Y3.4153 Z-0.2244
N10835 X4.5758 Y3.4145 Z-0.2245
N10840 X4.5782 Y3.4138 Z-0.2246
N10845 X4.5806 Y3.4132
N10850 X4.5831 Y3.4127 Z-0.2247
N10855 X4.588 Y3.412 Z-0.2249
N10860 X4.5905 Y3.4119 Z-0.225
N10865 X4.593 Y3.4118 Z-0.2251
N10870 X4.5955 Y3.4119 Z-0.2252
N10875 X4.5979 Y3.412
N10880 X4.6004 Y3.4123 Z-0.2253
N10885 X4.6029 Y3.4126 Z-0.2254
N10890 X4.6053 Y3.4131 Z-0.2255
N10895 X4.6077 Y3.4137 Z-0.2256
N10900 X4.6101 Y3.4144 Z-0.2257
N10905 X4.6125 Y3.4152 Z-0.2258
N10910 X4.6148 Y3.4161 Z-0.2259
N10915 X4.6171 Y3.4171
N10920 X4.6193 Y3.4182 Z-0.226
N10925 X4.6215 Y3.4194 Z-0.2261
N10930 X4.6236 Y3.4207 Z-0.2262
N10935 X4.6257 Y3.422 Z-0.2263
N10940 X4.6277 Y3.4235 Z-0.2264
N10945 X4.6296 Y3.425 Z-0.2265
N10950 X4.6315 Y3.4267
N10955 X4.6333 Y3.4284 Z-0.2266
N10960 X4.635 Y3.4302 Z-0.2267
N10965 X4.6367 Y3.432 Z-0.2268
N10970 X4.6383 Y3.434 Z-0.2269
N10975 X4.6397 Y3.436 Z-0.227
N10980 X4.6411 Y3.438 Z-0.2271
N10985 X4.6424 Y3.4402 Z-0.2272
N10990 X4.6436 Y3.4423
N10995 X4.6447 Y3.4446 Z-0.2273
N11000 X4.6457 Y3.4468 Z-0.2274
N11005 X4.6466 Y3.4491 Z-0.2275
N11010 X4.6474 Y3.4515 Z-0.2276
N11015 X4.6481 Y3.4539 Z-0.2277
N11020 X4.6487 Y3.4563 Z-0.2278
N11025 X4.6492 Y3.4587
N11030 X4.6499 Y3.4636 Z-0.228
N11035 X4.6501 Y3.4661 Z-0.2281
N11040 Y3.4674 Z-0.2282
N11045 X4.6502 Y3.4686
N11050 X4.6499 Y3.4736 Z-0.2284
N11055 X4.6492 Y3.4785 Z-0.2285
N11060 X4.6482 Y3.4833 Z-0.2287
N11065 X4.6475 Y3.4857 Z-0.2288
N11070 X4.6467 Y3.4881 Z-0.2289
N11075 X4.6448 Y3.4927 Z-0.2291
N11080 X4.6426 Y3.4971 Z-0.2292
N11085 X4.6413 Y3.4992 Z-0.2293
N11090 X4.6399 Y3.5013 Z-0.2294
N11095 X4.6385 Y3.5033 Z-0.2295
N11100 X4.6369 Y3.5052 Z-0.2296
N11105 X4.6353 Y3.5071 Z-0.2297
N11110 X4.6336 Y3.5089 Z-0.2298
N11115 X4.6318 Y3.5106
N11120 X4.6299 Y3.5122 Z-0.2299
N11125 X4.628 Y3.5138 Z-0.23
N11130 X4.626 Y3.5153 Z-0.2301
N11135 X4.6239 Y3.5167 Z-0.2302
N11140 X4.6218 Y3.518 Z-0.2303
N11145 X4.6197 Y3.5192 Z-0.2304
N11150 X4.6174 Y3.5203
N11155 X4.6152 Y3.5213 Z-0.2305
N11160 X4.6129 Y3.5222 Z-0.2306
N11165 X4.6105 Y3.523 Z-0.2307
N11170 X4.6081 Y3.5237 Z-0.2308
N11175 X4.6057 Y3.5243 Z-0.2309
N11180 X4.6033 Y3.5248 Z-0.231
N11185 X4.6009 Y3.5251 Z-0.2311
N11190 X4.5984 Y3.5254
N11195 X4.5934 Y3.5256 Z-0.2313
N11200 X4.591 Z-0.2314
N11205 X4.5885 Y3.5254 Z-0.2315
N11210 X4.586 Y3.5252 Z-0.2316
N11215 X4.5836 Y3.5248 Z-0.2317
N11220 X4.5812 Y3.5243
N11225 X4.5787 Y3.5237 Z-0.2318
N11230 X4.5764 Y3.5231 Z-0.2319
N11235 X4.574 Y3.5223 Z-0.232
N11240 X4.5717 Y3.5214 Z-0.2321
N11245 X4.5694 Y3.5204 Z-0.2322
N11250 X4.5672 Y3.5193 Z-0.2323
N11255 X4.565 Y3.5181
N11260 X4.5629 Y3.5168 Z-0.2324
N11265 X4.5609 Y3.5155 Z-0.2325
N11270 X4.5589 Y3.514 Z-0.2326
N11275 X4.5569 Y3.5125 Z-0.2327
N11280 X4.5551 Y3.5108 Z-0.2328
N11285 X4.5533 Y3.5091 Z-0.2329
N11290 X4.5516 Y3.5073 Z-0.233
N11295 X4.5499 Y3.5055
N11300 X4.5484 Y3.5036 Z-0.2331
N11305 X4.5469 Y3.5016 Z-0.2332
N11310 X4.5455 Y3.4995 Z-0.2333
N11315 X4.5442 Y3.4974 Z-0.2334
N11320 X4.543 Y3.4952 Z-0.2335
N11325 X4.5419 Y3.493 Z-0.2336
N11330 X4.5409 Y3.4908
N11335 X4.54 Y3.4885 Z-0.2337
N11340 X4.5392 Y3.4861 Z-0.2338
N11345 X4.5385 Y3.4838 Z-0.2339
N11350 X4.5379 Y3.4813 Z-0.234
N11355 X4.5374 Y3.4789 Z-0.2341
N11360 X4.5368 Y3.474 Z-0.2342
N11365 X4.5366 Y3.4716 Z-0.2343
N11370 X4.5365 Y3.4691 Z-0.2344
N11375 X4.5366 Y3.4666 Z-0.2345
N11380 X4.5367 Y3.4641 Z-0.2346
N11385 X4.537 Y3.4617 Z-0.2347
N11390 X4.5374 Y3.4592 Z-0.2348
N11395 X4.5379 Y3.4568
N11400 X4.5384 Y3.4544 Z-0.2349
N11405 X4.5391 Y3.452 Z-0.235
N11410 X4.5399 Y3.4497 Z-0.2351
N11415 X4.5408 Y3.4474 Z-0.2352
N11420 X4.5418 Y3.4451 Z-0.2353
N11425 X4.5429 Y3.4429 Z-0.2354
N11430 X4.5441 Y3.4407 Z-0.2355
N11435 X4.5453 Y3.4386
N11440 X4.5467 Y3.4366 Z-0.2356
N11445 X4.5482 Y3.4346 Z-0.2357
N11450 X4.5497 Y3.4326 Z-0.2358
N11455 X4.5513 Y3.4308 Z-0.2359
N11460 X4.553 Y3.429 Z-0.236
N11465 X4.5556 Y3.4265 Z-0.2361
N11470 X4.557 Y3.4254 Z-0.2362
N11475 X4.5584 Y3.4242
N11480 X4.5586 Y3.4241
N11485 X4.5596 Y3.4233 Z-0.2363
N11490 X4.5606 Y3.4226
N11495 X4.5627 Y3.4212 Z-0.2364
N11500 X4.5649 Y3.4199 Z-0.2365
N11505 X4.5672 Y3.4186 Z-0.2366
N11510 X4.5694 Y3.4175 Z-0.2367
N11515 X4.5717 Y3.4165 Z-0.2368
N11520 X4.5741 Y3.4156
N11525 X4.5765 Y3.4148 Z-0.2369
N11530 X4.579 Y3.4141 Z-0.237
N11535 X4.5814 Y3.4135 Z-0.2371
N11540 X4.584 Y3.4131 Z-0.2372
N11545 X4.5865 Y3.4127 Z-0.2373
N11550 X4.589 Y3.4125 Z-0.2374
N11555 X4.5915 Y3.4123 Z-0.2375
N11560 X4.594
N11565 X4.5966 Y3.4124 Z-0.2376
N11570 X4.5991 Y3.4126 Z-0.2377
N11575 X4.6016 Y3.413 Z-0.2378
N11580 X4.6041 Y3.4134 Z-0.2379
N11585 X4.6065 Y3.4139 Z-0.238
N11590 X4.609 Y3.4146 Z-0.2381
N11595 X4.6114 Y3.4154 Z-0.2382
N11600 X4.6138 Y3.4162 Z-0.2383
N11605 X4.6162 Y3.4172
N11610 X4.6185 Y3.4183 Z-0.2384
N11615 X4.6207 Y3.4195 Z-0.2385
N11620 X4.6229 Y3.4208 Z-0.2386
N11625 X4.625 Y3.4222 Z-0.2387
N11630 X4.6271 Y3.4237 Z-0.2388
N11635 X4.6291 Y3.4252 Z-0.2389
N11640 X4.631 Y3.4269 Z-0.239
N11645 X4.6328 Y3.4286 Z-0.2391
N11650 X4.6346 Y3.4304
N11655 X4.6363 Y3.4323 Z-0.2392
N11660 X4.6379 Y3.4343 Z-0.2393
N11665 X4.6394 Y3.4363 Z-0.2394
N11670 X4.6408 Y3.4384 Z-0.2395
N11675 X4.6421 Y3.4406 Z-0.2396
N11680 X4.6433 Y3.4429 Z-0.2397
N11685 X4.6444 Y3.4452 Z-0.2398
N11690 X4.6454 Y3.4475
N11695 X4.6463 Y3.4498 Z-0.2399
N11700 X4.6471 Y3.4522 Z-0.24
N11705 X4.6478 Y3.4546 Z-0.2401
N11710 X4.6484 Y3.4571 Z-0.2402
N11715 X4.6488 Y3.4596 Z-0.2403
N11720 X4.6492 Y3.4621 Z-0.2404
N11725 X4.6494 Y3.4646 Z-0.2405
N11730 X4.6496 Y3.4671 Z-0.2406
N11735 X4.6495 Y3.4697
N11740 Y3.4722 Z-0.2407
N11745 X4.6492 Y3.4747 Z-0.2408
N11750 X4.6485 Y3.4797 Z-0.241
N11755 X4.6479 Y3.4822 Z-0.2411
N11760 X4.6473 Y3.4846 Z-0.2412
N11765 X4.6456 Y3.4894 Z-0.2413
N11770 X4.6436 Y3.494 Z-0.2415
N11775 X4.6424 Y3.4962 Z-0.2416
N11780 X4.6412 Y3.4984 Z-0.2417
N11785 X4.6398 Y3.5005 Z-0.2418
N11790 X4.6383 Y3.5026 Z-0.2419
N11795 X4.6367 Y3.5046 Z-0.242
N11800 X4.6351 Y3.5065 Z-0.2421
N11805 X4.6333 Y3.5083
N11810 X4.6315 Y3.5101 Z-0.2422
N11815 X4.6296 Y3.5118 Z-0.2423
N11820 X4.6277 Y3.5134 Z-0.2424
N11825 X4.6256 Y3.5149 Z-0.2425
N11830 X4.6235 Y3.5163 Z-0.2426
N11835 X4.6214 Y3.5176 Z-0.2427
N11840 X4.6191 Y3.5188 Z-0.2428
N11845 X4.6169 Y3.5199
N11850 X4.6145 Y3.5209 Z-0.2429
N11855 X4.6122 Y3.5218 Z-0.243
N11860 X4.6098 Y3.5226 Z-0.2431
N11865 X4.6074 Y3.5233 Z-0.2432
N11870 X4.6049 Y3.5239 Z-0.2433
N11875 X4.6024 Y3.5243 Z-0.2434
N11880 X4.5999 Y3.5247 Z-0.2435
N11885 X4.5974 Y3.5249 Z-0.2436
N11890 X4.5949 Y3.5251
N11895 X4.5924 Z-0.2437
N11900 X4.5899 Y3.525 Z-0.2438
N11905 X4.5873 Y3.5248 Z-0.2439
N11910 X4.5849 Y3.5244 Z-0.244
N11915 X4.5824 Y3.524 Z-0.2441
N11920 X4.5799 Y3.5235 Z-0.2442
N11925 X4.5775 Y3.5228 Z-0.2443
N11930 X4.5751 Y3.5221
N11935 X4.5727 Y3.5212 Z-0.2444
N11940 X4.5704 Y3.5202 Z-0.2445
N11945 X4.5681 Y3.5191 Z-0.2446
N11950 X4.5659 Y3.5179 Z-0.2447
N11955 X4.5637 Y3.5166 Z-0.2448
N11960 X4.5616 Y3.5153 Z-0.2449
N11965 X4.5595 Y3.5138 Z-0.245
N11970 X4.5575 Y3.5122
N11975 X4.5556 Y3.5106 Z-0.2451
N11980 X4.5538 Y3.5089 Z-0.2452
N11985 X4.552 Y3.507 Z-0.2453
N11990 X4.5504 Y3.5051 Z-0.2454
N11995 X4.5488 Y3.5032 Z-0.2455
N12000 X4.5473 Y3.5012 Z-0.2456
N12005 X4.5459 Y3.4991 Z-0.2457
N12010 X4.5446 Y3.4969
N12015 X4.5434 Y3.4947 Z-0.2458
N12020 X4.5423 Y3.4924 Z-0.2459
N12025 X4.5413 Y3.4901 Z-0.246
N12030 X4.5404 Y3.4878 Z-0.2461
N12035 X4.5396 Y3.4854 Z-0.2462
N12040 X4.5389 Y3.483 Z-0.2463
N12045 X4.5383 Y3.4805 Z-0.2464
N12050 X4.5379 Y3.4781
N12055 X4.5375 Y3.4756 Z-0.2465
N12060 X4.5373 Y3.4731 Z-0.2466
N12065 X4.5372 Y3.4705 Z-0.2467
N12070 X4.5371 Y3.468 Z-0.2468
N12075 X4.5372 Y3.4655 Z-0.2469
N12080 X4.5374 Y3.463 Z-0.247
N12085 X4.5378 Y3.4605 Z-0.2471
N12090 X4.5382 Y3.4581 Z-0.2472
N12095 X4.5387 Y3.4556
N12100 X4.5394 Y3.4532 Z-0.2473
N12105 X4.5402 Y3.4507 Z-0.2474
N12110 X4.541 Y3.4484 Z-0.2475
N12115 X4.542 Y3.4461 Z-0.2476
N12120 X4.5431 Y3.4438 Z-0.2477
N12125 X4.5443 Y3.4416 Z-0.2478
N12130 X4.5455 Y3.4394 Z-0.2479
N12135 X4.5469 Y3.4373
N12140 X4.5484 Y3.4353 Z-0.248
N12145 X4.5499 Y3.4333 Z-0.2481
N12150 X4.5516 Y3.4314 Z-0.2482
N12155 X4.5533 Y3.4296 Z-0.2483
N12160 X4.5551 Y3.4278 Z-0.2484
N12165 X4.557 Y3.4262 Z-0.2485
N12170 X4.5589 Y3.4246 Z-0.2486
N12175 X4.561 Y3.4231
N12180 X4.5631 Y3.4217 Z-0.2487
N12185 X4.5652 Y3.4204 Z-0.2488
N12190 X4.5674 Y3.4192 Z-0.2489
N12195 X4.5697 Y3.4181 Z-0.249
N12200 X4.572 Y3.4171 Z-0.2491
N12205 X4.5743 Y3.4162 Z-0.2492
N12210 X4.5767 Y3.4154 Z-0.2493
N12215 X4.5791 Y3.4147
N12220 X4.5816 Y3.4141 Z-0.2494
N12225 X4.584 Y3.4137 Z-0.2495
N12230 X4.5865 Y3.4133 Z-0.2496
N12235 X4.589 Y3.4131 Z-0.2497
N12240 X4.5915 Y3.413 Z-0.2498
N12245 X4.594 Y3.4129 Z-0.2499
N12250 X4.5965 Y3.413 Z-0.25
N12255 X4.599 Y3.4132
N12260 X4.6015 Y3.4136 Z-0.2501
N12265 X4.604 Y3.414 Z-0.2502
N12270 X4.6064 Y3.4145 Z-0.2503
N12275 X4.6088 Y3.4152 Z-0.2504
N12280 X4.6112 Y3.4159 Z-0.2505
N12285 X4.6136 Y3.4168 Z-0.2506
N12290 X4.6159 Y3.4178 Z-0.2507
N12295 X4.6182 Y3.4189
N12300 X4.6204 Y3.42 Z-0.2508
N12305 X4.6226 Y3.4213 Z-0.2509
N12310 X4.6247 Y3.4227 Z-0.251
N12315 X4.6267 Y3.4242 Z-0.2511
N12320 X4.6287 Y3.4257 Z-0.2512
N12325 X4.6306 Y3.4273 Z-0.2513
N12330 X4.6324 Y3.4291 Z-0.2514
N12335 X4.6341 Y3.4309
N12340 X4.6358 Y3.4327 Z-0.2515
N12345 X4.6374 Y3.4347 Z-0.2516
N12350 X4.6388 Y3.4367 Z-0.2517
N12355 X4.6402 Y3.4388 Z-0.2518
N12360 X4.6415 Y3.4409 Z-0.2519
N12365 X4.6427 Y3.4431 Z-0.252
N12370 X4.6439 Y3.4454 Z-0.2521
N12375 X4.6448 Y3.4477
N12380 X4.6457 Y3.45 Z-0.2522
N12385 X4.6465 Y3.4524 Z-0.2523
N12390 X4.6472 Y3.4548 Z-0.2524
N12395 X4.6478 Y3.4572 Z-0.2525
N12400 X4.6482 Y3.4597 Z-0.2526
N12405 X4.6486 Y3.4622 Z-0.2527
N12410 X4.6488 Y3.4647 Z-0.2528
N12415 X4.649 Y3.4672
N12420 Y3.4697 Z-0.2529
N12425 X4.6486 Y3.4747 Z-0.2531
N12430 X4.6479 Y3.4796 Z-0.2533
N12435 X4.6473 Y3.482 Z-0.2534
N12440 X4.6467 Y3.4845 Z-0.2535
N12445 X4.6451 Y3.4892 Z-0.2536
N12450 X4.643 Y3.4937 Z-0.2538
N12455 X4.6419 Y3.4959 Z-0.2539
N12460 X4.6406 Y3.4981 Z-0.254
N12465 X4.6393 Y3.5002 Z-0.2541
N12470 X4.6378 Y3.5022
N12475 X4.6363 Y3.5042 Z-0.2542
N12480 X4.6346 Y3.5061 Z-0.2543
N12485 X4.6329 Y3.5079 Z-0.2544
N12490 X4.6311 Y3.5097 Z-0.2545
N12495 X4.6292 Y3.5113 Z-0.2546
N12500 X4.6273 Y3.5129 Z-0.2547
N12505 X4.6253 Y3.5144 Z-0.2548
N12510 X4.6232 Y3.5158
N12515 X4.6211 Y3.5171 Z-0.2549
N12520 X4.6189 Y3.5183 Z-0.255
N12525 X4.6166 Y3.5193 Z-0.2551
N12530 X4.6143 Y3.5203 Z-0.2552
N12535 X4.612 Y3.5212 Z-0.2553
N12540 X4.6096 Y3.522 Z-0.2554
N12545 X4.6072 Y3.5227 Z-0.2555
N12550 X4.6048 Y3.5233
N12555 X4.6023 Y3.5237 Z-0.2556
N12560 X4.5999 Y3.5241 Z-0.2557
N12565 X4.5974 Y3.5243 Z-0.2558
N12570 X4.5949 Y3.5244 Z-0.2559
N12575 X4.5924 Y3.5245 Z-0.256
N12580 X4.5899 Y3.5244 Z-0.2561
N12585 X4.5874 Y3.5242 Z-0.2562
N12590 X4.5849 Y3.5238
N12595 X4.5825 Y3.5234 Z-0.2563
N12600 X4.5801 Y3.5229 Z-0.2564
N12605 X4.5777 Y3.5222 Z-0.2565
N12610 X4.5753 Y3.5215 Z-0.2566
N12615 X4.5729 Y3.5206 Z-0.2567
N12620 X4.5706 Y3.5196 Z-0.2568
N12625 X4.5684 Y3.5186
N12630 X4.5662 Y3.5174 Z-0.2569
N12635 X4.564 Y3.5161 Z-0.257
N12640 X4.5619 Y3.5148 Z-0.2571
N12645 X4.5599 Y3.5133 Z-0.2572
N12650 X4.5579 Y3.5118 Z-0.2573
N12655 X4.5561 Y3.5101 Z-0.2574
N12660 X4.5542 Y3.5084 Z-0.2575
N12665 X4.5525 Y3.5066
N12670 X4.5509 Y3.5048 Z-0.2576
N12675 X4.5493 Y3.5028 Z-0.2577
N12680 X4.5478 Y3.5008 Z-0.2578
N12685 X4.5464 Y3.4987 Z-0.2579
N12690 X4.5451 Y3.4966 Z-0.258
N12695 X4.5439 Y3.4944 Z-0.2581
N12700 X4.5429 Y3.4922 Z-0.2582
N12705 X4.5419 Y3.4899
N12710 X4.541 Y3.4876 Z-0.2583
N12715 X4.5402 Y3.4852 Z-0.2584
N12720 X4.5395 Y3.4828 Z-0.2585
N12725 X4.5389 Y3.4804 Z-0.2586
N12730 X4.5385 Y3.478 Z-0.2587
N12735 X4.5381 Y3.4755 Z-0.2588
N12740 X4.5379 Y3.473
N12745 X4.5378 Y3.4705 Z-0.2589
N12750 Y3.468 Z-0.259
N12755 X4.5379 Y3.4656 Z-0.2591
N12760 X4.5381 Y3.4631 Z-0.2592
N12765 X4.5384 Y3.4606 Z-0.2593
N12770 X4.5388 Y3.4582 Z-0.2594
N12775 X4.5393 Y3.4557 Z-0.2595
N12780 X4.54 Y3.4533
N12785 X4.5408 Y3.451 Z-0.2596
N12790 X4.5416 Y3.4486 Z-0.2597
N12795 X4.5426 Y3.4463 Z-0.2598
N12800 X4.5436 Y3.4441 Z-0.2599
N12805 X4.5448 Y3.4419 Z-0.26
N12810 X4.5461 Y3.4397 Z-0.2601
N12815 X4.5474 Y3.4377
N12820 X4.5489 Y3.4356 Z-0.2602
N12825 X4.5504 Y3.4337 Z-0.2603
N12830 X4.552 Y3.4318 Z-0.2604
N12835 X4.5537 Y3.43 Z-0.2605
N12840 X4.5555 Y3.4283 Z-0.2606
N12845 X4.5574 Y3.4266 Z-0.2607
N12850 X4.5593 Y3.4251 Z-0.2608
N12855 X4.5613 Y3.4236
N12860 X4.5634 Y3.4222 Z-0.2609
N12865 X4.5655 Y3.4209 Z-0.261
N12870 X4.5677 Y3.4197 Z-0.2611
N12875 X4.5699 Y3.4186 Z-0.2612
N12880 X4.5722 Y3.4177 Z-0.2613
N12885 X4.5745 Y3.4168 Z-0.2614
N12890 X4.5769 Y3.416
N12895 X4.5793 Y3.4153 Z-0.2615
N12900 X4.5817 Y3.4147 Z-0.2616
N12905 X4.5841 Y3.4143 Z-0.2617
N12910 X4.5866 Y3.4139 Z-0.2618
N12915 X4.5891 Y3.4137 Z-0.2619
N12920 X4.5915 Y3.4136 Z-0.262
N12925 X4.594 Z-0.2621
N12930 X4.5965
N12935 X4.599 Y3.4139 Z-0.2622
N12940 X4.6014 Y3.4142 Z-0.2623
N12945 X4.6039 Y3.4146 Z-0.2624
N12950 X4.6063 Y3.4151 Z-0.2625
N12955 X4.6087 Y3.4158 Z-0.2626
N12960 X4.611 Y3.4165 Z-0.2627
N12965 X4.6134 Y3.4174
N12970 X4.6157 Y3.4184 Z-0.2628
N12975 X4.6179 Y3.4194 Z-0.2629
N12980 X4.6201 Y3.4206 Z-0.263
N12985 X4.6222 Y3.4218 Z-0.2631
N12990 X4.6243 Y3.4232 Z-0.2632
N12995 X4.6263 Y3.4246 Z-0.2633
N13000 X4.6283 Y3.4262
N13005 X4.6302 Y3.4278 Z-0.2634
N13010 X4.632 Y3.4295 Z-0.2635
N13015 X4.6337 Y3.4313 Z-0.2636
N13020 X4.6353 Y3.4331 Z-0.2637
N13025 X4.6369 Y3.4351 Z-0.2638
N13030 X4.6383 Y3.437 Z-0.2639
N13035 X4.6397 Y3.4391 Z-0.264
N13040 X4.641 Y3.4412
N13045 X4.6422 Y3.4434 Z-0.2641
N13050 X4.6433 Y3.4456 Z-0.2642
N13055 X4.6443 Y3.4479 Z-0.2643
N13060 X4.6452 Y3.4502 Z-0.2644
N13065 X4.6459 Y3.4526 Z-0.2645
N13070 X4.6466 Y3.4549 Z-0.2646
N13075 X4.6472 Y3.4573
N13080 X4.6476 Y3.4598 Z-0.2647
N13085 X4.648 Y3.4622 Z-0.2648
N13090 X4.6482 Y3.4647 Z-0.2649
N13095 X4.6484 Y3.4672 Z-0.265
N13100 Y3.4697 Z-0.2651
N13105 X4.648 Y3.4746 Z-0.2652
N13110 X4.6473 Y3.4795 Z-0.2654
N13115 X4.6467 Y3.4819 Z-0.2655
N13120 X4.6461 Y3.4843 Z-0.2656
N13125 X4.6445 Y3.489 Z-0.2658
N13130 X4.6425 Y3.4935 Z-0.2659
N13135 X4.6413 Y3.4956 Z-0.266
N13140 X4.6401 Y3.4978 Z-0.2661
N13145 X4.6387 Y3.4999 Z-0.2662
N13150 X4.6373 Y3.5019 Z-0.2663
N13155 X4.6358 Y3.5038 Z-0.2664
N13160 X4.6342 Y3.5057 Z-0.2665
N13165 X4.6325 Y3.5075
N13170 X4.6307 Y3.5092 Z-0.2666
N13175 X4.6288 Y3.5108 Z-0.2667
N13180 X4.6269 Y3.5124 Z-0.2668
N13185 X4.6249 Y3.5139 Z-0.2669
N13190 X4.6229 Y3.5152 Z-0.267
N13195 X4.6207 Y3.5165 Z-0.2671
N13200 X4.6186 Y3.5177
N13205 X4.6164 Y3.5188 Z-0.2672
N13210 X4.6141 Y3.5198 Z-0.2673
N13215 X4.6118 Y3.5207 Z-0.2674
N13220 X4.6094 Y3.5214 Z-0.2675
N13225 X4.6071 Y3.5221 Z-0.2676
N13230 X4.6047 Y3.5227 Z-0.2677
N13235 X4.6022 Y3.5231
N13240 X4.5998 Y3.5235 Z-0.2678
N13245 X4.5973 Y3.5237 Z-0.2679
N13250 X4.5949 Y3.5238 Z-0.268
N13255 X4.5924 Z-0.2681
N13260 X4.5899 Y3.5237 Z-0.2682
N13265 X4.5875 Y3.5235 Z-0.2683
N13270 X4.585 Y3.5232 Z-0.2684
N13275 X4.5826 Y3.5228
N13280 X4.5802 Y3.5223 Z-0.2685
N13285 X4.5778 Y3.5216 Z-0.2686
N13290 X4.5755 Y3.5209 Z-0.2687
N13295 X4.5732 Y3.52 Z-0.2688
N13300 X4.5709 Y3.5191 Z-0.2689
N13305 X4.5686 Y3.518 Z-0.269
N13310 X4.5665 Y3.5169
N13315 X4.5643 Y3.5156 Z-0.2691
N13320 X4.5623 Y3.5143 Z-0.2692
N13325 X4.5603 Y3.5128 Z-0.2693
N13330 X4.5583 Y3.5113 Z-0.2694
N13335 X4.5565 Y3.5097 Z-0.2695
N13340 X4.5547 Y3.508 Z-0.2696
N13345 X4.553 Y3.5062
N13350 X4.5513 Y3.5044 Z-0.2697
N13355 X4.5498 Y3.5025 Z-0.2698
N13360 X4.5483 Y3.5005 Z-0.2699
N13365 X4.547 Y3.4984 Z-0.27
N13370 X4.5457 Y3.4963 Z-0.2701
N13375 X4.5445 Y3.4941 Z-0.2702
N13380 X4.5434 Y3.4919
N13385 X4.5424 Y3.4897 Z-0.2703
N13390 X4.5416 Y3.4874 Z-0.2704
N13395 X4.5408 Y3.485 Z-0.2705
N13400 X4.5401 Y3.4827 Z-0.2706
N13405 X4.5395 Y3.4803 Z-0.2707
N13410 X4.5391 Y3.4779 Z-0.2708
N13415 X4.5387 Y3.4754
N13420 X4.5385 Y3.473 Z-0.2709
N13425 X4.5384 Y3.4705 Z-0.271
N13430 Y3.468 Z-0.2711
N13435 X4.5385 Y3.4656 Z-0.2712
N13440 X4.5387 Y3.4631 Z-0.2713
N13445 X4.539 Y3.4607 Z-0.2714
N13450 X4.5394 Y3.4583
N13455 X4.5399 Y3.4559 Z-0.2715
N13460 X4.5406 Y3.4535 Z-0.2716
N13465 X4.5413 Y3.4512 Z-0.2717
N13470 X4.5422 Y3.4488 Z-0.2718
N13475 X4.5431 Y3.4466 Z-0.2719
N13480 X4.5442 Y3.4444 Z-0.272
N13485 X4.5453 Y3.4422
N13490 X4.5466 Y3.4401 Z-0.2721
N13495 X4.5479 Y3.438 Z-0.2722
N13500 X4.5494 Y3.436 Z-0.2723
N13505 X4.5509 Y3.4341 Z-0.2724
N13510 X4.5525 Y3.4322 Z-0.2725
N13515 X4.5542 Y3.4304 Z-0.2726
N13520 X4.5559 Y3.4287
N13525 X4.5578 Y3.4271 Z-0.2727
N13530 X4.5597 Y3.4255 Z-0.2728
N13535 X4.5617 Y3.4241 Z-0.2729
N13540 X4.5637 Y3.4227 Z-0.273
N13545 X4.5658 Y3.4215 Z-0.2731
N13550 X4.568 Y3.4203 Z-0.2732
N13555 X4.5702 Y3.4192
N13560 X4.5724 Y3.4182 Z-0.2733
N13565 X4.5747 Y3.4173 Z-0.2734
N13570 X4.5771 Y3.4166 Z-0.2735
N13575 X4.5794 Y3.4159 Z-0.2736
N13580 X4.5818 Y3.4153 Z-0.2737
N13585 X4.5842 Y3.4149 Z-0.2738
N13590 X4.5867 Y3.4145
N13595 X4.5891 Y3.4143 Z-0.2739
N13600 X4.5915 Y3.4142 Z-0.274
N13605 X4.594 Z-0.2741
N13610 X4.5965 Y3.4143 Z-0.2742
N13615 X4.5989 Y3.4145 Z-0.2743
N13620 X4.6013 Y3.4148 Z-0.2744
N13625 X4.6037 Y3.4152
N13630 X4.6061 Y3.4157 Z-0.2745
N13635 X4.6085 Y3.4164 Z-0.2746
N13640 X4.6109 Y3.4171 Z-0.2747
N13645 X4.6132 Y3.418 Z-0.2748
N13650 X4.6154 Y3.4189 Z-0.2749
N13655 X4.6176 Y3.42 Z-0.275
N13660 X4.6198 Y3.4211
N13665 X4.6219 Y3.4224 Z-0.2751
N13670 X4.624 Y3.4237 Z-0.2752
N13675 X4.626 Y3.4251 Z-0.2753
N13680 X4.6279 Y3.4266 Z-0.2754
N13685 X4.6297 Y3.4282 Z-0.2755
N13690 X4.6315 Y3.4299 Z-0.2756
N13695 X4.6322 Y3.4306
N13700 X4.6324 Y3.4308
N13705 X4.6326 Y3.431
N13710 X4.6328 Y3.4312
N13715 X4.6341 Y3.4326 Z-0.2757
N13720 X4.6357 Y3.4345 Z-0.2758
N13725 X4.6372 Y3.4365 Z-0.2759
N13730 X4.6387 Y3.4386
N13735 X4.64 Y3.4407 Z-0.276
N13740 X4.6413 Y3.4429 Z-0.2761
N13745 X4.6418 Y3.4441 Z-0.2762
N13750 X4.6424 Y3.4452
N13755 X4.6435 Y3.4475 Z-0.2763
N13760 X4.6444 Y3.4498 Z-0.2764
N13765 X4.6452 Y3.4522 Z-0.2765
N13770 X4.6459 Y3.4546 Z-0.2766
N13775 X4.6465 Y3.4571
N13780 X4.647 Y3.4595 Z-0.2767
N13785 X4.6473 Y3.462 Z-0.2768
N13790 X4.6476 Y3.4645 Z-0.2769
N13795 X4.6477 Y3.4671 Z-0.277
N13800 X4.6476 Y3.4721 Z-0.2772
N13805 X4.6474 Y3.4746 Z-0.2773
N13810 X4.6471 Y3.4771
N13815 X4.6461 Y3.482 Z-0.2775
N13820 X4.6454 Y3.4845 Z-0.2776
N13825 X4.6446 Y3.4869 Z-0.2777
N13830 X4.6427 Y3.4915 Z-0.2779
N13835 X4.6404 Y3.496 Z-0.2781
N13840 X4.6391 Y3.4982
N13845 X4.6377 Y3.5003 Z-0.2782
N13850 X4.6362 Y3.5023 Z-0.2783
N13855 X4.6346 Y3.5043 Z-0.2784
N13860 X4.6329 Y3.5061 Z-0.2785
N13865 X4.6312 Y3.5079 Z-0.2786
N13870 X4.6293 Y3.5096 Z-0.2787
N13875 X4.6274 Y3.5112 Z-0.2788
N13880 X4.6254 Y3.5128
N13885 X4.6233 Y3.5142 Z-0.2789
N13890 X4.6223 Y3.5149 Z-0.279
N13895 X4.6212 Y3.5156
N13900 X4.619 Y3.5168 Z-0.2791
N13905 X4.6168 Y3.5179 Z-0.2792
N13910 X4.6145 Y3.519 Z-0.2793
N13915 X4.6122 Y3.5199 Z-0.2794
N13920 X4.6098 Y3.5207 Z-0.2795
N13925 X4.6074 Y3.5214
N13930 X4.6049 Y3.522 Z-0.2796
N13935 X4.6024 Y3.5225 Z-0.2797
N13940 X4.5999 Y3.5228 Z-0.2798
N13945 X4.5974 Y3.5231 Z-0.2799
N13950 X4.5949 Y3.5232 Z-0.28
N13955 X4.5924 Z-0.2801
N13960 X4.5899 Y3.5231 Z-0.2802
N13965 X4.5874 Y3.5229
N13970 X4.5849 Y3.5226 Z-0.2803
N13975 X4.5824 Y3.5221 Z-0.2804
N13980 X4.58 Y3.5216 Z-0.2805
N13985 X4.5776 Y3.5209 Z-0.2806
N13990 X4.5752 Y3.5201 Z-0.2807
N13995 X4.5728 Y3.5192 Z-0.2808
N14000 X4.5705 Y3.5182 Z-0.2809
N14005 X4.5683 Y3.5171
N14010 X4.5661 Y3.5159 Z-0.281
N14015 X4.5639 Y3.5146 Z-0.2811
N14020 X4.5618 Y3.5132 Z-0.2812
N14025 X4.5598 Y3.5117 Z-0.2813
N14030 X4.5579 Y3.5101 Z-0.2814
N14035 X4.556 Y3.5085 Z-0.2815
N14040 X4.5543 Y3.5067 Z-0.2816
N14045 X4.5526 Y3.5049
N14050 X4.5509 Y3.503 Z-0.2817
N14055 X4.5494 Y3.501 Z-0.2818
N14060 X4.548 Y3.4989 Z-0.2819
N14065 X4.5466 Y3.4968 Z-0.282
N14070 X4.546 Y3.4957
N14075 X4.5454 Y3.4946 Z-0.2821
N14080 X4.5443 Y3.4924 Z-0.2822
N14085 X4.5432 Y3.4901 Z-0.2823
N14090 X4.5423 Y3.4877
N14095 X4.5415 Y3.4854 Z-0.2824
N14100 X4.5408 Y3.483 Z-0.2825
N14105 X4.5402 Y3.4805 Z-0.2826
N14110 X4.5397 Y3.4781 Z-0.2827
N14115 X4.5394 Y3.4756 Z-0.2828
N14120 X4.5391 Y3.4731 Z-0.2829
N14125 X4.539 Y3.4706 Z-0.283
N14130 Y3.4681
N14135 X4.5391 Y3.4656 Z-0.2831
N14140 X4.5393 Y3.4631 Z-0.2832
N14145 X4.5396 Y3.4606 Z-0.2833
N14150 X4.5401 Y3.4581 Z-0.2834
N14155 X4.5406 Y3.4557 Z-0.2835
N14160 X4.5413 Y3.4533 Z-0.2836
N14165 X4.5421 Y3.4509 Z-0.2837
N14170 X4.543 Y3.4485
N14175 X4.544 Y3.4462 Z-0.2838
N14180 X4.5451 Y3.444 Z-0.2839
N14185 X4.5463 Y3.4418 Z-0.284
N14190 X4.5476 Y3.4396 Z-0.2841
N14195 X4.549 Y3.4376 Z-0.2842
N14200 X4.5505 Y3.4356 Z-0.2843
N14205 X4.5521 Y3.4336 Z-0.2844
N14210 X4.5537 Y3.4318
N14215 X4.5555 Y3.43 Z-0.2845
N14220 X4.5573 Y3.4283 Z-0.2846
N14225 X4.5592 Y3.4267 Z-0.2847
N14230 X4.5612 Y3.4252 Z-0.2848
N14235 X4.5632 Y3.4237 Z-0.2849
N14240 X4.5654 Y3.4224 Z-0.285
N14245 X4.5664 Y3.4218
N14250 X4.5675 Y3.4212 Z-0.2851
N14255 X4.5698 Y3.42
N14260 X4.572 Y3.419 Z-0.2852
N14265 X4.5744 Y3.4181 Z-0.2853
N14270 X4.5767 Y3.4173 Z-0.2854
N14275 X4.5791 Y3.4166 Z-0.2855
N14280 X4.5816 Y3.416 Z-0.2856
N14285 X4.584 Y3.4155 Z-0.2857
N14290 X4.5865 Y3.4152 Z-0.2858
N14295 X4.589 Y3.4149
N14300 X4.5915 Y3.4148 Z-0.2859
N14305 X4.594 Z-0.286
N14310 X4.5965 Y3.4149 Z-0.2861
N14315 X4.599 Y3.4151 Z-0.2862
N14320 X4.6014 Y3.4154 Z-0.2863
N14325 X4.6039 Y3.4158 Z-0.2864
N14330 X4.6063 Y3.4164
N14335 X4.6087 Y3.4171 Z-0.2865
N14340 X4.6111 Y3.4178 Z-0.2866
N14345 X4.6135 Y3.4187 Z-0.2867
N14350 X4.6158 Y3.4197 Z-0.2868
N14355 X4.618 Y3.4208 Z-0.2869
N14360 X4.6202 Y3.422 Z-0.287
N14365 X4.6223 Y3.4233 Z-0.2871
N14370 X4.6244 Y3.4247
N14375 X4.6264 Y3.4262 Z-0.2872
N14380 X4.6283 Y3.4278 Z-0.2873
N14385 X4.6302 Y3.4295 Z-0.2874
N14390 X4.6319 Y3.4312 Z-0.2875
N14395 X4.6336 Y3.433 Z-0.2876
N14400 X4.6352 Y3.4349 Z-0.2877
N14405 X4.6367 Y3.4369 Z-0.2878
N14410 X4.6382 Y3.439
N14415 X4.6395 Y3.4411 Z-0.2879
N14420 X4.6407 Y3.4432 Z-0.288
N14425 X4.6413 Y3.4444 Z-0.2881
N14430 X4.6419 Y3.4455
N14435 X4.6429 Y3.4477 Z-0.2882
N14440 X4.6438 Y3.4501 Z-0.2883
N14445 X4.6446 Y3.4524 Z-0.2884
N14450 X4.6453 Y3.4548
N14455 X4.6459 Y3.4572 Z-0.2885
N14460 X4.6464 Y3.4597 Z-0.2886
N14465 X4.6467 Y3.4621 Z-0.2887
N14470 X4.647 Y3.4646 Z-0.2888
N14475 X4.6471 Y3.4671 Z-0.2889
N14480 X4.647 Y3.4721 Z-0.2891
N14485 X4.6468 Y3.4745
N14490 X4.6465 Y3.477 Z-0.2892
N14495 X4.6455 Y3.4819 Z-0.2894
N14500 X4.6448 Y3.4843 Z-0.2895
N14505 X4.644 Y3.4867 Z-0.2896
N14510 X4.6421 Y3.4913 Z-0.2897
N14515 X4.6399 Y3.4957 Z-0.2899
N14520 X4.6386 Y3.4978 Z-0.29
N14525 X4.6372 Y3.4999 Z-0.2901
N14530 X4.6357 Y3.5019 Z-0.2902
N14535 X4.6341 Y3.5039 Z-0.2903
N14540 X4.6325 Y3.5057 Z-0.2904
N14545 X4.6307 Y3.5075
N14550 X4.6289 Y3.5091 Z-0.2905
N14555 X4.627 Y3.5107 Z-0.2906
N14560 X4.625 Y3.5123 Z-0.2907
N14565 X4.623 Y3.5137 Z-0.2908
N14570 X4.6219 Y3.5143
N14575 X4.6209 Y3.515 Z-0.2909
N14580 X4.6187 Y3.5162 Z-0.291
N14585 X4.6165 Y3.5173 Z-0.2911
N14590 X4.6142 Y3.5184
N14595 X4.6119 Y3.5193 Z-0.2912
N14600 X4.6096 Y3.5201 Z-0.2913
N14605 X4.6072 Y3.5208 Z-0.2914
N14610 X4.6048 Y3.5214 Z-0.2915
N14615 X4.6023 Y3.5218 Z-0.2916
N14620 X4.5999 Y3.5222 Z-0.2917
N14625 X4.5974 Y3.5224
N14630 X4.5949 Y3.5226 Z-0.2918
N14635 X4.5924 Z-0.2919
N14640 X4.59 Y3.5225 Z-0.292
N14645 X4.5875 Y3.5223 Z-0.2921
N14650 X4.585 Y3.5219 Z-0.2922
N14655 X4.5826 Y3.5215 Z-0.2923
N14660 X4.5801 Y3.5209 Z-0.2924
N14665 X4.5778 Y3.5203
N14670 X4.5754 Y3.5195 Z-0.2925
N14675 X4.5731 Y3.5186 Z-0.2926
N14680 X4.5708 Y3.5176 Z-0.2927
N14685 X4.5686 Y3.5166 Z-0.2928
N14690 X4.5664 Y3.5154 Z-0.2929
N14695 X4.5643 Y3.5141 Z-0.293
N14700 X4.5622 Y3.5127
N14705 X4.5603 Y3.5112 Z-0.2931
N14710 X4.5583 Y3.5096 Z-0.2932
N14715 X4.5565 Y3.508 Z-0.2933
N14720 X4.5547 Y3.5062 Z-0.2934
N14725 X4.5531 Y3.5044 Z-0.2935
N14730 X4.5515 Y3.5025 Z-0.2936
N14735 X4.55 Y3.5006
N14740 X4.5485 Y3.4985 Z-0.2937
N14745 X4.5472 Y3.4964 Z-0.2938
N14750 X4.5466 Y3.4954 Z-0.2939
N14755 X4.546 Y3.4943
N14760 X4.5449 Y3.4921 Z-0.294
N14765 X4.5439 Y3.4898 Z-0.2941
N14770 X4.543 Y3.4875 Z-0.2942
N14775 X4.5422 Y3.4852 Z-0.2943
N14780 X4.5415 Y3.4828
N14785 X4.5409 Y3.4804 Z-0.2944
N14790 X4.5404 Y3.478 Z-0.2945
N14795 X4.5401 Y3.4755 Z-0.2946
N14800 X4.5398 Y3.473 Z-0.2947
N14805 X4.5397 Y3.4706 Z-0.2948
N14810 Y3.4681 Z-0.2949
N14815 X4.5398 Y3.4656
N14820 X4.54 Y3.4632 Z-0.295
N14825 X4.5403 Y3.4607 Z-0.2951
N14830 X4.5407 Y3.4583 Z-0.2952
N14835 X4.5413 Y3.4559 Z-0.2953
N14840 X4.5419 Y3.4535 Z-0.2954
N14845 X4.5427 Y3.4511 Z-0.2955
N14850 X4.5436 Y3.4488
N14855 X4.5446 Y3.4465 Z-0.2956
N14860 X4.5457 Y3.4443 Z-0.2957
N14865 X4.5469 Y3.4421 Z-0.2958
N14870 X4.5481 Y3.44 Z-0.2959
N14875 X4.5495 Y3.438 Z-0.296
N14880 X4.551 Y3.436 Z-0.2961
N14885 X4.5526 Y3.4341 Z-0.2962
N14890 X4.5542 Y3.4323
N14895 X4.556 Y3.4305 Z-0.2963
N14900 X4.5578 Y3.4288 Z-0.2964
N14905 X4.5596 Y3.4272 Z-0.2965
N14910 X4.5616 Y3.4257 Z-0.2966
N14915 X4.5636 Y3.4243 Z-0.2967
N14920 X4.5657 Y3.423 Z-0.2968
N14925 X4.5668 Y3.4224
N14930 X4.5679 Y3.4218
N14935 X4.5701 Y3.4207 Z-0.2969
N14940 X4.5723 Y3.4197 Z-0.297
N14945 X4.5746 Y3.4188 Z-0.2971
N14950 X4.577 Y3.418 Z-0.2972
N14955 X4.5793 Y3.4173 Z-0.2973
N14960 X4.5817 Y3.4167 Z-0.2974
N14965 X4.5842 Y3.4162
N14970 X4.5866 Y3.4159 Z-0.2975
N14975 X4.5891 Y3.4156 Z-0.2976
N14980 X4.5915 Y3.4155 Z-0.2977
N14985 X4.594 Z-0.2978
N14990 X4.5964 Y3.4156 Z-0.2979
N14995 X4.5989 Y3.4158 Z-0.298
N15000 X4.6013 Y3.4161
N15005 X4.6037 Y3.4165 Z-0.2981
N15010 X4.6061 Y3.4171 Z-0.2982
N15015 X4.6085 Y3.4178 Z-0.2983
N15020 X4.6109 Y3.4185 Z-0.2984
N15025 X4.6132 Y3.4194 Z-0.2985
N15030 X4.6155 Y3.4204 Z-0.2986
N15035 X4.6177 Y3.4215
N15040 X4.6198 Y3.4227 Z-0.2987
N15045 X4.6219 Y3.4239 Z-0.2988
N15050 X4.624 Y3.4253 Z-0.2989
N15055 X4.6259 Y3.4268 Z-0.299
N15060 X4.6278 Y3.4283 Z-0.2991
N15065 X4.6297 Y3.43 Z-0.2992
N15070 X4.6314 Y3.4317
N15075 X4.6331 Y3.4335 Z-0.2993
N15080 X4.6347 Y3.4354 Z-0.2994
N15085 X4.6362 Y3.4373 Z-0.2995
N15090 X4.6376 Y3.4394 Z-0.2996
N15095 X4.6389 Y3.4414 Z-0.2997
N15100 X4.6401 Y3.4436 Z-0.2998
N15105 X4.6407 Y3.4447
N15110 X4.6412 Y3.4458
N15115 X4.6422 Y3.448 Z-0.2999
N15120 X4.6431 Y3.4503 Z-0.3
N15125 X4.6439 Y3.4526 Z-0.3001
N15130 X4.6446 Y3.455 Z-0.3002
N15135 X4.6452 Y3.4574 Z-0.3003
N15140 X4.6457 Y3.4598 Z-0.3004
N15145 X4.646 Y3.4622
N15150 X4.6463 Y3.4647 Z-0.3005
N15155 X4.6464 Y3.4671 Z-0.3006
N15160 X4.6463 Y3.472 Z-0.3008
N15165 X4.6461 Y3.4745 Z-0.3009
N15170 X4.6457 Y3.4769 Z-0.301
N15175 X4.6448 Y3.4817 Z-0.3011
N15180 X4.6441 Y3.4841 Z-0.3012
N15185 X4.6434 Y3.4864 Z-0.3013
N15190 X4.6415 Y3.491 Z-0.3015
N15195 X4.6392 Y3.4953 Z-0.3016
N15200 X4.638 Y3.4975 Z-0.3017
N15205 X4.6366 Y3.4995 Z-0.3018
N15210 X4.6351 Y3.5015 Z-0.3019
N15215 X4.6336 Y3.5034 Z-0.302
N15220 X4.6319 Y3.5052 Z-0.3021
N15225 X4.6302 Y3.5069 Z-0.3022
N15230 X4.6284 Y3.5086
N15235 X4.6266 Y3.5102 Z-0.3023
N15240 X4.6246 Y3.5117 Z-0.3024
N15245 X4.6226 Y3.5131 Z-0.3025
N15250 X4.6215 Y3.5137
N15255 X4.6205 Y3.5144 Z-0.3026
N15260 X4.6184 Y3.5156 Z-0.3027
N15265 X4.6162 Y3.5167 Z-0.3028
N15270 X4.6139 Y3.5177
N15275 X4.6117 Y3.5186 Z-0.3029
N15280 X4.6094 Y3.5194 Z-0.303
N15285 X4.607 Y3.5201 Z-0.3031
N15290 X4.6046 Y3.5207 Z-0.3032
N15295 X4.6022 Y3.5211 Z-0.3033
N15300 X4.5998 Y3.5215 Z-0.3034
N15305 X4.5973 Y3.5217
N15310 X4.5949 Y3.5218 Z-0.3035
N15315 X4.5924 Y3.5219 Z-0.3036
N15320 X4.59 Y3.5218 Z-0.3037
N15325 X4.5876 Y3.5216 Z-0.3038
N15330 X4.5851 Y3.5212 Z-0.3039
N15335 X4.5827 Y3.5208 Z-0.304
N15340 X4.5803 Y3.5203
N15345 X4.578 Y3.5196 Z-0.3041
N15350 X4.5756 Y3.5188 Z-0.3042
N15355 X4.5734 Y3.518 Z-0.3043
N15360 X4.5711 Y3.517 Z-0.3044
N15365 X4.5689 Y3.5159 Z-0.3045
N15370 X4.5668 Y3.5147 Z-0.3046
N15375 X4.5647 Y3.5135
N15380 X4.5627 Y3.5121 Z-0.3047
N15385 X4.5607 Y3.5106 Z-0.3048
N15390 X4.5588 Y3.5091 Z-0.3049
N15395 X4.557 Y3.5075 Z-0.305
N15400 X4.5552 Y3.5057 Z-0.3051
N15405 X4.5536 Y3.5039
N15410 X4.552 Y3.5021 Z-0.3052
N15415 X4.5505 Y3.5001 Z-0.3053
N15420 X4.5491 Y3.4981 Z-0.3054
N15425 X4.5478 Y3.4961 Z-0.3055
N15430 X4.5472 Y3.495
N15435 X4.5466 Y3.4939 Z-0.3056
N15440 X4.5455 Y3.4918 Z-0.3057
N15445 X4.5445 Y3.4895
N15450 X4.5436 Y3.4873 Z-0.3058
N15455 X4.5428 Y3.4849 Z-0.3059
N15460 X4.5422 Y3.4826 Z-0.306
N15465 X4.5416 Y3.4802 Z-0.3061
N15470 X4.5411 Y3.4778 Z-0.3062
N15475 X4.5408 Y3.4754 Z-0.3063
N15480 X4.5405 Y3.473
N15485 X4.5404 Y3.4705 Z-0.3064
N15490 Y3.4681 Z-0.3065
N15495 X4.5405 Y3.4657 Z-0.3066
N15500 X4.5407 Y3.4632 Z-0.3067
N15505 X4.541 Y3.4608 Z-0.3068
N15510 X4.5414 Y3.4584 Z-0.3069
N15515 X4.542 Y3.456
N15520 X4.5426 Y3.4537 Z-0.307
N15525 X4.5434 Y3.4513 Z-0.3071
N15530 X4.5443 Y3.4491 Z-0.3072
N15535 X4.5452 Y3.4468 Z-0.3073
N15540 X4.5463 Y3.4446 Z-0.3074
N15545 X4.5475 Y3.4425
N15550 X4.5487 Y3.4404 Z-0.3075
N15555 X4.5501 Y3.4384 Z-0.3076
N15560 X4.5516 Y3.4364 Z-0.3077
N15565 X4.5531 Y3.4346 Z-0.3078
N15570 X4.5547 Y3.4327 Z-0.3079
N15575 X4.5564 Y3.431 Z-0.308
N15580 X4.5582 Y3.4294
N15585 X4.5601 Y3.4278 Z-0.3081
N15590 X4.562 Y3.4263 Z-0.3082
N15595 X4.564 Y3.4249 Z-0.3083
N15600 X4.5661 Y3.4236 Z-0.3084
N15605 X4.5671 Y3.423
N15610 X4.5682 Y3.4224 Z-0.3085
N15615 X4.5704 Y3.4213 Z-0.3086
N15620 X4.5726 Y3.4203
N15625 X4.5749 Y3.4194 Z-0.3087
N15630 X4.5772 Y3.4186 Z-0.3088
N15635 X4.5795 Y3.418 Z-0.3089
N15640 X4.5819 Y3.4174 Z-0.309
N15645 X4.5843 Y3.4169 Z-0.3091
N15650 X4.5867 Y3.4166
N15655 X4.5891 Y3.4163 Z-0.3092
N15660 X4.5915 Y3.4162 Z-0.3093
N15665 X4.594 Z-0.3094
N15670 X4.5964 Y3.4163 Z-0.3095
N15675 X4.5988 Y3.4165 Z-0.3096
N15680 X4.6012 Y3.4168 Z-0.3097
N15685 X4.6036 Y3.4172
N15690 X4.606 Y3.4178 Z-0.3098
N15695 X4.6083 Y3.4184 Z-0.3099
N15700 X4.6106 Y3.4192 Z-0.31
N15705 X4.6129 Y3.4201 Z-0.3101
N15710 X4.6152 Y3.421 Z-0.3102
N15715 X4.6173 Y3.4221
N15720 X4.6195 Y3.4233 Z-0.3103
N15725 X4.6215 Y3.4245 Z-0.3104
N15730 X4.6236 Y3.4259 Z-0.3105
N15735 X4.6255 Y3.4273 Z-0.3106
N15740 X4.6274 Y3.4289 Z-0.3107
N15745 X4.6292 Y3.4305 Z-0.3108
N15750 X4.6309 Y3.4322
N15755 X4.6326 Y3.434 Z-0.3109
N15760 X4.6341 Y3.4358 Z-0.311
N15765 X4.6356 Y3.4378 Z-0.3111
N15770 X4.637 Y3.4398 Z-0.3112
N15775 X4.6383 Y3.4418 Z-0.3113
N15780 X4.6395 Y3.4439
N15785 X4.64 Y3.445 Z-0.3114
N15790 X4.6406 Y3.4461
N15795 X4.6416 Y3.4483 Z-0.3115
N15800 X4.6425 Y3.4506 Z-0.3116
N15805 X4.6433 Y3.4529 Z-0.3117
N15810 X4.6439 Y3.4552 Z-0.3118
N15815 X4.6445 Y3.4575 Z-0.3119
N15820 X4.645 Y3.4599
N15825 X4.6453 Y3.4623 Z-0.312
N15830 X4.6456 Y3.4647 Z-0.3121
N15835 X4.6457 Y3.4672 Z-0.3122
N15840 X4.6456 Y3.472 Z-0.3124
N15845 X4.6454 Y3.4744
N15850 X4.645 Y3.4768 Z-0.3125
N15855 X4.6441 Y3.4816 Z-0.3127
N15860 X4.6434 Y3.4839 Z-0.3128
N15865 X4.6427 Y3.4862 Z-0.3129
N15870 X4.6408 Y3.4907 Z-0.313
N15875 X4.6386 Y3.495 Z-0.3132
N15880 X4.6374 Y3.4971 Z-0.3133
N15885 X4.636 Y3.4991 Z-0.3134
N15890 X4.6346 Y3.501 Z-0.3135
N15895 X4.633 Y3.5029
N15900 X4.6314 Y3.5047 Z-0.3136
N15905 X4.6297 Y3.5064 Z-0.3137
N15910 X4.628 Y3.5081 Z-0.3138
N15915 X4.6261 Y3.5096 Z-0.3139
N15920 X4.6242 Y3.5111 Z-0.314
N15925 X4.6222 Y3.5125 Z-0.3141
N15930 X4.6212 Y3.5131
N15935 X4.6201 Y3.5138
N15940 X4.618 Y3.515 Z-0.3142
N15945 X4.6159 Y3.5161 Z-0.3143
N15950 X4.6137 Y3.5171 Z-0.3144
N15955 X4.6114 Y3.5179 Z-0.3145
N15960 X4.6091 Y3.5187 Z-0.3146
N15965 X4.6068 Y3.5194
N15970 X4.6045 Y3.52 Z-0.3147
N15975 X4.6021 Y3.5204 Z-0.3148
N15980 X4.5997 Y3.5208 Z-0.3149
N15985 X4.598 Y3.521 Z-0.315
N15990 X4.5978
N15995 X4.5965 Y3.5211
N16000 X4.5952
N16005 X4.5927 Y3.5212 Z-0.3151
N16010 X4.5901 Y3.5211 Z-0.3152
N16015 X4.5876 Y3.5208 Z-0.3153
N16020 X4.585 Y3.5205 Z-0.3154
N16025 X4.5825 Y3.52 Z-0.3155
N16030 X4.58 Y3.5194 Z-0.3156
N16035 X4.5775 Y3.5187 Z-0.3157
N16040 X4.5751 Y3.5179 Z-0.3158
N16045 X4.5739 Y3.5174
N16050 X4.5727 Y3.5169 Z-0.3159
N16055 X4.5704 Y3.5159
N16060 X4.5681 Y3.5147 Z-0.316
N16065 X4.5659 Y3.5134 Z-0.3161
N16070 X4.5637 Y3.512 Z-0.3162
N16075 X4.5616 Y3.5105 Z-0.3163
N16080 X4.5596 Y3.5089 Z-0.3164
N16085 X4.5577 Y3.5072 Z-0.3165
N16090 X4.5559 Y3.5054 Z-0.3166
N16095 X4.5541 Y3.5035 Z-0.3167
N16100 X4.5525 Y3.5016
N16105 X4.5517 Y3.5005 Z-0.3168
N16110 X4.5509 Y3.4995
N16115 X4.5495 Y3.4974 Z-0.3169
N16120 X4.5482 Y3.4952 Z-0.317
N16125 X4.5469 Y3.493 Z-0.3171
N16130 X4.5458 Y3.4907 Z-0.3172
N16135 X4.5448 Y3.4884 Z-0.3173
N16140 X4.5439 Y3.486 Z-0.3174
N16145 X4.5431 Y3.4835 Z-0.3175
N16150 X4.5425 Y3.4811 Z-0.3176
N16155 X4.5419 Y3.4785
N16160 X4.5415 Y3.476 Z-0.3177
N16165 X4.5414 Y3.4747 Z-0.3178
N16170 X4.5412 Y3.4734
N16175 X4.5411 Y3.4709 Z-0.3179
N16180 Y3.4683 Z-0.318
N16185 X4.5412 Y3.4658 Z-0.3181
N16190 X4.5414 Y3.4633 Z-0.3182
N16195 X4.5417 Y3.4607 Z-0.3183
N16200 X4.5422 Y3.4582 Z-0.3184
N16205 X4.5428 Y3.4557
N16210 X4.5435 Y3.4532 Z-0.3185
N16215 X4.5443 Y3.4508 Z-0.3186
N16220 X4.5453 Y3.4484 Z-0.3187
N16225 X4.5458 Y3.4473 Z-0.3188
N16230 X4.5463 Y3.4461
N16235 X4.5475 Y3.4438 Z-0.3189
N16240 X4.5488 Y3.4416 Z-0.319
N16245 X4.5502 Y3.4395 Z-0.3191
N16250 X4.5517 Y3.4374 Z-0.3192
N16255 X4.5533 Y3.4354
N16260 X4.555 Y3.4335 Z-0.3193
N16265 X4.5568 Y3.4317 Z-0.3194
N16270 X4.5587 Y3.4299 Z-0.3195
N16275 X4.5606 Y3.4283 Z-0.3196
N16280 X4.5616 Y3.4275
N16285 X4.5627 Y3.4267 Z-0.3197
N16290 X4.5648 Y3.4253 Z-0.3198
N16295 X4.567 Y3.4239 Z-0.3199
N16300 X4.5692 Y3.4227 Z-0.32
N16305 X4.5715 Y3.4216
N16310 X4.5738 Y3.4206 Z-0.3201
N16315 X4.5762 Y3.4197 Z-0.3202
N16320 X4.5787 Y3.4189 Z-0.3203
N16325 X4.5811 Y3.4183 Z-0.3204
N16330 X4.5836 Y3.4178 Z-0.3205
N16335 X4.5861 Y3.4173 Z-0.3206
N16340 X4.5874 Y3.4172
N16345 X4.5886 Y3.4171 Z-0.3207
N16350 X4.5912 Y3.4169 Z-0.3208
N16355 X4.5937
N16360 X4.5963 Y3.417 Z-0.3209
N16365 X4.5989 Y3.4172 Z-0.321
N16370 X4.6014 Y3.4175 Z-0.3211
N16375 X4.6039 Y3.418 Z-0.3212
N16380 X4.6064 Y3.4186 Z-0.3213
N16385 X4.6088 Y3.4193 Z-0.3214
N16390 X4.6112 Y3.4201 Z-0.3215
N16395 X4.6136 Y3.4211 Z-0.3216
N16400 X4.6147 Y3.4216
N16405 X4.6159 Y3.4221
N16410 X4.6181 Y3.4233 Z-0.3217
N16415 X4.6203 Y3.4246 Z-0.3218
N16420 X4.6225 Y3.426 Z-0.3219
N16425 X4.6245 Y3.4275 Z-0.322
N16430 X4.6265 Y3.4291 Z-0.3221
N16435 X4.6284 Y3.4307 Z-0.3222
N16440 X4.6303 Y3.4325 Z-0.3223
N16445 X4.632 Y3.4344 Z-0.3224
N16450 X4.6336 Y3.4364
N16455 X4.6344 Y3.4374 Z-0.3225
N16460 X4.6352 Y3.4384
N16465 X4.6366 Y3.4405 Z-0.3226
N16470 X4.638 Y3.4426 Z-0.3227
N16475 X4.6392 Y3.4449 Z-0.3228
N16480 X4.6403 Y3.4472 Z-0.3229
N16485 X4.6413 Y3.4495 Z-0.323
N16490 X4.6422 Y3.4518 Z-0.3231
N16495 X4.6429 Y3.4543 Z-0.3232
N16500 X4.6436 Y3.4567
N16505 X4.6441 Y3.4592 Z-0.3233
N16510 X4.6445 Y3.4618 Z-0.3234
N16515 X4.6447 Y3.4631 Z-0.3235
N16520 X4.6448 Y3.4643
N16525 X4.645 Y3.4668 Z-0.3236
N16530 Y3.4694 Z-0.3237
N16535 X4.6447 Y3.4744 Z-0.3239
N16540 X4.6443 Y3.477 Z-0.324
N16545 X4.6439 Y3.4795
N16550 X4.6425 Y3.4844 Z-0.3242
N16555 X4.6417 Y3.4868 Z-0.3243
N16560 X4.6408 Y3.4892 Z-0.3244
N16565 X4.6386 Y3.4937 Z-0.3246
N16570 X4.6373 Y3.4959 Z-0.3247
N16575 X4.6359 Y3.4981 Z-0.3248
N16580 X4.6344 Y3.5001
N16585 X4.6328 Y3.5021 Z-0.3249
N16590 X4.6311 Y3.504 Z-0.325
N16595 X4.6294 Y3.5058 Z-0.3251
N16600 X4.6275 Y3.5075 Z-0.3252
N16605 X4.6256 Y3.5092 Z-0.3253
N16610 X4.6246 Y3.5099
N16615 X4.6236 Y3.5107 Z-0.3254
N16620 X4.6215 Y3.5121 Z-0.3255
N16625 X4.6193 Y3.5134
N16630 X4.6171 Y3.5147 Z-0.3256
N16635 X4.6148 Y3.5158 Z-0.3257
N16640 X4.6125 Y3.5168 Z-0.3258
N16645 X4.6101 Y3.5177 Z-0.3259
N16650 X4.6077 Y3.5184 Z-0.326
N16655 X4.6052 Y3.5191 Z-0.3261
N16660 X4.6027 Y3.5196 Z-0.3262
N16665 X4.6002 Y3.52 Z-0.3263
N16670 X4.599 Y3.5202
N16675 X4.5977 Y3.5203
N16680 X4.5952 Y3.5204 Z-0.3264
N16685 X4.5927 Y3.5205 Z-0.3265
N16690 X4.5901 Y3.5204 Z-0.3266
N16695 X4.5876 Y3.5202 Z-0.3267
N16700 X4.5851 Y3.5198 Z-0.3268
N16705 X4.5826 Y3.5194 Z-0.3269
N16710 X4.5801 Y3.5188 Z-0.327
N16715 X4.5777 Y3.5181 Z-0.3271
N16720 X4.5753 Y3.5172
N16725 X4.5741 Y3.5168 Z-0.3272
N16730 X4.573 Y3.5163
N16735 X4.5707 Y3.5152 Z-0.3273
N16740 X4.5684 Y3.5141 Z-0.3274
N16745 X4.5662 Y3.5128 Z-0.3275
N16750 X4.5641 Y3.5114 Z-0.3276
N16755 X4.5621 Y3.5099 Z-0.3277
N16760 X4.5601 Y3.5083 Z-0.3278
N16765 X4.5582 Y3.5067
N16770 X4.5564 Y3.5049 Z-0.3279
N16775 X4.5547 Y3.5031 Z-0.328
N16780 X4.553 Y3.5011 Z-0.3281
N16785 X4.5523 Y3.5001 Z-0.3282
N16790 X4.5515 Y3.4991
N16795 X4.5501 Y3.497 Z-0.3283
N16800 X4.5488 Y3.4949 Z-0.3284
N16805 X4.5475 Y3.4927 Z-0.3285
N16810 X4.5464 Y3.4904 Z-0.3286
N16815 X4.5455 Y3.4881
N16820 X4.5446 Y3.4857 Z-0.3287
N16825 X4.5438 Y3.4833 Z-0.3288
N16830 X4.5432 Y3.4809 Z-0.3289
N16835 X4.5426 Y3.4784 Z-0.329
N16840 X4.5422 Y3.4759 Z-0.3291
N16845 X4.5421 Y3.4746
N16850 X4.5419 Y3.4734 Z-0.3292
N16855 X4.5418 Y3.4709 Z-0.3293
N16860 Y3.4683
