%
O07713 (Thermocyler_Block_4X4_3)
(Using high feed G1 F500. instead of G0.)
(T8 D=0.125 CR=0. - ZMIN=-0.7725 - flat end mill)
N10 G90 G94 G17
N15 G20
N20 G53 G0 Z0.

(Ramp1)
N30 T8 M6
N35 S4000 M3
N40 G54
N45 M8
N60 G0 X4.5594 Y3.8465
N65 G43 Z0.5906 H8
N70 G0 Z0.076
N75 G1 Z0. F8.
N80 G3 X4.5503 Y3.8253 I-0.0001 J-0.0125
N85 G1 X4.5506 Y3.825
N90 X4.5532 Y3.8226 Z-0.0001
N95 X4.5538 Y3.8221 Z-0.0002
N100 X4.5587 Y3.8183 Z-0.0004
N105 X4.5615 Y3.8166 Z-0.0005
N110 X4.5643 Y3.8149 Z-0.0006
N115 X4.5699 Y3.8123 Z-0.0008
N120 X4.5731 Y3.8111 Z-0.0009
N125 X4.5755 Y3.8103 Z-0.001
N130 X4.5811 Y3.8089 Z-0.0012
N135 X4.5867 Y3.808 Z-0.0014
N140 X4.5894 Y3.8078 Z-0.0015
N145 X4.5922 Y3.8077 Z-0.0016
N150 X4.5978 Y3.8079 Z-0.0018
N155 X4.6034 Y3.8086 Z-0.002
N160 X4.609 Y3.8098 Z-0.0022
N165 X4.6132 Y3.8111 Z-0.0024
N170 X4.6146 Y3.8115
N175 X4.6202 Y3.8139 Z-0.0026
N180 X4.6226 Y3.8152 Z-0.0027
N185 X4.625 Y3.8166 Z-0.0028
N190 X4.6257 Y3.8171 Z-0.0029
N195 X4.6313 Y3.821 Z-0.0031
N200 X4.6326 Y3.8221 Z-0.0032
N205 X4.6369 Y3.826 Z-0.0034
N210 X4.6383 Y3.8276
N215 X4.6405 Y3.8301 Z-0.0035
N220 X4.6425 Y3.8326 Z-0.0037
N225 X4.6428 Y3.8331
N230 X4.6463 Y3.8386 Z-0.0039
N235 X4.6481 Y3.8418 Z-0.004
N240 X4.6491 Y3.8441 Z-0.0041
N245 X4.6513 Y3.8496 Z-0.0043
N250 X4.6521 Y3.8523 Z-0.0044
N255 X4.6528 Y3.8551 Z-0.0045
N260 X4.6536 Y3.8592 Z-0.0047
N265 X4.6538 Y3.8606
N270 X4.6543 Y3.8661 Z-0.0049
N275 Y3.8716 Z-0.0051
N280 X4.6538 Y3.8771 Z-0.0053
N285 X4.6536 Y3.8785 Z-0.0054
N290 X4.6528 Y3.8826 Z-0.0055
N295 X4.6521 Y3.8854 Z-0.0056
N300 X4.6513 Y3.8881 Z-0.0057
N305 X4.6491 Y3.8936 Z-0.0059
N310 X4.6481 Y3.8959 Z-0.006
N315 X4.6463 Y3.8991 Z-0.0061
N320 X4.6428 Y3.9046 Z-0.0063
N325 X4.6425 Y3.9051 Z-0.0064
N330 X4.6405 Y3.9076 Z-0.0065
N335 X4.6383 Y3.9101 Z-0.0066
N340 X4.6369 Y3.9117 Z-0.0067
N345 X4.6326 Y3.9156 Z-0.0069
N350 X4.6313 Y3.9167
N355 X4.6257 Y3.9206 Z-0.0072
N360 X4.625 Y3.9211
N365 X4.6226 Y3.9225 Z-0.0073
N370 X4.6202 Y3.9238 Z-0.0074
N375 X4.6146 Y3.9262 Z-0.0076
N380 X4.6132 Y3.9266 Z-0.0077
N385 X4.609 Y3.9279 Z-0.0078
N390 X4.6034 Y3.9292 Z-0.008
N395 X4.5978 Y3.9298 Z-0.0082
N400 X4.5922 Y3.93 Z-0.0084
N405 X4.5894 Y3.9299 Z-0.0085
N410 X4.5867 Y3.9297 Z-0.0086
N415 X4.5811 Y3.9288 Z-0.0088
N420 X4.5755 Y3.9274 Z-0.009
N425 X4.5731 Y3.9266 Z-0.0091
N430 X4.5699 Y3.9254 Z-0.0092
N435 X4.5643 Y3.9228 Z-0.0094
N440 X4.5615 Y3.9211 Z-0.0095
N445 X4.5587 Y3.9194 Z-0.0096
N450 X4.5538 Y3.9156 Z-0.0099
N455 X4.5532 Y3.9151
N460 X4.5506 Y3.9127 Z-0.01
N465 X4.5481 Y3.9101 Z-0.0101
N470 X4.5476 Y3.9096 Z-0.0102
N475 X4.5436 Y3.9046 Z-0.0104
N480 X4.542 Y3.9023 Z-0.0105
N485 X4.54 Y3.8991 Z-0.0106
N490 X4.5386 Y3.8964 Z-0.0107
N495 X4.5373 Y3.8936 Z-0.0108
N500 X4.5364 Y3.8915 Z-0.0109
N505 X4.5352 Y3.8881 Z-0.011
N510 X4.5336 Y3.8826 Z-0.0112
N515 X4.5326 Y3.8771 Z-0.0114
N520 X4.5321 Y3.8716 Z-0.0116
N525 Y3.8689 Z-0.0117
N530 Y3.8661 Z-0.0118
N535 X4.5326 Y3.8606 Z-0.012
N540 X4.5336 Y3.8551 Z-0.0122
N545 X4.5352 Y3.8496 Z-0.0124
N550 X4.5364 Y3.8462 Z-0.0125
N555 X4.5373 Y3.8441 Z-0.0126
N560 X4.5386 Y3.8413 Z-0.0127
N565 X4.54 Y3.8386 Z-0.0128
N570 X4.542 Y3.8354 Z-0.013
N575 X4.5436 Y3.8331 Z-0.0131
N580 X4.5476 Y3.8281 Z-0.0133
N585 X4.5481 Y3.8276
N590 X4.5506 Y3.825 Z-0.0134
N595 X4.5532 Y3.8226 Z-0.0136
N600 X4.5538 Y3.8221
N605 X4.5587 Y3.8183 Z-0.0138
N610 X4.5615 Y3.8166 Z-0.0139
N615 X4.5643 Y3.8149 Z-0.014
N620 X4.5699 Y3.8123 Z-0.0142
N625 X4.5731 Y3.8111 Z-0.0144
N630 X4.5755 Y3.8103
N635 X4.5811 Y3.8089 Z-0.0147
N640 X4.5867 Y3.808 Z-0.0148
N645 X4.5894 Y3.8078 Z-0.0149
N650 X4.5922 Y3.8077 Z-0.015
N655 X4.5978 Y3.8079 Z-0.0152
N660 X4.6034 Y3.8086 Z-0.0154
N665 X4.609 Y3.8098 Z-0.0156
N670 X4.6132 Y3.8111 Z-0.0158
N675 X4.6146 Y3.8115
N680 X4.6202 Y3.8139 Z-0.0161
N685 X4.6226 Y3.8152
N690 X4.625 Y3.8166 Z-0.0162
N695 X4.6257 Y3.8171 Z-0.0163
N700 X4.6313 Y3.821 Z-0.0165
N705 X4.6326 Y3.8221 Z-0.0166
N710 X4.6369 Y3.826 Z-0.0168
N715 X4.6383 Y3.8276
N720 X4.6405 Y3.8301 Z-0.017
N725 X4.6425 Y3.8326 Z-0.0171
N730 X4.6428 Y3.8331
N735 X4.6463 Y3.8386 Z-0.0173
N740 X4.6481 Y3.8418 Z-0.0175
N745 X4.6491 Y3.8441
N750 X4.6513 Y3.8496 Z-0.0177
N755 X4.6521 Y3.8523 Z-0.0178
N760 X4.6528 Y3.8551 Z-0.0179
N765 X4.6536 Y3.8592 Z-0.0181
N770 X4.6538 Y3.8606
N775 X4.6543 Y3.8661 Z-0.0183
N780 Y3.8716 Z-0.0185
N785 X4.6538 Y3.8771 Z-0.0187
N790 X4.6536 Y3.8785 Z-0.0188
N795 X4.6528 Y3.8826 Z-0.0189
N800 X4.6521 Y3.8854 Z-0.019
N805 X4.6513 Y3.8881 Z-0.0191
N810 X4.6491 Y3.8936 Z-0.0193
N815 X4.6481 Y3.8959 Z-0.0194
N820 X4.6463 Y3.8991 Z-0.0195
N825 X4.6428 Y3.9046 Z-0.0198
N830 X4.6425 Y3.9051
N835 X4.6405 Y3.9076 Z-0.0199
N840 X4.6383 Y3.9101 Z-0.02
N845 X4.6369 Y3.9117 Z-0.0201
N850 X4.6326 Y3.9156 Z-0.0203
N855 X4.6313 Y3.9167 Z-0.0204
N860 X4.6257 Y3.9206 Z-0.0206
N865 X4.625 Y3.9211
N870 X4.6226 Y3.9225 Z-0.0207
N875 X4.6202 Y3.9238 Z-0.0208
N880 X4.6146 Y3.9262 Z-0.021
N885 X4.6132 Y3.9266 Z-0.0211
N890 X4.609 Y3.9279 Z-0.0212
N895 X4.6034 Y3.9292 Z-0.0214
N900 X4.5978 Y3.9298 Z-0.0216
N905 X4.5922 Y3.93 Z-0.0218
N910 X4.5894 Y3.9299 Z-0.0219
N915 X4.5867 Y3.9297 Z-0.022
N920 X4.5811 Y3.9288 Z-0.0222
N925 X4.5755 Y3.9274 Z-0.0224
N930 X4.5731 Y3.9266 Z-0.0225
N935 X4.5699 Y3.9254 Z-0.0226
N940 X4.5643 Y3.9228 Z-0.0228
N945 X4.5615 Y3.9211 Z-0.023
N950 X4.5587 Y3.9194 Z-0.0231
N955 X4.5538 Y3.9156 Z-0.0233
N960 X4.5532 Y3.9151
N965 X4.5506 Y3.9127 Z-0.0234
N970 X4.5481 Y3.9101 Z-0.0236
N975 X4.5476 Y3.9096
N980 X4.5436 Y3.9046 Z-0.0238
N985 X4.542 Y3.9023 Z-0.0239
N990 X4.54 Y3.8991 Z-0.024
N995 X4.5386 Y3.8964 Z-0.0241
N1000 X4.5373 Y3.8936 Z-0.0243
N1005 X4.5364 Y3.8915
N1010 X4.5352 Y3.8881 Z-0.0245
N1015 X4.5336 Y3.8826 Z-0.0247
N1020 X4.5326 Y3.8771 Z-0.0249
N1025 X4.5321 Y3.8716 Z-0.025
N1030 Y3.8689 Z-0.0251
N1035 Y3.8661 Z-0.0252
N1040 X4.5326 Y3.8606 Z-0.0254
N1045 X4.5336 Y3.8551 Z-0.0256
N1050 X4.5352 Y3.8496 Z-0.0258
N1055 X4.5364 Y3.8462 Z-0.026
N1060 X4.5373 Y3.8441
N1065 X4.5386 Y3.8413 Z-0.0261
N1070 X4.54 Y3.8386 Z-0.0262
N1075 X4.542 Y3.8354 Z-0.0264
N1080 X4.5436 Y3.8331 Z-0.0265
N1085 X4.5476 Y3.8281 Z-0.0267
N1090 X4.5481 Y3.8276
N1095 X4.5506 Y3.825 Z-0.0268
N1100 X4.5532 Y3.8226 Z-0.027
N1105 X4.5538 Y3.8221
N1110 X4.5587 Y3.8183 Z-0.0272
N1115 X4.5615 Y3.8166 Z-0.0273
N1120 X4.5643 Y3.8149 Z-0.0274
N1125 X4.5699 Y3.8123 Z-0.0277
N1130 X4.5731 Y3.8111 Z-0.0278
N1135 X4.5755 Y3.8103 Z-0.0279
N1140 X4.5811 Y3.8089 Z-0.0281
N1145 X4.5867 Y3.808 Z-0.0283
N1150 X4.5894 Y3.8078 Z-0.0284
N1155 X4.5922 Y3.8077 Z-0.0285
N1160 X4.5978 Y3.8079 Z-0.0287
N1165 X4.6034 Y3.8086 Z-0.0289
N1170 X4.609 Y3.8098 Z-0.0291
N1175 X4.6132 Y3.8111 Z-0.0292
N1180 X4.6146 Y3.8115 Z-0.0293
N1185 X4.6202 Y3.8139 Z-0.0295
N1190 X4.6226 Y3.8152 Z-0.0296
N1195 X4.625 Y3.8166 Z-0.0297
N1200 X4.6257 Y3.8171
N1205 X4.6313 Y3.821 Z-0.0299
N1210 X4.6326 Y3.8221 Z-0.03
N1215 X4.6369 Y3.826 Z-0.0302
N1220 X4.6383 Y3.8276 Z-0.0303
N1225 X4.6405 Y3.8301 Z-0.0304
N1230 X4.6425 Y3.8326 Z-0.0305
N1235 X4.6428 Y3.8331
N1240 X4.6463 Y3.8386 Z-0.0307
N1245 X4.6481 Y3.8418 Z-0.0309
N1250 X4.6491 Y3.8441 Z-0.031
N1255 X4.6513 Y3.8496 Z-0.0312
N1260 X4.6521 Y3.8523 Z-0.0313
N1265 X4.6528 Y3.8551 Z-0.0314
N1270 X4.6536 Y3.8592 Z-0.0315
N1275 X4.6538 Y3.8606 Z-0.0316
N1280 X4.6543 Y3.8661 Z-0.0318
N1285 Y3.8716 Z-0.0319
N1290 X4.6538 Y3.8771 Z-0.0321
N1295 X4.6536 Y3.8785 Z-0.0322
N1300 X4.6528 Y3.8826 Z-0.0323
N1305 X4.6521 Y3.8854 Z-0.0324
N1310 X4.6513 Y3.8881 Z-0.0325
N1315 X4.6491 Y3.8936 Z-0.0327
N1320 X4.6481 Y3.8959 Z-0.0328
N1325 X4.6463 Y3.8991 Z-0.033
N1330 X4.6428 Y3.9046 Z-0.0332
N1335 X4.6425 Y3.9051
N1340 X4.6405 Y3.9076 Z-0.0333
N1345 X4.6383 Y3.9101 Z-0.0334
N1350 X4.6369 Y3.9117 Z-0.0335
N1355 X4.6326 Y3.9156 Z-0.0337
N1360 X4.6313 Y3.9167 Z-0.0338
N1365 X4.6257 Y3.9206 Z-0.034
N1370 X4.625 Y3.9211
N1375 X4.6226 Y3.9225 Z-0.0341
N1380 X4.6202 Y3.9238 Z-0.0342
N1385 X4.6146 Y3.9262 Z-0.0344
N1390 X4.6132 Y3.9266 Z-0.0345
N1395 X4.609 Y3.9279 Z-0.0346
N1400 X4.6034 Y3.9292 Z-0.0348
N1405 X4.5978 Y3.9298 Z-0.035
N1410 X4.5922 Y3.93 Z-0.0352
N1415 X4.5894 Y3.9299 Z-0.0353
N1420 X4.5867 Y3.9297 Z-0.0354
N1425 X4.5811 Y3.9288 Z-0.0356
N1430 X4.5755 Y3.9274 Z-0.0358
N1435 X4.5731 Y3.9266 Z-0.0359
N1440 X4.5699 Y3.9254 Z-0.036
N1445 X4.5643 Y3.9228 Z-0.0363
N1450 X4.5615 Y3.9211 Z-0.0364
N1455 X4.5587 Y3.9194 Z-0.0365
N1460 X4.5538 Y3.9156 Z-0.0367
N1465 X4.5532 Y3.9151
N1470 X4.5506 Y3.9127 Z-0.0368
N1475 X4.5481 Y3.9101 Z-0.037
N1480 X4.5476 Y3.9096
N1485 X4.5436 Y3.9046 Z-0.0372
N1490 X4.542 Y3.9023 Z-0.0373
N1495 X4.54 Y3.8991 Z-0.0375
N1500 X4.5386 Y3.8964 Z-0.0376
N1505 X4.5373 Y3.8936 Z-0.0377
N1510 X4.5364 Y3.8915
N1515 X4.5352 Y3.8881 Z-0.0379
N1520 X4.5336 Y3.8826 Z-0.0381
N1525 X4.5326 Y3.8771 Z-0.0383
N1530 X4.5321 Y3.8716 Z-0.0385
N1535 Y3.8689 Z-0.0386
N1540 Y3.8661 Z-0.0387
N1545 X4.5326 Y3.8606 Z-0.0388
N1550 X4.5336 Y3.8551 Z-0.039
N1555 X4.5352 Y3.8496 Z-0.0392
N1560 X4.5364 Y3.8462 Z-0.0394
N1565 X4.5374 Y3.8439 Z-0.0395
N1570 X4.5384 Y3.8417
N1575 X4.5408 Y3.8373 Z-0.0397
N1580 X4.5435 Y3.8332 Z-0.0399
N1585 X4.5465 Y3.8293 Z-0.0401
N1590 X4.5499 Y3.8257 Z-0.0402
N1595 X4.5535 Y3.8224 Z-0.0404
N1600 X4.5573 Y3.8193 Z-0.0406
N1605 X4.5614 Y3.8166 Z-0.0407
N1610 X4.5657 Y3.8142 Z-0.0409
N1615 X4.5702 Y3.8122 Z-0.0411
N1620 X4.5749 Y3.8105 Z-0.0413
N1625 X4.5796 Y3.8092 Z-0.0414
N1630 X4.5845 Y3.8083 Z-0.0416
N1635 X4.5894 Y3.8078 Z-0.0418
N1640 X4.5943 Y3.8077 Z-0.0419
N1645 X4.5992 Y3.808 Z-0.0421
N1650 X4.6041 Y3.8087 Z-0.0423
N1655 X4.6089 Y3.8097 Z-0.0425
N1660 X4.6136 Y3.8112 Z-0.0426
N1665 X4.6182 Y3.813 Z-0.0428
N1670 X4.6226 Y3.8152 Z-0.043
N1675 X4.6268 Y3.8177 Z-0.0432
N1680 X4.6308 Y3.8206 Z-0.0433
N1685 X4.6346 Y3.8238 Z-0.0435
N1690 X4.638 Y3.8273 Z-0.0437
N1695 X4.6413 Y3.831 Z-0.0438
N1700 X4.6441 Y3.835 Z-0.044
N1705 X4.6467 Y3.8392 Z-0.0442
N1710 X4.6489 Y3.8436 Z-0.0444
N1715 X4.6508 Y3.8482 Z-0.0445
N1720 X4.6522 Y3.8529 Z-0.0447
N1725 X4.6533 Y3.8577 Z-0.0449
N1730 X4.654 Y3.8626 Z-0.045
N1735 X4.6544 Y3.8675 Z-0.0452
N1740 X4.6543 Y3.8724 Z-0.0454
N1745 X4.6538 Y3.8773 Z-0.0456
N1750 X4.6529 Y3.8822 Z-0.0457
N1755 X4.6516 Y3.8869 Z-0.0459
N1760 X4.65 Y3.8916 Z-0.0461
N1765 X4.648 Y3.8961 Z-0.0462
N1770 X4.6456 Y3.9004 Z-0.0464
N1775 X4.6429 Y3.9045 Z-0.0466
N1780 X4.6399 Y3.9084 Z-0.0468
N1785 X4.6366 Y3.912 Z-0.0469
N1790 X4.633 Y3.9154 Z-0.0471
N1795 X4.6291 Y3.9184 Z-0.0473
N1800 X4.625 Y3.9211 Z-0.0474
N1805 X4.6207 Y3.9235 Z-0.0476
N1810 X4.6162 Y3.9256 Z-0.0478
N1815 X4.6116 Y3.9272 Z-0.048
N1820 X4.6068 Y3.9285 Z-0.0481
N1825 X4.602 Y3.9294 Z-0.0483
N1830 X4.5971 Y3.9299 Z-0.0485
N1835 X4.5921 Y3.93 Z-0.0487
N1840 X4.5872 Y3.9298 Z-0.0488
N1845 X4.5823 Y3.9291 Z-0.049
N1850 X4.5799 Y3.9285 Z-0.0491
N1855 X4.5775 Y3.928 Z-0.0492
N1860 X4.5728 Y3.9265 Z-0.0493
N1865 X4.5682 Y3.9247 Z-0.0495
N1870 X4.5638 Y3.9225 Z-0.0497
N1875 X4.5596 Y3.92 Z-0.0499
N1880 X4.5556 Y3.9171 Z-0.05
N1885 X4.5518 Y3.9139 Z-0.0502
N1890 X4.5483 Y3.9105 Z-0.0504
N1895 X4.5451 Y3.9067 Z-0.0505
N1900 X4.5423 Y3.9027 Z-0.0507
N1905 X4.5397 Y3.8985 Z-0.0509
N1910 X4.5375 Y3.8941 Z-0.0511
N1915 X4.5356 Y3.8895 Z-0.0512
N1920 X4.5342 Y3.8848 Z-0.0514
N1925 X4.5331 Y3.88 Z-0.0516
N1930 X4.5324 Y3.8752 Z-0.0517
N1935 X4.5321 Y3.8702 Z-0.0519
N1940 Y3.8653 Z-0.0521
N1945 X4.5326 Y3.8604 Z-0.0523
N1950 X4.5335 Y3.8556 Z-0.0524
N1955 X4.5348 Y3.8508 Z-0.0526
N1960 X4.5364 Y3.8462 Z-0.0528
N1965 X4.5384 Y3.8417 Z-0.0529
N1970 X4.5408 Y3.8373 Z-0.0531
N1975 X4.5435 Y3.8332 Z-0.0533
N1980 X4.5465 Y3.8293 Z-0.0535
N1985 X4.5499 Y3.8257 Z-0.0536
N1990 X4.5535 Y3.8224 Z-0.0538
N1995 X4.5573 Y3.8193 Z-0.054
N2000 X4.5614 Y3.8166 Z-0.0542
N2005 X4.5657 Y3.8142 Z-0.0543
N2010 X4.5702 Y3.8122 Z-0.0545
N2015 X4.5749 Y3.8105 Z-0.0547
N2020 X4.5796 Y3.8092 Z-0.0548
N2025 X4.5845 Y3.8083 Z-0.055
N2030 X4.5894 Y3.8078 Z-0.0552
N2035 X4.5943 Y3.8077 Z-0.0554
N2040 X4.5992 Y3.808 Z-0.0555
N2045 X4.6041 Y3.8087 Z-0.0557
N2050 X4.6089 Y3.8097 Z-0.0559
N2055 X4.6136 Y3.8112 Z-0.056
N2060 X4.6182 Y3.813 Z-0.0562
N2065 X4.6226 Y3.8152 Z-0.0564
N2070 X4.6268 Y3.8177 Z-0.0566
N2075 X4.6308 Y3.8206 Z-0.0567
N2080 X4.6346 Y3.8238 Z-0.0569
N2085 X4.638 Y3.8273 Z-0.0571
N2090 X4.6413 Y3.831 Z-0.0572
N2095 X4.6441 Y3.835 Z-0.0574
N2100 X4.6455 Y3.8371 Z-0.0575
N2105 X4.6467 Y3.8392 Z-0.0576
N2110 X4.6489 Y3.8436 Z-0.0578
N2115 X4.6508 Y3.8482 Z-0.0579
N2120 X4.6522 Y3.8529 Z-0.0581
N2125 X4.6528 Y3.8553 Z-0.0582
N2130 X4.6533 Y3.8577 Z-0.0583
N2135 X4.654 Y3.8626 Z-0.0584
N2140 X4.6543 Y3.8675 Z-0.0586
N2145 Y3.8724 Z-0.0588
N2150 X4.6538 Y3.8773 Z-0.059
N2155 X4.6529 Y3.8822 Z-0.0591
N2160 X4.6516 Y3.8869 Z-0.0593
N2165 X4.65 Y3.8916 Z-0.0595
N2170 X4.648 Y3.8961 Z-0.0596
N2175 X4.6456 Y3.9004 Z-0.0598
N2180 X4.6429 Y3.9045 Z-0.06
N2185 X4.6414 Y3.9065 Z-0.0601
N2190 X4.6399 Y3.9084 Z-0.0602
N2195 X4.6383 Y3.9102 Z-0.0603
N2200 X4.6366 Y3.912
N2205 X4.6348 Y3.9137 Z-0.0604
N2210 X4.6329 Y3.9153 Z-0.0605
N2215 X4.631 Y3.9169 Z-0.0606
N2220 X4.6291 Y3.9184 Z-0.0607
N2225 X4.625 Y3.9211 Z-0.0609
N2230 X4.6228 Y3.9223
N2235 X4.6207 Y3.9235 Z-0.061
N2240 X4.6184 Y3.9246 Z-0.0611
N2245 X4.6162 Y3.9255 Z-0.0612
N2250 X4.6139 Y3.9264 Z-0.0613
N2255 X4.6115 Y3.9272 Z-0.0614
N2260 X4.6068 Y3.9285 Z-0.0615
N2265 X4.6044 Y3.929 Z-0.0616
N2270 X4.6019 Y3.9294 Z-0.0617
N2275 X4.5995 Y3.9297 Z-0.0618
N2280 X4.597 Y3.9299 Z-0.0619
N2285 X4.5946 Y3.93 Z-0.062
N2290 X4.5921 Z-0.0621
N2295 X4.5897 Y3.9299
N2300 X4.5872 Y3.9297 Z-0.0622
N2305 X4.5823 Y3.929 Z-0.0624
N2310 X4.5799 Y3.9285 Z-0.0625
N2315 X4.5775 Y3.928 Z-0.0626
N2320 X4.5752 Y3.9273 Z-0.0627
N2325 X4.5728 Y3.9265
N2330 X4.5705 Y3.9256 Z-0.0628
N2335 X4.5682 Y3.9247 Z-0.0629
N2340 X4.566 Y3.9236 Z-0.063
N2345 X4.5638 Y3.9225 Z-0.0631
N2350 X4.5596 Y3.9199 Z-0.0633
N2355 X4.5576 Y3.9186
N2360 X4.5556 Y3.9171 Z-0.0634
N2365 X4.5537 Y3.9155 Z-0.0635
N2370 X4.5519 Y3.9139 Z-0.0636
N2375 X4.5501 Y3.9122 Z-0.0637
N2380 X4.5484 Y3.9104 Z-0.0638
N2385 X4.5467 Y3.9086 Z-0.0639
N2390 X4.5452 Y3.9067
N2395 X4.5423 Y3.9027 Z-0.0641
N2400 X4.541 Y3.9006 Z-0.0642
N2405 X4.5397 Y3.8985 Z-0.0643
N2410 X4.5386 Y3.8963 Z-0.0644
N2415 X4.5375 Y3.8941 Z-0.0645
N2420 X4.5366 Y3.8918
N2425 X4.5357 Y3.8895 Z-0.0646
N2430 X4.5349 Y3.8872 Z-0.0647
N2435 X4.5342 Y3.8848 Z-0.0648
N2440 X4.5331 Y3.88 Z-0.065
N2445 X4.5327 Y3.8776 Z-0.0651
N2450 X4.5324 Y3.8751
N2455 X4.5322 Y3.8727 Z-0.0652
N2460 X4.5321 Y3.8702 Z-0.0653
N2465 Y3.8678 Z-0.0654
N2470 X4.5322 Y3.8653 Z-0.0655
N2475 X4.5324 Y3.8629 Z-0.0656
N2480 X4.5327 Y3.8604 Z-0.0657
N2485 X4.5335 Y3.8556 Z-0.0658
N2490 X4.5341 Y3.8532 Z-0.0659
N2495 X4.5348 Y3.8508 Z-0.066
N2500 X4.5356 Y3.8485 Z-0.0661
N2505 X4.5365 Y3.8462 Z-0.0662
N2510 X4.5374 Y3.8439 Z-0.0663
N2515 X4.5385 Y3.8417
N2520 X4.5396 Y3.8395 Z-0.0664
N2525 X4.5408 Y3.8374 Z-0.0665
N2530 X4.5435 Y3.8333 Z-0.0667
N2535 X4.545 Y3.8313 Z-0.0668
N2540 X4.5466 Y3.8294 Z-0.0669
N2545 X4.5482 Y3.8275
N2550 X4.5499 Y3.8257 Z-0.067
N2555 X4.5517 Y3.824 Z-0.0671
N2560 X4.5535 Y3.8224 Z-0.0672
N2565 X4.5574 Y3.8193 Z-0.0674
N2570 X4.5594 Y3.8179 Z-0.0675
N2575 X4.5615 Y3.8166
N2580 X4.5636 Y3.8154 Z-0.0676
N2585 X4.5658 Y3.8143 Z-0.0677
N2590 X4.568 Y3.8132 Z-0.0678
N2595 X4.5702 Y3.8122 Z-0.0679
N2600 X4.5725 Y3.8113 Z-0.068
N2605 X4.5749 Y3.8106 Z-0.0681
N2610 X4.5796 Y3.8093 Z-0.0682
N2615 X4.582 Y3.8088 Z-0.0683
N2620 X4.5845 Y3.8084 Z-0.0684
N2625 X4.5869 Y3.8081 Z-0.0685
N2630 X4.5894 Y3.8079 Z-0.0686
N2635 X4.5918 Y3.8078 Z-0.0687
N2640 X4.5943 Z-0.0688
N2645 X4.5967
N2650 X4.5992 Y3.808 Z-0.0689
N2655 X4.6041 Y3.8087 Z-0.0691
N2660 X4.6065 Y3.8092 Z-0.0692
N2665 X4.6089 Y3.8098 Z-0.0693
N2670 X4.6112 Y3.8105 Z-0.0694
N2675 X4.6136 Y3.8112
N2680 X4.6159 Y3.8121 Z-0.0695
N2685 X4.6181 Y3.8131 Z-0.0696
N2690 X4.6204 Y3.8141 Z-0.0697
N2695 X4.6226 Y3.8153 Z-0.0698
N2700 X4.6268 Y3.8178 Z-0.07
N2705 X4.6288 Y3.8192
N2710 X4.6308 Y3.8207 Z-0.0701
N2715 X4.6327 Y3.8222 Z-0.0702
N2720 X4.6345 Y3.8238 Z-0.0703
N2725 X4.6363 Y3.8255 Z-0.0704
N2730 X4.638 Y3.8273 Z-0.0705
N2735 X4.6396 Y3.8291 Z-0.0706
N2740 X4.6412 Y3.831
N2745 X4.6441 Y3.835 Z-0.0708
N2750 X4.6454 Y3.8371 Z-0.0709
N2755 X4.6466 Y3.8393 Z-0.071
N2760 X4.6488 Y3.8437 Z-0.0712
N2765 X4.6507 Y3.8482 Z-0.0713
N2770 X4.6514 Y3.8505 Z-0.0714
N2775 X4.6522 Y3.8529 Z-0.0715
N2780 X4.6532 Y3.8577 Z-0.0717
N2785 X4.6539 Y3.8626 Z-0.0718
N2790 X4.6542 Y3.8675 Z-0.072
N2795 Y3.8699 Z-0.0721
N2800 Y3.8724 Z-0.0722
N2805 X4.654 Y3.8749 Z-0.0723
N2810 X4.6537 Y3.8773 Z-0.0724
N2815 X4.6528 Y3.8821 Z-0.0725
N2820 X4.6522 Y3.8845 Z-0.0726
N2825 X4.6516 Y3.8869 Z-0.0727
N2830 X4.6508 Y3.8892 Z-0.0728
N2835 X4.6499 Y3.8915 Z-0.0729
N2840 X4.649 Y3.8938 Z-0.073
N2845 X4.6479 Y3.896
N2850 X4.6468 Y3.8982 Z-0.0731
N2855 X4.6456 Y3.9003 Z-0.0732
N2860 X4.6428 Y3.9044 Z-0.0734
N2865 X4.6414 Y3.9064 Z-0.0735
N2870 X4.6398 Y3.9083 Z-0.0736
N2875 X4.6382 Y3.9101
N2880 X4.6365 Y3.9119 Z-0.0737
N2885 X4.6347 Y3.9136 Z-0.0738
N2890 X4.6329 Y3.9153 Z-0.0739
N2895 X4.631 Y3.9168 Z-0.074
N2900 X4.629 Y3.9183 Z-0.0741
N2905 X4.6249 Y3.921 Z-0.0742
N2910 X4.6228 Y3.9223 Z-0.0743
N2915 X4.6206 Y3.9234 Z-0.0744
N2920 X4.6184 Y3.9245 Z-0.0745
N2925 X4.6161 Y3.9254 Z-0.0746
N2930 X4.6138 Y3.9263 Z-0.0747
N2935 X4.6115 Y3.9271 Z-0.0748
N2940 X4.6068 Y3.9284 Z-0.0749
N2945 X4.6044 Y3.9289 Z-0.075
N2950 X4.6019 Y3.9293 Z-0.0751
N2955 X4.5995 Y3.9296 Z-0.0752
N2960 X4.597 Y3.9298 Z-0.0753
N2965 X4.5946 Y3.9299 Z-0.0754
N2970 X4.5921
N2975 X4.5897 Y3.9298 Z-0.0755
N2980 X4.5872 Y3.9296 Z-0.0756
N2985 X4.5824 Y3.9289 Z-0.0758
N2990 X4.5799 Y3.9284 Z-0.0759
N2995 X4.5776 Y3.9278 Z-0.076
N3000 X4.5752 Y3.9272
N3005 X4.5729 Y3.9264 Z-0.0761
N3010 X4.5706 Y3.9255 Z-0.0762
N3015 X4.5683 Y3.9246 Z-0.0763
N3020 X4.5661 Y3.9235 Z-0.0764
N3025 X4.5639 Y3.9224 Z-0.0765
N3030 X4.5597 Y3.9199 Z-0.0766
N3035 X4.5577 Y3.9185 Z-0.0767
N3040 X4.5557 Y3.917 Z-0.0768
N3045 X4.5538 Y3.9154 Z-0.0769
N3050 X4.5519 Y3.9138 Z-0.077
N3055 X4.5502 Y3.9121 Z-0.0771
N3060 X4.5485 Y3.9103 Z-0.0772
N3065 X4.5468 Y3.9085
N3070 X4.5453 Y3.9066 Z-0.0773
N3075 X4.5424 Y3.9026 Z-0.0775
N3080 X4.5411 Y3.9005 Z-0.0776
N3085 X4.5398 Y3.8984 Z-0.0777
N3090 X4.5387 Y3.8962 Z-0.0778
N3095 X4.5376 Y3.894
N3100 X4.5367 Y3.8918 Z-0.0779
N3105 X4.5358 Y3.8895 Z-0.078
N3110 X4.535 Y3.8871 Z-0.0781
N3115 X4.5343 Y3.8848 Z-0.0782
N3120 X4.5332 Y3.88 Z-0.0784
N3125 X4.5328 Y3.8776
N3130 X4.5325 Y3.8751 Z-0.0785
N3135 X4.5323 Y3.8722 Z-0.0786
N3140 X4.5322 Y3.8692 Z-0.0787
N3145 Y3.869
N3150 Y3.8688
N3155 Y3.8687 Z-0.0788
N3160 X4.5323 Y3.8665
N3165 X4.5324 Y3.8641 Z-0.0789
N3170 X4.5326 Y3.8616 Z-0.079
N3175 X4.533 Y3.8592 Z-0.0791
N3180 X4.5334 Y3.8568 Z-0.0792
N3185 X4.534 Y3.8544 Z-0.0793
N3190 X4.5346 Y3.852
N3195 X4.5353 Y3.8497 Z-0.0794
N3200 X4.537 Y3.8451 Z-0.0796
N3205 X4.5381 Y3.8428 Z-0.0797
N3210 X4.5392 Y3.8406 Z-0.0798
N3215 X4.5403 Y3.8385 Z-0.0799
N3220 X4.5416 Y3.8364
N3225 X4.543 Y3.8343 Z-0.08
N3230 X4.5444 Y3.8323 Z-0.0801
N3235 X4.5459 Y3.8304 Z-0.0802
N3240 X4.5475 Y3.8285 Z-0.0803
N3245 X4.5509 Y3.825 Z-0.0805
N3250 X4.5527 Y3.8233
N3255 X4.5545 Y3.8217 Z-0.0806
N3260 X4.5565 Y3.8202 Z-0.0807
N3265 X4.5585 Y3.8187 Z-0.0808
N3270 X4.5605 Y3.8174 Z-0.0809
N3275 X4.5626 Y3.8161 Z-0.081
N3280 X4.5648 Y3.8149 Z-0.0811
N3285 X4.567 Y3.8138
N3290 X4.5715 Y3.8119 Z-0.0813
N3295 X4.5738 Y3.8111 Z-0.0814
N3300 X4.5761 Y3.8103 Z-0.0815
N3305 X4.5785 Y3.8097 Z-0.0816
N3310 X4.5809 Y3.8091 Z-0.0817
N3315 X4.5833 Y3.8087
N3320 X4.5857 Y3.8083 Z-0.0818
N3325 X4.5882 Y3.8081 Z-0.0819
N3330 X4.5906 Y3.8079 Z-0.082
N3335 X4.5955 Z-0.0822
N3340 X4.598 Y3.8081 Z-0.0823
N3345 X4.6004 Y3.8083
N3350 X4.6028 Y3.8087 Z-0.0824
N3355 X4.6053 Y3.8091 Z-0.0825
N3360 X4.6077 Y3.8096 Z-0.0826
N3365 X4.61 Y3.8103 Z-0.0827
N3370 X4.6147 Y3.8118 Z-0.0829
N3375 X4.617 Y3.8127
N3380 X4.6192 Y3.8137 Z-0.083
N3385 X4.6214 Y3.8148 Z-0.0831
N3390 X4.6235 Y3.816 Z-0.0832
N3395 X4.6257 Y3.8173 Z-0.0833
N3400 X4.6277 Y3.8186 Z-0.0834
N3405 X4.6297 Y3.82 Z-0.0835
N3410 X4.6316 Y3.8215
N3415 X4.6353 Y3.8248 Z-0.0837
N3420 X4.6371 Y3.8265 Z-0.0838
N3425 X4.6387 Y3.8283 Z-0.0839
N3430 X4.6403 Y3.8302 Z-0.084
N3435 X4.6418 Y3.8321 Z-0.0841
N3440 X4.6433 Y3.8341
N3445 X4.6446 Y3.8362 Z-0.0842
N3450 X4.6471 Y3.8404 Z-0.0844
N3455 X4.6492 Y3.8449 Z-0.0846
N3460 X4.6501 Y3.8471 Z-0.0847
N3465 X4.6509 Y3.8494
N3470 X4.6523 Y3.8541 Z-0.0849
N3475 X4.6533 Y3.859 Z-0.0851
N3480 X4.6539 Y3.8638 Z-0.0852
N3485 X4.6541 Y3.8687 Z-0.0854
N3490 Y3.8712 Z-0.0855
N3495 X4.6539 Y3.8736 Z-0.0856
N3500 X4.6537 Y3.8761 Z-0.0857
N3505 X4.6534 Y3.8785 Z-0.0858
N3510 X4.6529 Y3.8809
N3515 X4.6524 Y3.8833 Z-0.0859
N3520 X4.6517 Y3.8857 Z-0.086
N3525 X4.651 Y3.888 Z-0.0861
N3530 X4.6493 Y3.8926 Z-0.0863
N3535 X4.6483 Y3.8949 Z-0.0864
N3540 X4.6472 Y3.897
N3545 X4.646 Y3.8992 Z-0.0865
N3550 X4.6448 Y3.9013 Z-0.0866
N3555 X4.6434 Y3.9033 Z-0.0867
N3560 X4.642 Y3.9053 Z-0.0868
N3565 X4.6405 Y3.9073 Z-0.0869
N3570 X4.6389 Y3.9091 Z-0.087
N3575 X4.6355 Y3.9127 Z-0.0871
N3580 X4.6337 Y3.9143 Z-0.0872
N3585 X4.6318 Y3.9159 Z-0.0873
N3590 X4.6299 Y3.9174 Z-0.0874
N3595 X4.6279 Y3.9189 Z-0.0875
N3600 X4.6259 Y3.9202 Z-0.0876
N3605 X4.6238 Y3.9215
N3610 X4.6216 Y3.9227 Z-0.0877
N3615 X4.6194 Y3.9238 Z-0.0878
N3620 X4.6149 Y3.9257 Z-0.088
N3625 X4.6126 Y3.9266 Z-0.0881
N3630 X4.6103 Y3.9273 Z-0.0882
N3635 X4.6079 Y3.9279
N3640 X4.6055 Y3.9285 Z-0.0883
N3645 X4.6031 Y3.9289 Z-0.0884
N3650 X4.6007 Y3.9293 Z-0.0885
N3655 X4.5982 Y3.9295 Z-0.0886
N3660 X4.5958 Y3.9297 Z-0.0887
N3665 X4.5909 Z-0.0888
N3670 X4.5884 Y3.9295 Z-0.0889
N3675 X4.586 Y3.9293 Z-0.089
N3680 X4.5836 Y3.929 Z-0.0891
N3685 X4.5812 Y3.9285 Z-0.0892
N3690 X4.5788 Y3.928 Z-0.0893
N3695 X4.5764 Y3.9274 Z-0.0894
N3700 X4.5741 Y3.9266
N3705 X4.5717 Y3.9258 Z-0.0895
N3710 X4.5672 Y3.9239 Z-0.0897
N3715 X4.565 Y3.9228 Z-0.0898
N3720 X4.5629 Y3.9216 Z-0.0899
N3725 X4.5608 Y3.9204 Z-0.09
N3730 X4.5587 Y3.919
N3735 X4.5568 Y3.9176 Z-0.0901
N3740 X4.5548 Y3.9161 Z-0.0902
N3745 X4.5511 Y3.9128 Z-0.0904
N3750 X4.5494 Y3.9111 Z-0.0905
N3755 X4.5477 Y3.9093 Z-0.0906
N3760 X4.5462 Y3.9074
N3765 X4.5446 Y3.9055 Z-0.0907
N3770 X4.5432 Y3.9035 Z-0.0908
N3775 X4.5419 Y3.9015 Z-0.0909
N3780 X4.5406 Y3.8994 Z-0.091
N3785 X4.5394 Y3.8973 Z-0.0911
N3790 X4.5373 Y3.8928 Z-0.0912
N3795 X4.5364 Y3.8905 Z-0.0913
N3800 X4.5355 Y3.8882 Z-0.0914
N3805 X4.5348 Y3.8859 Z-0.0915
N3810 X4.5342 Y3.8835 Z-0.0916
N3815 X4.5336 Y3.8811 Z-0.0917
N3820 X4.5332 Y3.8787
N3825 X4.5328 Y3.8763 Z-0.0918
N3830 X4.5326 Y3.8739 Z-0.0919
N3835 X4.5324 Y3.869 Z-0.0921
N3840 Y3.8665 Z-0.0922
N3845 X4.5326 Y3.8641 Z-0.0923
N3850 X4.5328 Y3.8617
N3855 X4.5331 Y3.8592 Z-0.0924
N3860 X4.5336 Y3.8568 Z-0.0925
N3865 X4.5341 Y3.8544 Z-0.0926
N3870 X4.5347 Y3.8521 Z-0.0927
N3875 X4.5355 Y3.8497 Z-0.0928
N3880 X4.5372 Y3.8451 Z-0.0929
N3885 X4.5382 Y3.8429 Z-0.093
N3890 X4.5393 Y3.8407 Z-0.0931
N3895 X4.5405 Y3.8386 Z-0.0932
N3900 X4.5417 Y3.8365 Z-0.0933
N3905 X4.5431 Y3.8344 Z-0.0934
N3910 X4.5445 Y3.8324 Z-0.0935
N3915 X4.546 Y3.8305
N3920 X4.5476 Y3.8286 Z-0.0936
N3925 X4.551 Y3.8251 Z-0.0938
N3930 X4.5528 Y3.8234 Z-0.0939
N3935 X4.5546 Y3.8218 Z-0.094
N3940 X4.5566 Y3.8203 Z-0.0941
N3945 X4.5586 Y3.8189
N3950 X4.5606 Y3.8175 Z-0.0942
N3955 X4.5627 Y3.8163 Z-0.0943
N3960 X4.5648 Y3.8151 Z-0.0944
N3965 X4.567 Y3.814 Z-0.0945
N3970 X4.5715 Y3.812 Z-0.0947
N3975 X4.5738 Y3.8112
N3980 X4.5762 Y3.8105 Z-0.0948
N3985 X4.5785 Y3.8099 Z-0.0949
N3990 X4.5809 Y3.8093 Z-0.095
N3995 X4.5833 Y3.8089 Z-0.0951
N4000 X4.5857 Y3.8085 Z-0.0952
N4005 X4.5882 Y3.8083 Z-0.0953
N4010 X4.5906 Y3.8081
N4015 X4.5955 Z-0.0955
N4020 X4.598 Y3.8082 Z-0.0956
N4025 X4.6004 Y3.8085 Z-0.0957
N4030 X4.6028 Y3.8088 Z-0.0958
N4035 X4.6052 Y3.8093 Z-0.0959
N4040 X4.6076 Y3.8098
N4045 X4.61 Y3.8104 Z-0.096
N4050 X4.6146 Y3.812 Z-0.0962
N4055 X4.6169 Y3.8129 Z-0.0963
N4060 X4.6191 Y3.8139 Z-0.0964
N4065 X4.6213 Y3.815
N4070 X4.6235 Y3.8161 Z-0.0965
N4075 X4.6256 Y3.8174 Z-0.0966
N4080 X4.6276 Y3.8187 Z-0.0967
N4085 X4.6296 Y3.8202 Z-0.0968
N4090 X4.6315 Y3.8217 Z-0.0969
N4095 X4.6352 Y3.8249 Z-0.097
N4100 X4.6369 Y3.8266 Z-0.0971
N4105 X4.6386 Y3.8284 Z-0.0972
N4110 X4.6402 Y3.8303 Z-0.0973
N4115 X4.6417 Y3.8322 Z-0.0974
N4120 X4.6431 Y3.8342 Z-0.0975
N4125 X4.6445 Y3.8363 Z-0.0976
N4130 X4.6469 Y3.8405 Z-0.0977
N4135 X4.649 Y3.8449 Z-0.0979
N4140 X4.6499 Y3.8472 Z-0.098
N4145 X4.6508 Y3.8495 Z-0.0981
N4150 X4.6521 Y3.8542 Z-0.0982
N4155 X4.6531 Y3.859 Z-0.0984
N4160 X4.6537 Y3.8638 Z-0.0986
N4165 X4.6539 Y3.8687 Z-0.0988
N4170 Y3.8712
N4175 X4.6538 Y3.8736 Z-0.0989
N4180 X4.6535 Y3.8761 Z-0.099
N4185 X4.6532 Y3.8785 Z-0.0991
N4190 X4.6527 Y3.8809 Z-0.0992
N4195 X4.6522 Y3.8833 Z-0.0993
N4200 X4.6516 Y3.8856 Z-0.0994
N4205 X4.6509 Y3.888
N4210 X4.6491 Y3.8925 Z-0.0996
N4215 X4.6481 Y3.8948 Z-0.0997
N4220 X4.647 Y3.897 Z-0.0998
N4225 X4.6459 Y3.8991 Z-0.0999
N4230 X4.6446 Y3.9012
N4235 X4.6433 Y3.9032 Z-0.1
N4240 X4.6418 Y3.9052 Z-0.1001
N4245 X4.6403 Y3.9072 Z-0.1002
N4250 X4.6387 Y3.909 Z-0.1003
N4255 X4.6354 Y3.9126 Z-0.1005
N4260 X4.6336 Y3.9142
N4265 X4.6317 Y3.9158 Z-0.1006
N4270 X4.6298 Y3.9173 Z-0.1007
N4275 X4.6278 Y3.9187 Z-0.1008
N4280 X4.6258 Y3.9201 Z-0.1009
N4285 X4.6237 Y3.9214 Z-0.101
N4290 X4.6215 Y3.9225 Z-0.1011
N4295 X4.6194 Y3.9236
N4300 X4.6149 Y3.9256 Z-0.1013
N4305 X4.6126 Y3.9264 Z-0.1014
N4310 X4.6102 Y3.9271 Z-0.1015
N4315 X4.6079 Y3.9277 Z-0.1016
N4320 X4.6055 Y3.9283 Z-0.1017
N4325 X4.6031 Y3.9287
N4330 X4.6006 Y3.9291 Z-0.1018
N4335 X4.5982 Y3.9293 Z-0.1019
N4340 X4.5958 Y3.9295 Z-0.102
N4345 X4.5909 Z-0.1022
N4350 X4.5884 Y3.9293 Z-0.1023
N4355 X4.586 Y3.9291
N4360 X4.5836 Y3.9288 Z-0.1024
N4365 X4.5812 Y3.9283 Z-0.1025
N4370 X4.5788 Y3.9278 Z-0.1026
N4375 X4.5765 Y3.9272 Z-0.1027
N4380 X4.5741 Y3.9264 Z-0.1028
N4385 X4.5718 Y3.9256
N4390 X4.5673 Y3.9237 Z-0.103
N4395 X4.5651 Y3.9226 Z-0.1031
N4400 X4.563 Y3.9215 Z-0.1032
N4405 X4.5609 Y3.9202 Z-0.1033
N4410 X4.5589 Y3.9188 Z-0.1034
N4415 X4.5569 Y3.9174
N4420 X4.5549 Y3.9159 Z-0.1035
N4425 X4.5513 Y3.9127 Z-0.1037
N4430 X4.5496 Y3.911 Z-0.1038
N4435 X4.5479 Y3.9092 Z-0.1039
N4440 X4.5463 Y3.9073 Z-0.104
N4445 X4.5448 Y3.9054
N4450 X4.5434 Y3.9034 Z-0.1041
N4455 X4.542 Y3.9014 Z-0.1042
N4460 X4.5408 Y3.8993 Z-0.1043
N4465 X4.5396 Y3.8972 Z-0.1044
N4470 X4.5375 Y3.8927 Z-0.1046
N4475 X4.5366 Y3.8905
N4480 X4.5357 Y3.8882 Z-0.1047
N4485 X4.535 Y3.8858 Z-0.1048
N4490 X4.5344 Y3.8835 Z-0.1049
N4495 X4.5338 Y3.8811 Z-0.105
N4500 X4.5334 Y3.8787 Z-0.1051
N4505 X4.533 Y3.8763 Z-0.1052
N4510 X4.5328 Y3.8739
N4515 X4.5326 Y3.869 Z-0.1054
N4520 Y3.8665 Z-0.1055
N4525 X4.5328 Y3.8641 Z-0.1056
N4530 X4.533 Y3.8617 Z-0.1057
N4535 X4.5334 Y3.8593
N4540 X4.5338 Y3.8569 Z-0.1058
N4545 X4.5343 Y3.8545 Z-0.1059
N4550 X4.5349 Y3.8521 Z-0.106
N4555 X4.5357 Y3.8498 Z-0.1061
N4560 X4.5374 Y3.8452 Z-0.1063
N4565 X4.5384 Y3.843
N4570 X4.5395 Y3.8408 Z-0.1064
N4575 X4.5407 Y3.8387 Z-0.1065
N4580 X4.5419 Y3.8366 Z-0.1066
N4585 X4.5433 Y3.8345 Z-0.1067
N4590 X4.5447 Y3.8325 Z-0.1068
N4595 X4.5462 Y3.8306 Z-0.1069
N4600 X4.5478 Y3.8288
N4605 X4.5511 Y3.8252 Z-0.1071
N4610 X4.5529 Y3.8236 Z-0.1072
N4615 X4.5548 Y3.822 Z-0.1073
N4620 X4.5567 Y3.8205 Z-0.1074
N4625 X4.5587 Y3.8191
N4630 X4.5607 Y3.8177 Z-0.1075
N4635 X4.5628 Y3.8164 Z-0.1076
N4640 X4.5649 Y3.8153 Z-0.1077
N4645 X4.5671 Y3.8142 Z-0.1078
N4650 X4.5716 Y3.8123 Z-0.108
N4655 X4.5739 Y3.8114
N4660 X4.5762 Y3.8107 Z-0.1081
N4665 X4.5786 Y3.8101 Z-0.1082
N4670 X4.581 Y3.8095 Z-0.1083
N4675 X4.5834 Y3.8091 Z-0.1084
N4680 X4.5858 Y3.8087 Z-0.1085
N4685 X4.5882 Y3.8085 Z-0.1086
N4690 X4.5906 Y3.8083
N4695 X4.5955 Z-0.1088
N4700 X4.5979 Y3.8085 Z-0.1089
N4705 X4.6004 Y3.8087 Z-0.109
N4710 X4.6028 Y3.8091 Z-0.1091
N4715 X4.6052 Y3.8095 Z-0.1092
N4720 X4.6076 Y3.81
N4725 X4.6099 Y3.8106 Z-0.1093
N4730 X4.6146 Y3.8122 Z-0.1095
N4735 X4.6168 Y3.8131 Z-0.1096
N4740 X4.619 Y3.8141 Z-0.1097
N4745 X4.6212 Y3.8152
N4750 X4.6234 Y3.8163 Z-0.1098
N4755 X4.6254 Y3.8176 Z-0.1099
N4760 X4.6275 Y3.8189 Z-0.11
N4765 X4.6295 Y3.8204 Z-0.1101
N4770 X4.6314 Y3.8219 Z-0.1102
N4775 X4.6351 Y3.8251 Z-0.1103
N4780 X4.6368 Y3.8268 Z-0.1104
N4785 X4.6384 Y3.8286 Z-0.1105
N4790 X4.64 Y3.8305 Z-0.1106
N4795 X4.6415 Y3.8324 Z-0.1107
N4800 X4.6429 Y3.8344 Z-0.1108
N4805 X4.6443 Y3.8364 Z-0.1109
N4810 X4.6467 Y3.8406 Z-0.111
N4815 X4.6488 Y3.845 Z-0.1112
N4820 X4.6497 Y3.8473 Z-0.1113
N4825 X4.6506 Y3.8496 Z-0.1114
N4830 X4.6519 Y3.8542 Z-0.1115
N4835 X4.6529 Y3.859 Z-0.1117
N4840 X4.6535 Y3.8639 Z-0.1119
N4845 X4.6537 Y3.8687 Z-0.112
N4850 Y3.8712 Z-0.1121
N4855 X4.6535 Y3.8736 Z-0.1122
N4860 X4.6533 Y3.876 Z-0.1123
N4865 X4.6529 Y3.8784 Z-0.1124
N4870 X4.6525 Y3.8808 Z-0.1125
N4875 X4.652 Y3.8832 Z-0.1126
N4880 X4.6514 Y3.8856
N4885 X4.6506 Y3.8879 Z-0.1127
N4890 X4.6489 Y3.8925 Z-0.1129
N4895 X4.6479 Y3.8947 Z-0.113
N4900 X4.6468 Y3.8969 Z-0.1131
N4905 X4.6457 Y3.899
N4910 X4.6444 Y3.9011 Z-0.1132
N4915 X4.6431 Y3.9031 Z-0.1133
N4920 X4.6416 Y3.9051 Z-0.1134
N4925 X4.6401 Y3.907 Z-0.1135
N4930 X4.6386 Y3.9089 Z-0.1136
N4935 X4.6352 Y3.9124 Z-0.1137
N4940 X4.6334 Y3.914 Z-0.1138
N4945 X4.6316 Y3.9156 Z-0.1139
N4950 X4.6296 Y3.9171 Z-0.114
N4955 X4.6277 Y3.9185 Z-0.1141
N4960 X4.6256 Y3.9199 Z-0.1142
N4965 X4.6236 Y3.9212 Z-0.1143
N4970 X4.6214 Y3.9223
N4975 X4.6192 Y3.9234 Z-0.1144
N4980 X4.6148 Y3.9253 Z-0.1146
N4985 X4.6125 Y3.9262 Z-0.1147
N4990 X4.6102 Y3.9269 Z-0.1148
N4995 X4.6078 Y3.9275
N5000 X4.6054 Y3.9281 Z-0.1149
N5005 X4.603 Y3.9285 Z-0.115
N5010 X4.6006 Y3.9289 Z-0.1151
N5015 X4.5982 Y3.9291 Z-0.1152
N5020 X4.5958 Y3.9293 Z-0.1153
N5025 X4.5909 Z-0.1154
N5030 X4.5885 Y3.9291 Z-0.1155
N5035 X4.586 Y3.9289 Z-0.1156
N5040 X4.5836 Y3.9285 Z-0.1157
N5045 X4.5812 Y3.9281 Z-0.1158
N5050 X4.5789 Y3.9276 Z-0.1159
N5055 X4.5765 Y3.9269 Z-0.116
N5060 X4.5742 Y3.9262
N5065 X4.5719 Y3.9254 Z-0.1161
N5070 X4.5674 Y3.9235 Z-0.1163
N5075 X4.5652 Y3.9224 Z-0.1164
N5080 X4.5631 Y3.9212 Z-0.1165
N5085 X4.561 Y3.92
N5090 X4.559 Y3.9187 Z-0.1166
N5095 X4.557 Y3.9172 Z-0.1167
N5100 X4.5551 Y3.9157 Z-0.1168
N5105 X4.5514 Y3.9125 Z-0.117
N5110 X4.5497 Y3.9108 Z-0.1171
N5115 X4.5481 Y3.909
N5120 X4.5465 Y3.9072 Z-0.1172
N5125 X4.545 Y3.9052 Z-0.1173
N5130 X4.5436 Y3.9033 Z-0.1174
N5135 X4.5422 Y3.9012 Z-0.1175
N5140 X4.541 Y3.8992 Z-0.1176
N5145 X4.5398 Y3.897
N5150 X4.5377 Y3.8927 Z-0.1178
N5155 X4.5368 Y3.8904 Z-0.1179
N5160 X4.536 Y3.8881 Z-0.118
N5165 X4.5354 Y3.8865
N5170 X4.5349 Y3.8848 Z-0.1181
N5175 Y3.8846
N5180 X4.5346 Y3.8834 Z-0.1182
N5185 X4.5343 Y3.8822
N5190 X4.5338 Y3.8798 Z-0.1183
N5195 X4.5334 Y3.8773 Z-0.1184
N5200 X4.5331 Y3.8748 Z-0.1185
N5205 X4.5329 Y3.8723
N5210 X4.5328 Y3.8698 Z-0.1186
N5215 Y3.8673 Z-0.1187
N5220 X4.533 Y3.8648 Z-0.1188
N5225 X4.5332 Y3.8623 Z-0.1189
N5230 X4.5335 Y3.8599 Z-0.119
N5235 X4.5339 Y3.8574 Z-0.1191
N5240 X4.5344 Y3.855 Z-0.1192
N5245 X4.5358 Y3.8502 Z-0.1193
N5250 X4.5366 Y3.8478 Z-0.1194
N5255 X4.5375 Y3.8455 Z-0.1195
N5260 X4.5385 Y3.8432 Z-0.1196
N5265 X4.5397 Y3.841 Z-0.1197
N5270 X4.5409 Y3.8388 Z-0.1198
N5275 X4.5421 Y3.8366 Z-0.1199
N5280 X4.5435 Y3.8346
N5285 X4.545 Y3.8325 Z-0.12
N5290 X4.5465 Y3.8306 Z-0.1201
N5295 X4.5481 Y3.8287 Z-0.1202
N5300 X4.5498 Y3.8269 Z-0.1203
N5305 X4.5516 Y3.8251 Z-0.1204
N5310 X4.5554 Y3.8218 Z-0.1205
N5315 X4.5573 Y3.8203 Z-0.1206
N5320 X4.5594 Y3.8189 Z-0.1207
N5325 X4.5615 Y3.8175 Z-0.1208
N5330 X4.5636 Y3.8163 Z-0.1209
N5335 X4.5658 Y3.8151 Z-0.121
N5340 X4.5681 Y3.814 Z-0.1211
N5345 X4.5704 Y3.813 Z-0.1212
N5350 X4.5727 Y3.8121
N5355 X4.5751 Y3.8113 Z-0.1213
N5360 X4.5775 Y3.8106 Z-0.1214
N5365 X4.5823 Y3.8095 Z-0.1216
N5370 X4.5848 Y3.8091 Z-0.1217
N5375 X4.5873 Y3.8088 Z-0.1218
N5380 X4.5898 Y3.8086 Z-0.1219
N5385 X4.5923 Y3.8085
N5390 X4.5947 Z-0.122
N5395 X4.5972 Y3.8087 Z-0.1221
N5400 X4.5997 Y3.8089 Z-0.1222
N5405 X4.6022 Y3.8092 Z-0.1223
N5410 X4.6046 Y3.8096 Z-0.1224
N5415 X4.6071 Y3.8101 Z-0.1225
N5420 X4.6119 Y3.8115 Z-0.1226
N5425 X4.6142 Y3.8123 Z-0.1227
N5430 X4.6165 Y3.8132 Z-0.1228
N5435 X4.6188 Y3.8142 Z-0.1229
N5440 X4.621 Y3.8154 Z-0.123
N5445 X4.6232 Y3.8166 Z-0.1231
N5450 X4.6254 Y3.8178 Z-0.1232
N5455 X4.6274 Y3.8192
N5460 X4.6295 Y3.8207 Z-0.1233
N5465 X4.6314 Y3.8222 Z-0.1234
N5470 X4.6333 Y3.8238 Z-0.1235
N5475 X4.6352 Y3.8255 Z-0.1236
N5480 X4.6369 Y3.8273 Z-0.1237
N5485 X4.6402 Y3.831 Z-0.1239
N5490 X4.6417 Y3.833
N5495 X4.6431 Y3.835 Z-0.124
N5500 X4.6445 Y3.8371 Z-0.1241
N5505 X4.6457 Y3.8393 Z-0.1242
N5510 X4.648 Y3.8438 Z-0.1244
N5515 X4.6499 Y3.8484 Z-0.1245
N5520 X4.6506 Y3.8507 Z-0.1246
N5525 X4.6514 Y3.8531 Z-0.1247
N5530 X4.6524 Y3.858 Z-0.1249
N5535 X4.6531 Y3.8629 Z-0.1251
N5540 X4.6534 Y3.8679 Z-0.1252
N5545 Y3.8704 Z-0.1253
N5550 X4.6533 Y3.8729 Z-0.1254
N5555 X4.6531 Y3.8753 Z-0.1255
N5560 X4.6528 Y3.8778 Z-0.1256
N5565 X4.6524 Y3.8803 Z-0.1257
N5570 X4.6518 Y3.8827 Z-0.1258
N5575 X4.6512 Y3.8851 Z-0.1259
N5580 X4.6505 Y3.8875
N5585 X4.6487 Y3.8922 Z-0.1261
N5590 X4.6477 Y3.8944 Z-0.1262
N5595 X4.6466 Y3.8967 Z-0.1263
N5600 X4.6454 Y3.8989 Z-0.1264
N5605 X4.6441 Y3.901 Z-0.1265
N5610 X4.6428 Y3.9031
N5615 X4.6413 Y3.9051 Z-0.1266
N5620 X4.6398 Y3.907 Z-0.1267
N5625 X4.6382 Y3.9089 Z-0.1268
N5630 X4.6365 Y3.9107 Z-0.1269
N5635 X4.6347 Y3.9125 Z-0.127
N5640 X4.631 Y3.9158 Z-0.1272
N5645 X4.629 Y3.9173
N5650 X4.627 Y3.9187 Z-0.1273
N5655 X4.6249 Y3.9201 Z-0.1274
N5660 X4.6227 Y3.9213 Z-0.1275
N5665 X4.6205 Y3.9225 Z-0.1276
N5670 X4.6183 Y3.9236 Z-0.1277
N5675 X4.616 Y3.9246 Z-0.1278
N5680 X4.6137 Y3.9255
N5685 X4.6113 Y3.9263 Z-0.1279
N5690 X4.6089 Y3.927 Z-0.128
N5695 X4.6041 Y3.9281 Z-0.1282
N5700 X4.6016 Y3.9285 Z-0.1283
N5705 X4.5991 Y3.9287 Z-0.1284
N5710 X4.5967 Y3.9289 Z-0.1285
N5715 X4.5942 Y3.929
N5720 X4.5917 Z-0.1286
N5725 X4.5892 Y3.9289 Z-0.1287
N5730 X4.5867 Y3.9287 Z-0.1288
N5735 X4.5843 Y3.9284 Z-0.1289
N5740 X4.5818 Y3.9279 Z-0.129
N5745 X4.5794 Y3.9274 Z-0.1291
N5750 X4.5746 Y3.9261 Z-0.1292
N5755 X4.5722 Y3.9252 Z-0.1293
N5760 X4.5699 Y3.9243 Z-0.1294
N5765 X4.5677 Y3.9233 Z-0.1295
N5770 X4.5654 Y3.9222 Z-0.1296
N5775 X4.5633 Y3.921 Z-0.1297
N5780 X4.5611 Y3.9197 Z-0.1298
N5785 X4.5591 Y3.9184
N5790 X4.557 Y3.9169 Z-0.1299
N5795 X4.5551 Y3.9154 Z-0.13
N5800 X4.5532 Y3.9137 Z-0.1301
N5805 X4.5514 Y3.9121 Z-0.1302
N5810 X4.5496 Y3.9103 Z-0.1303
N5815 X4.5463 Y3.9066 Z-0.1304
N5820 X4.5448 Y3.9046 Z-0.1305
N5825 X4.5434 Y3.9026 Z-0.1306
N5830 X4.5421 Y3.9005 Z-0.1307
N5835 X4.5408 Y3.8983 Z-0.1308
N5840 X4.5396 Y3.8961 Z-0.1309
N5845 X4.5385 Y3.8939 Z-0.131
N5850 X4.5376 Y3.8916 Z-0.1311
N5855 X4.5367 Y3.8893
N5860 X4.5359 Y3.8869 Z-0.1312
N5865 X4.5352 Y3.8845 Z-0.1313
N5870 X4.5341 Y3.8797 Z-0.1315
N5875 X4.5337 Y3.8773 Z-0.1316
N5880 X4.5334 Y3.8748 Z-0.1317
N5885 X4.5332 Y3.8723
N5890 X4.5331 Y3.8698 Z-0.1318
N5895 Y3.8673 Z-0.1319
N5900 X4.5332 Y3.8649 Z-0.132
N5905 X4.5335 Y3.8624 Z-0.1321
N5910 X4.5338 Y3.8599 Z-0.1322
N5915 X4.5342 Y3.8575 Z-0.1323
N5920 X4.5347 Y3.8551 Z-0.1324
N5925 X4.5361 Y3.8503 Z-0.1325
N5930 X4.5369 Y3.8479 Z-0.1326
N5935 X4.5378 Y3.8456 Z-0.1327
N5940 X4.5388 Y3.8433 Z-0.1328
N5945 X4.5399 Y3.8411 Z-0.1329
N5950 X4.5411 Y3.8389 Z-0.133
N5955 X4.5424 Y3.8368
N5960 X4.5438 Y3.8347 Z-0.1331
N5965 X4.5452 Y3.8327 Z-0.1332
N5970 X4.5467 Y3.8308 Z-0.1333
N5975 X4.5484 Y3.8289 Z-0.1334
N5980 X4.55 Y3.8271 Z-0.1335
N5985 X4.5518 Y3.8253 Z-0.1336
N5990 X4.5556 Y3.8221 Z-0.1337
N5995 X4.5575 Y3.8205 Z-0.1338
N6000 X4.5595 Y3.8191 Z-0.1339
N6005 X4.5616 Y3.8178 Z-0.134
N6010 X4.5638 Y3.8165 Z-0.1341
N6015 X4.566 Y3.8153 Z-0.1342
N6020 X4.5682 Y3.8143 Z-0.1343
N6025 X4.5705 Y3.8133
N6030 X4.5728 Y3.8124 Z-0.1344
N6035 X4.5752 Y3.8116 Z-0.1345
N6040 X4.5775 Y3.8109 Z-0.1346
N6045 X4.5824 Y3.8098 Z-0.1348
N6050 X4.5848 Y3.8094 Z-0.1349
N6055 X4.5873 Y3.8091 Z-0.135
N6060 X4.5898 Y3.8089
N6065 X4.5923 Y3.8088 Z-0.1351
N6070 X4.5947 Z-0.1352
N6075 X4.5972 Y3.809 Z-0.1353
N6080 X4.5997 Y3.8092 Z-0.1354
N6085 X4.6021 Y3.8095 Z-0.1355
N6090 X4.6046 Y3.8099 Z-0.1356
N6095 X4.607 Y3.8104
N6100 X4.6118 Y3.8118 Z-0.1358
N6105 X4.6141 Y3.8126 Z-0.1359
N6110 X4.6164 Y3.8135 Z-0.136
N6115 X4.6187 Y3.8145 Z-0.1361
N6120 X4.6209 Y3.8156 Z-0.1362
N6125 X4.6231 Y3.8168 Z-0.1363
N6130 X4.6252 Y3.8181
N6135 X4.6273 Y3.8195 Z-0.1364
N6140 X4.6293 Y3.8209 Z-0.1365
N6145 X4.6312 Y3.8224 Z-0.1366
N6150 X4.6331 Y3.8241 Z-0.1367
N6155 X4.6349 Y3.8257 Z-0.1368
N6160 X4.6367 Y3.8275 Z-0.1369
N6165 X4.6399 Y3.8312 Z-0.137
N6170 X4.6415 Y3.8332 Z-0.1371
N6175 X4.6429 Y3.8352 Z-0.1372
N6180 X4.6442 Y3.8373 Z-0.1373
N6185 X4.6455 Y3.8395 Z-0.1374
N6190 X4.6477 Y3.8439 Z-0.1376
N6195 X4.6496 Y3.8485 Z-0.1377
N6200 X4.6504 Y3.8508 Z-0.1378
N6205 X4.6511 Y3.8532 Z-0.1379
N6210 X4.6522 Y3.858 Z-0.1381
N6215 X4.6528 Y3.8629 Z-0.1382
N6220 X4.6531 Y3.8679 Z-0.1384
N6225 Y3.8704 Z-0.1385
N6230 X4.653 Y3.8729 Z-0.1386
N6235 X4.6528 Y3.8753 Z-0.1387
N6240 X4.6525 Y3.8778 Z-0.1388
N6245 X4.6521 Y3.8802
N6250 X4.6516 Y3.8826 Z-0.1389
N6255 X4.6509 Y3.885 Z-0.139
N6260 X4.6502 Y3.8874 Z-0.1391
N6265 X4.6485 Y3.8921 Z-0.1393
N6270 X4.6475 Y3.8943 Z-0.1394
N6275 X4.6464 Y3.8965 Z-0.1395
N6280 X4.6452 Y3.8987
N6285 X4.6439 Y3.9008 Z-0.1396
N6290 X4.6425 Y3.9029 Z-0.1397
N6295 X4.6411 Y3.9049 Z-0.1398
N6300 X4.6396 Y3.9068 Z-0.1399
N6305 X4.6379 Y3.9087 Z-0.14
N6310 X4.6363 Y3.9105 Z-0.1401
N6315 X4.6345 Y3.9123
N6320 X4.6308 Y3.9155 Z-0.1403
N6325 X4.6288 Y3.917 Z-0.1404
N6330 X4.6268 Y3.9185 Z-0.1405
N6335 X4.6247 Y3.9198 Z-0.1406
N6340 X4.6226 Y3.9211 Z-0.1407
N6345 X4.6204 Y3.9222
N6350 X4.6181 Y3.9233 Z-0.1408
N6355 X4.6159 Y3.9243 Z-0.1409
N6360 X4.6136 Y3.9252 Z-0.141
N6365 X4.6112 Y3.926 Z-0.1411
N6370 X4.6088 Y3.9267 Z-0.1412
N6375 X4.604 Y3.9278 Z-0.1414
N6380 X4.6016 Y3.9282
N6385 X4.5991 Y3.9284 Z-0.1415
N6390 X4.5966 Y3.9286 Z-0.1416
N6395 X4.5942 Y3.9287 Z-0.1417
N6400 X4.5917 Z-0.1418
N6405 X4.5892 Y3.9286 Z-0.1419
N6410 X4.5868 Y3.9284 Z-0.142
N6415 X4.5843 Y3.9281
N6420 X4.5819 Y3.9276 Z-0.1421
N6425 X4.5794 Y3.9271 Z-0.1422
N6430 X4.5747 Y3.9258 Z-0.1424
N6435 X4.5723 Y3.925 Z-0.1425
N6440 X4.57 Y3.9241 Z-0.1426
N6445 X4.5678 Y3.923
N6450 X4.5656 Y3.9219 Z-0.1427
N6455 X4.5634 Y3.9208 Z-0.1428
N6460 X4.5613 Y3.9195 Z-0.1429
N6465 X4.5592 Y3.9181 Z-0.143
N6470 X4.5572 Y3.9167 Z-0.1431
N6475 X4.5553 Y3.9151 Z-0.1432
N6480 X4.5534 Y3.9135 Z-0.1433
N6485 X4.5516 Y3.9118
N6490 X4.5498 Y3.9101 Z-0.1434
N6495 X4.5466 Y3.9064 Z-0.1436
N6500 X4.5451 Y3.9044 Z-0.1437
N6505 X4.5437 Y3.9024 Z-0.1438
N6510 X4.5423 Y3.9003 Z-0.1439
N6515 X4.5411 Y3.8982
N6520 X4.5399 Y3.896 Z-0.144
N6525 X4.5388 Y3.8938 Z-0.1441
N6530 X4.5378 Y3.8915 Z-0.1442
N6535 X4.5369 Y3.8892 Z-0.1443
N6540 X4.5362 Y3.8868 Z-0.1444
N6545 X4.5355 Y3.8845 Z-0.1445
N6550 X4.5344 Y3.8796 Z-0.1446
N6555 X4.534 Y3.8772 Z-0.1447
N6560 X4.5337 Y3.8748 Z-0.1448
N6565 X4.5335 Y3.8723 Z-0.1449
N6570 X4.5334 Y3.8698 Z-0.145
N6575 Y3.8673 Z-0.1451
N6580 X4.5335 Y3.8649 Z-0.1452
N6585 X4.5338 Y3.8624
N6590 X4.5341 Y3.86 Z-0.1453
N6595 X4.5345 Y3.8575 Z-0.1454
N6600 X4.535 Y3.8551 Z-0.1455
N6605 X4.5363 Y3.8504 Z-0.1457
N6610 X4.5372 Y3.848 Z-0.1458
N6615 X4.5381 Y3.8457
N6620 X4.5391 Y3.8435 Z-0.1459
N6625 X4.5402 Y3.8413 Z-0.146
N6630 X4.5414 Y3.8391 Z-0.1461
N6635 X4.5427 Y3.837 Z-0.1462
N6640 X4.544 Y3.8349 Z-0.1463
N6645 X4.5455 Y3.8329 Z-0.1464
N6650 X4.547 Y3.831
N6655 X4.5486 Y3.8291 Z-0.1465
N6660 X4.5503 Y3.8273 Z-0.1466
N6665 X4.552 Y3.8255 Z-0.1467
N6670 X4.5557 Y3.8223 Z-0.1469
N6675 X4.5577 Y3.8208 Z-0.147
N6680 X4.5597 Y3.8194
N6685 X4.5618 Y3.818 Z-0.1471
N6690 X4.5639 Y3.8168 Z-0.1472
N6695 X4.5661 Y3.8156 Z-0.1473
N6700 X4.5683 Y3.8145 Z-0.1474
N6705 X4.5706 Y3.8136 Z-0.1475
N6710 X4.5729 Y3.8127 Z-0.1476
N6715 X4.5752 Y3.8119
N6720 X4.5776 Y3.8112 Z-0.1477
N6725 X4.5824 Y3.8101 Z-0.1479
N6730 X4.5849 Y3.8097 Z-0.148
N6735 X4.5873 Y3.8094 Z-0.1481
N6740 X4.5898 Y3.8092 Z-0.1482
N6745 X4.5923 Y3.8091 Z-0.1483
N6750 X4.5947 Y3.8092
N6755 X4.5972 Y3.8093 Z-0.1484
N6760 X4.5996 Y3.8095 Z-0.1485
N6765 X4.6021 Y3.8098 Z-0.1486
N6770 X4.6045 Y3.8102 Z-0.1487
N6775 X4.6069 Y3.8107 Z-0.1488
N6780 X4.6117 Y3.8121 Z-0.1489
N6785 X4.614 Y3.8129 Z-0.149
N6790 X4.6163 Y3.8138 Z-0.1491
N6795 X4.6186 Y3.8148 Z-0.1492
N6800 X4.6208 Y3.8159 Z-0.1493
N6805 X4.6229 Y3.8171 Z-0.1494
N6810 X4.625 Y3.8184 Z-0.1495
N6815 X4.6271 Y3.8197
N6820 X4.6291 Y3.8212 Z-0.1496
N6825 X4.631 Y3.8227 Z-0.1497
N6830 X4.6329 Y3.8243 Z-0.1498
N6835 X4.6347 Y3.826 Z-0.1499
N6840 X4.6365 Y3.8277 Z-0.15
N6845 X4.6397 Y3.8314 Z-0.1501
N6850 X4.6412 Y3.8334 Z-0.1502
N6855 X4.6426 Y3.8354 Z-0.1503
N6860 X4.644 Y3.8375 Z-0.1504
N6865 X4.6452 Y3.8396 Z-0.1505
N6870 X4.6474 Y3.844 Z-0.1507
N6875 X4.6493 Y3.8486 Z-0.1508
N6880 X4.6501 Y3.8509 Z-0.1509
N6885 X4.6508 Y3.8533 Z-0.151
N6890 X4.6518 Y3.8581 Z-0.1512
N6895 X4.6525 Y3.863 Z-0.1513
N6900 X4.6528 Y3.8679 Z-0.1515
N6905 Y3.8704 Z-0.1516
N6910 X4.6527 Y3.8728 Z-0.1517
N6915 X4.6525 Y3.8753 Z-0.1518
N6920 X4.6522 Y3.8777 Z-0.1519
N6925 X4.6517 Y3.8802 Z-0.152
N6930 X4.6512 Y3.8826
N6935 X4.6506 Y3.8849 Z-0.1521
N6940 X4.6499 Y3.8873 Z-0.1522
N6945 X4.6482 Y3.8919 Z-0.1524
N6950 X4.6472 Y3.8942 Z-0.1525
N6955 X4.6461 Y3.8964 Z-0.1526
N6960 X4.6449 Y3.8985
N6965 X4.6436 Y3.9006 Z-0.1527
N6970 X4.6422 Y3.9027 Z-0.1528
N6975 X4.6408 Y3.9047 Z-0.1529
N6980 X4.6393 Y3.9066 Z-0.153
N6985 X4.6377 Y3.9085 Z-0.1531
N6990 X4.636 Y3.9103 Z-0.1532
N6995 X4.6343 Y3.912
N7000 X4.6305 Y3.9153 Z-0.1534
N7005 X4.6286 Y3.9168 Z-0.1535
N7010 X4.6266 Y3.9182 Z-0.1536
N7015 X4.6245 Y3.9195 Z-0.1537
N7020 X4.6224 Y3.9208 Z-0.1538
N7025 X4.6202 Y3.9219
N7030 X4.618 Y3.923 Z-0.1539
N7035 X4.6157 Y3.924 Z-0.154
N7040 X4.6134 Y3.9249 Z-0.1541
N7045 X4.6111 Y3.9256 Z-0.1542
N7050 X4.6087 Y3.9263 Z-0.1543
N7055 X4.604 Y3.9274 Z-0.1544
N7060 X4.6015 Y3.9278 Z-0.1545
N7065 X4.5991 Y3.9281 Z-0.1546
N7070 X4.5966 Y3.9283 Z-0.1547
N7075 X4.5942 Y3.9284 Z-0.1548
N7080 X4.5917 Z-0.1549
N7085 X4.5892 Y3.9282 Z-0.155
N7090 X4.5868 Y3.928
N7095 X4.5844 Y3.9277 Z-0.1551
N7100 X4.5819 Y3.9273 Z-0.1552
N7105 X4.5795 Y3.9268 Z-0.1553
N7110 X4.5748 Y3.9255 Z-0.1555
N7115 X4.5725 Y3.9246 Z-0.1556
N7120 X4.5702 Y3.9237
N7125 X4.5679 Y3.9227 Z-0.1557
N7130 X4.5657 Y3.9216 Z-0.1558
N7135 X4.5636 Y3.9204 Z-0.1559
N7140 X4.5615 Y3.9192 Z-0.156
N7145 X4.5594 Y3.9178 Z-0.1561
N7150 X4.5574 Y3.9164 Z-0.1562
N7155 X4.5555 Y3.9149
N7160 X4.5536 Y3.9133 Z-0.1563
N7165 X4.5518 Y3.9116 Z-0.1564
N7170 X4.5501 Y3.9098 Z-0.1565
N7175 X4.5469 Y3.9061 Z-0.1567
N7180 X4.5454 Y3.9042 Z-0.1568
N7185 X4.5439 Y3.9022
N7190 X4.5426 Y3.9001 Z-0.1569
N7195 X4.5414 Y3.898 Z-0.157
N7200 X4.5402 Y3.8958 Z-0.1571
N7205 X4.5391 Y3.8936 Z-0.1572
N7210 X4.5375 Y3.8898 Z-0.1573
N7215 X4.5368 Y3.8878 Z-0.1574
N7220 X4.5362 Y3.8858 Z-0.1575
N7225 Y3.8856
N7230 X4.536 Y3.885
N7235 X4.5358 Y3.8844
N7240 X4.5355 Y3.8832 Z-0.1576
N7245 X4.535 Y3.8807 Z-0.1577
N7250 X4.5345 Y3.8783
N7255 X4.5342 Y3.8758 Z-0.1578
N7260 X4.5339 Y3.8732 Z-0.1579
N7265 X4.5338 Y3.8707 Z-0.158
N7270 Y3.8682 Z-0.1581
N7275 X4.5339 Y3.8657 Z-0.1582
N7280 X4.534 Y3.8631 Z-0.1583
N7285 X4.5343 Y3.8606 Z-0.1584
N7290 X4.5352 Y3.8557 Z-0.1585
N7295 X4.5359 Y3.8532 Z-0.1586
N7300 X4.5366 Y3.8508 Z-0.1587
N7305 X4.5374 Y3.8484 Z-0.1588
N7310 X4.5383 Y3.8461 Z-0.1589
N7315 X4.5393 Y3.8438 Z-0.159
N7320 X4.5405 Y3.8415 Z-0.1591
N7325 X4.5417 Y3.8393 Z-0.1592
N7330 X4.543 Y3.8371
N7335 X4.5444 Y3.835 Z-0.1593
N7340 X4.5459 Y3.833 Z-0.1594
N7345 X4.5474 Y3.831 Z-0.1595
N7350 X4.5491 Y3.8291 Z-0.1596
N7355 X4.5508 Y3.8273 Z-0.1597
N7360 X4.5526 Y3.8255 Z-0.1598
N7365 X4.5545 Y3.8238 Z-0.1599
N7370 X4.5564 Y3.8222
N7375 X4.5605 Y3.8193 Z-0.1601
N7380 X4.5626 Y3.8179 Z-0.1602
N7385 X4.5648 Y3.8167 Z-0.1603
N7390 X4.5671 Y3.8155 Z-0.1604
N7395 X4.5693 Y3.8145 Z-0.1605
N7400 X4.5717 Y3.8135 Z-0.1606
N7405 X4.574 Y3.8127
N7410 X4.5764 Y3.8119 Z-0.1607
N7415 X4.5789 Y3.8112 Z-0.1608
N7420 X4.5813 Y3.8107 Z-0.1609
N7425 X4.5838 Y3.8102 Z-0.161
N7430 X4.5863 Y3.8099 Z-0.1611
N7435 X4.5888 Y3.8097 Z-0.1612
N7440 X4.5913 Y3.8095 Z-0.1613
N7445 X4.5938
N7450 X4.5964 Y3.8096 Z-0.1614
N7455 X4.5989 Y3.8098 Z-0.1615
N7460 X4.6039 Y3.8105 Z-0.1617
N7465 X4.6064 Y3.811 Z-0.1618
N7470 X4.6088 Y3.8116 Z-0.1619
N7475 X4.6112 Y3.8123 Z-0.162
N7480 X4.6136 Y3.8131 Z-0.1621
N7485 X4.6159 Y3.814
N7490 X4.6182 Y3.8151 Z-0.1622
N7495 X4.6205 Y3.8162 Z-0.1623
N7500 X4.6227 Y3.8174 Z-0.1624
N7505 X4.6248 Y3.8187 Z-0.1625
N7510 X4.6269 Y3.8201 Z-0.1626
N7515 X4.629 Y3.8215 Z-0.1627
N7520 X4.631 Y3.8231 Z-0.1628
N7525 X4.6329 Y3.8247
N7530 X4.6347 Y3.8265 Z-0.1629
N7535 X4.6365 Y3.8283 Z-0.163
N7540 X4.6382 Y3.8302 Z-0.1631
N7545 X4.6398 Y3.8321 Z-0.1632
N7550 X4.6413 Y3.8341 Z-0.1633
N7555 X4.6427 Y3.8362 Z-0.1634
N7560 X4.6434 Y3.8373
N7565 X4.644 Y3.8383 Z-0.1635
N7570 X4.6464 Y3.8427 Z-0.1636
N7575 X4.6484 Y3.8473 Z-0.1638
N7580 X4.65 Y3.8521 Z-0.164
N7585 X4.6513 Y3.857 Z-0.1642
N7590 X4.6517 Y3.8595
N7595 X4.652 Y3.862 Z-0.1643
N7600 X4.6524 Y3.867 Z-0.1645
N7605 Y3.8695 Z-0.1646
N7610 Y3.872 Z-0.1647
N7615 X4.6522 Y3.8745 Z-0.1648
N7620 X4.6519 Y3.877 Z-0.1649
N7625 X4.651 Y3.882 Z-0.165
N7630 X4.6504 Y3.8844 Z-0.1651
N7635 X4.6497 Y3.8868 Z-0.1652
N7640 X4.6488 Y3.8892 Z-0.1653
N7645 X4.6479 Y3.8915 Z-0.1654
N7650 X4.6469 Y3.8938 Z-0.1655
N7655 X4.6458 Y3.8961 Z-0.1656
N7660 X4.6446 Y3.8983 Z-0.1657
N7665 X4.6433 Y3.9004
N7670 X4.6419 Y3.9025 Z-0.1658
N7675 X4.6404 Y3.9046 Z-0.1659
N7680 X4.6389 Y3.9066 Z-0.166
N7685 X4.6372 Y3.9085 Z-0.1661
N7690 X4.6355 Y3.9103 Z-0.1662
N7695 X4.6337 Y3.912 Z-0.1663
N7700 X4.6318 Y3.9137 Z-0.1664
N7705 X4.6299 Y3.9153
N7710 X4.6258 Y3.9183 Z-0.1666
N7715 X4.6237 Y3.9196 Z-0.1667
N7720 X4.6215 Y3.9209 Z-0.1668
N7725 X4.6193 Y3.922 Z-0.1669
N7730 X4.617 Y3.9231 Z-0.167
N7735 X4.6147 Y3.924 Z-0.1671
N7740 X4.6123 Y3.9249
N7745 X4.6099 Y3.9256 Z-0.1672
N7750 X4.6075 Y3.9263 Z-0.1673
N7755 X4.605 Y3.9268 Z-0.1674
N7760 X4.6026 Y3.9273 Z-0.1675
N7765 X4.6001 Y3.9276 Z-0.1676
N7770 X4.5976 Y3.9279 Z-0.1677
N7775 X4.5951 Y3.928 Z-0.1678
N7780 X4.5926
N7785 X4.5901 Y3.9279 Z-0.1679
N7790 X4.5876 Y3.9278 Z-0.168
N7795 X4.5851 Y3.9275 Z-0.1681
N7800 X4.5826 Y3.9271 Z-0.1682
N7805 X4.5777 Y3.9259 Z-0.1684
N7810 X4.5753 Y3.9252 Z-0.1685
N7815 X4.5729 Y3.9244
N7820 X4.5706 Y3.9235 Z-0.1686
N7825 X4.5683 Y3.9225 Z-0.1687
N7830 X4.566 Y3.9214 Z-0.1688
N7835 X4.5638 Y3.9202 Z-0.1689
N7840 X4.5617 Y3.9189 Z-0.169
N7845 X4.5596 Y3.9175 Z-0.1691
N7850 X4.5575 Y3.916 Z-0.1692
N7855 X4.5556 Y3.9144
N7860 X4.5537 Y3.9128 Z-0.1693
N7865 X4.5518 Y3.9111 Z-0.1694
N7870 X4.5501 Y3.9093 Z-0.1695
N7875 X4.5484 Y3.9074 Z-0.1696
N7880 X4.5468 Y3.9055 Z-0.1697
N7885 X4.5453 Y3.9035 Z-0.1698
N7890 X4.5425 Y3.8993 Z-0.1699
N7895 X4.5413 Y3.8971 Z-0.17
N7900 X4.5402 Y3.8949 Z-0.1701
N7905 X4.5391 Y3.8926 Z-0.1702
N7910 X4.5381 Y3.8903 Z-0.1703
N7915 X4.5373 Y3.8879 Z-0.1704
N7920 X4.5365 Y3.8855 Z-0.1705
N7925 X4.5359 Y3.8831 Z-0.1706
N7930 X4.5353 Y3.8807
N7935 X4.5349 Y3.8782 Z-0.1707
N7940 X4.5345 Y3.8757 Z-0.1708
N7945 X4.5343 Y3.8732 Z-0.1709
N7950 X4.5342 Y3.8707 Z-0.171
N7955 X4.5341 Y3.8682 Z-0.1711
N7960 X4.5342 Y3.8657 Z-0.1712
N7965 X4.5344 Y3.8632 Z-0.1713
N7970 X4.5347 Y3.8607
N7975 X4.5356 Y3.8558 Z-0.1715
N7980 X4.5362 Y3.8533 Z-0.1716
N7985 X4.5369 Y3.8509 Z-0.1717
N7990 X4.5378 Y3.8486 Z-0.1718
N7995 X4.5387 Y3.8462 Z-0.1719
N8000 X4.5397 Y3.8439 Z-0.172
N8005 X4.5408 Y3.8417
N8010 X4.542 Y3.8395 Z-0.1721
N8015 X4.5433 Y3.8374 Z-0.1722
N8020 X4.5447 Y3.8353 Z-0.1723
N8025 X4.5462 Y3.8332 Z-0.1724
N8030 X4.5477 Y3.8313 Z-0.1725
N8035 X4.5493 Y3.8294 Z-0.1726
N8040 X4.5511 Y3.8275 Z-0.1727
N8045 X4.5528 Y3.8258
N8050 X4.5547 Y3.8241 Z-0.1728
N8055 X4.5566 Y3.8225 Z-0.1729
N8060 X4.5607 Y3.8196 Z-0.1731
N8065 X4.5628 Y3.8183 Z-0.1732
N8070 X4.565 Y3.817 Z-0.1733
N8075 X4.5672 Y3.8159 Z-0.1734
N8080 X4.5695 Y3.8148
N8085 X4.5718 Y3.8139 Z-0.1735
N8090 X4.5742 Y3.813 Z-0.1736
N8095 X4.5766 Y3.8123 Z-0.1737
N8100 X4.579 Y3.8116 Z-0.1738
N8105 X4.5814 Y3.8111 Z-0.1739
N8110 X4.5839 Y3.8106 Z-0.174
N8115 X4.5864 Y3.8103 Z-0.1741
N8120 X4.5888 Y3.81
N8125 X4.5913 Y3.8099 Z-0.1742
N8130 X4.5938 Z-0.1743
N8135 X4.5963 Y3.81 Z-0.1744
N8140 X4.5988 Y3.8102 Z-0.1745
N8145 X4.6038 Y3.8109 Z-0.1747
N8150 X4.6063 Y3.8114 Z-0.1748
N8155 X4.6087 Y3.812
N8160 X4.6111 Y3.8127 Z-0.1749
N8165 X4.6134 Y3.8135 Z-0.175
N8170 X4.6158 Y3.8144 Z-0.1751
N8175 X4.6181 Y3.8154 Z-0.1752
N8180 X4.6203 Y3.8165 Z-0.1753
N8185 X4.6225 Y3.8177 Z-0.1754
N8190 X4.6246 Y3.819
N8195 X4.6267 Y3.8204 Z-0.1755
N8200 X4.6287 Y3.8219 Z-0.1756
N8205 X4.6307 Y3.8234 Z-0.1757
N8210 X4.6326 Y3.825 Z-0.1758
N8215 X4.6344 Y3.8268 Z-0.1759
N8220 X4.6362 Y3.8285 Z-0.176
N8225 X4.6378 Y3.8304 Z-0.1761
N8230 X4.6394 Y3.8323
N8235 X4.641 Y3.8343 Z-0.1762
N8240 X4.6424 Y3.8364 Z-0.1763
N8245 X4.643 Y3.8375 Z-0.1764
N8250 X4.6437 Y3.8385
N8255 X4.646 Y3.8429 Z-0.1766
N8260 X4.648 Y3.8475 Z-0.1768
N8265 X4.6497 Y3.8522 Z-0.1769
N8270 X4.6509 Y3.8571 Z-0.1771
N8275 X4.6513 Y3.8596 Z-0.1772
N8280 X4.6516 Y3.862 Z-0.1773
N8285 X4.652 Y3.867 Z-0.1775
N8290 X4.6521 Y3.8695
N8295 X4.652 Y3.872 Z-0.1776
N8300 X4.6518 Y3.8745 Z-0.1777
N8305 X4.6515 Y3.877 Z-0.1778
N8310 X4.6506 Y3.8819 Z-0.178
N8315 X4.65 Y3.8843 Z-0.1781
N8320 X4.6493 Y3.8867 Z-0.1782
N8325 X4.6485 Y3.8891
N8330 X4.6476 Y3.8914 Z-0.1783
N8335 X4.6465 Y3.8937 Z-0.1784
N8340 X4.6454 Y3.8959 Z-0.1785
N8345 X4.6442 Y3.8981 Z-0.1786
N8350 X4.643 Y3.9002 Z-0.1787
N8355 X4.6416 Y3.9023 Z-0.1788
N8360 X4.6401 Y3.9043
N8365 X4.6386 Y3.9063 Z-0.1789
N8370 X4.6369 Y3.9082 Z-0.179
N8375 X4.6352 Y3.91 Z-0.1791
N8380 X4.6334 Y3.9117 Z-0.1792
N8385 X4.6316 Y3.9134 Z-0.1793
N8390 X4.6296 Y3.915 Z-0.1794
N8395 X4.6256 Y3.9179 Z-0.1795
N8400 X4.6235 Y3.9193 Z-0.1796
N8405 X4.6213 Y3.9205 Z-0.1797
N8410 X4.6191 Y3.9216 Z-0.1798
N8415 X4.6168 Y3.9227 Z-0.1799
N8420 X4.6145 Y3.9236 Z-0.18
N8425 X4.6122 Y3.9245 Z-0.1801
N8430 X4.6098 Y3.9252 Z-0.1802
N8435 X4.6074 Y3.9259
N8440 X4.605 Y3.9264 Z-0.1803
N8445 X4.6025 Y3.9269 Z-0.1804
N8450 X4.6 Y3.9272 Z-0.1805
N8455 X4.5975 Y3.9274 Z-0.1806
N8460 X4.5951 Y3.9276 Z-0.1807
N8465 X4.5926 Z-0.1808
N8470 X4.5901 Y3.9275 Z-0.1809
N8475 X4.5876 Y3.9273
N8480 X4.5851 Y3.927 Z-0.181
N8485 X4.5826 Y3.9266 Z-0.1811
N8490 X4.5778 Y3.9255 Z-0.1813
N8495 X4.5754 Y3.9248 Z-0.1814
N8500 X4.573 Y3.924 Z-0.1815
N8505 X4.5707 Y3.9231
N8510 X4.5684 Y3.9221 Z-0.1816
N8515 X4.5662 Y3.921 Z-0.1817
N8520 X4.564 Y3.9198 Z-0.1818
N8525 X4.5619 Y3.9185 Z-0.1819
N8530 X4.5598 Y3.9171 Z-0.182
N8535 X4.5578 Y3.9157 Z-0.1821
N8540 X4.5558 Y3.9141 Z-0.1822
N8545 X4.5539 Y3.9125
N8550 X4.5521 Y3.9108 Z-0.1823
N8555 X4.5504 Y3.909 Z-0.1824
N8560 X4.5487 Y3.9071 Z-0.1825
N8565 X4.5471 Y3.9052 Z-0.1826
N8570 X4.5456 Y3.9032 Z-0.1827
N8575 X4.5429 Y3.8991 Z-0.1829
N8580 X4.5417 Y3.8969
N8585 X4.5405 Y3.8947 Z-0.183
N8590 X4.5395 Y3.8924 Z-0.1831
N8595 X4.5385 Y3.8901 Z-0.1832
N8600 X4.5377 Y3.8878 Z-0.1833
N8605 X4.5369 Y3.8854 Z-0.1834
N8610 X4.5363 Y3.883 Z-0.1835
N8615 X4.5357 Y3.8806
N8620 X4.5353 Y3.8781 Z-0.1836
N8625 X4.535 Y3.8757 Z-0.1837
N8630 X4.5347 Y3.8732 Z-0.1838
N8635 X4.5346 Y3.8707 Z-0.1839
N8640 Y3.8682 Z-0.184
N8645 X4.5347 Y3.8657 Z-0.1841
N8650 X4.5348 Y3.8632 Z-0.1842
N8655 X4.5351 Y3.8608
N8660 X4.536 Y3.8559 Z-0.1844
N8665 X4.5366 Y3.8535 Z-0.1845
N8670 X4.5373 Y3.8511 Z-0.1846
N8675 X4.5382 Y3.8487 Z-0.1847
N8680 X4.5391 Y3.8464 Z-0.1848
N8685 X4.5401 Y3.8441
N8690 X4.5412 Y3.8419 Z-0.1849
N8695 X4.5424 Y3.8397 Z-0.185
N8700 X4.5436 Y3.8376 Z-0.1851
N8705 X4.545 Y3.8355 Z-0.1852
N8710 X4.5465 Y3.8335 Z-0.1853
N8715 X4.548 Y3.8315 Z-0.1854
N8720 X4.5497 Y3.8297 Z-0.1855
N8725 X4.5514 Y3.8278
N8730 X4.5531 Y3.8261 Z-0.1856
N8735 X4.555 Y3.8245 Z-0.1857
N8740 X4.5569 Y3.8229 Z-0.1858
N8745 X4.5609 Y3.82 Z-0.186
N8750 X4.563 Y3.8186 Z-0.1861
N8755 X4.5652 Y3.8174
N8760 X4.5674 Y3.8163 Z-0.1862
N8765 X4.5697 Y3.8152 Z-0.1863
N8770 X4.572 Y3.8143 Z-0.1864
N8775 X4.5743 Y3.8134 Z-0.1865
N8780 X4.5767 Y3.8127 Z-0.1866
N8785 X4.5791 Y3.812 Z-0.1867
N8790 X4.5815 Y3.8115 Z-0.1868
N8795 X4.5839 Y3.811
N8800 X4.5864 Y3.8107 Z-0.1869
N8805 X4.5889 Y3.8105 Z-0.187
N8810 X4.5914 Y3.8103 Z-0.1871
N8815 X4.5938 Z-0.1872
N8820 X4.5963 Y3.8104 Z-0.1873
N8825 X4.5988 Y3.8106 Z-0.1874
N8830 X4.6037 Y3.8113 Z-0.1875
N8835 X4.6062 Y3.8118 Z-0.1876
N8840 X4.6086 Y3.8124 Z-0.1877
N8845 X4.6109 Y3.8131 Z-0.1878
N8850 X4.6133 Y3.8139 Z-0.1879
N8855 X4.6156 Y3.8148 Z-0.188
N8860 X4.6179 Y3.8158 Z-0.1881
N8865 X4.6201 Y3.8169
N8870 X4.6223 Y3.8181 Z-0.1882
N8875 X4.6244 Y3.8194 Z-0.1883
N8880 X4.6265 Y3.8207 Z-0.1884
N8885 X4.6285 Y3.8222 Z-0.1885
N8890 X4.6304 Y3.8237 Z-0.1886
N8895 X4.6323 Y3.8254 Z-0.1887
N8900 X4.6341 Y3.8271
N8905 X4.6359 Y3.8288 Z-0.1888
N8910 X4.6375 Y3.8307 Z-0.1889
N8915 X4.6391 Y3.8326 Z-0.189
N8920 X4.6406 Y3.8346 Z-0.1891
N8925 X4.642 Y3.8366 Z-0.1892
N8930 X4.6427 Y3.8377
N8935 X4.6433 Y3.8387 Z-0.1893
N8940 X4.6457 Y3.8431 Z-0.1894
N8945 X4.6476 Y3.8477 Z-0.1896
N8950 X4.6492 Y3.8524 Z-0.1898
N8955 X4.6505 Y3.8572 Z-0.19
N8960 X4.6509 Y3.8596
N8965 X4.6512 Y3.8621 Z-0.1901
N8970 X4.6516 Y3.867 Z-0.1903
N8975 Y3.8695 Z-0.1904
N8980 Y3.872 Z-0.1905
N8985 X4.6514 Y3.8744 Z-0.1906
N8990 X4.6511 Y3.8769 Z-0.1907
N8995 X4.6502 Y3.8818 Z-0.1908
N9000 X4.6496 Y3.8842 Z-0.1909
N9005 X4.6489 Y3.8866 Z-0.191
N9010 X4.6481 Y3.8889 Z-0.1911
N9015 X4.6472 Y3.8912 Z-0.1912
N9020 X4.6462 Y3.8935 Z-0.1913
N9025 X4.6451 Y3.8957
N9030 X4.6439 Y3.8979 Z-0.1914
N9035 X4.6426 Y3.9 Z-0.1915
N9040 X4.6412 Y3.9021 Z-0.1916
N9045 X4.6398 Y3.9041 Z-0.1917
N9050 X4.6382 Y3.906 Z-0.1918
N9055 X4.6366 Y3.9079 Z-0.1919
N9060 X4.6349 Y3.9097
N9065 X4.6331 Y3.9114 Z-0.192
N9070 X4.6313 Y3.9131 Z-0.1921
N9075 X4.6294 Y3.9147 Z-0.1922
N9080 X4.6254 Y3.9176 Z-0.1924
N9085 X4.6233 Y3.9189 Z-0.1925
N9090 X4.6211 Y3.9201 Z-0.1926
N9095 X4.6189 Y3.9212
N9100 X4.6167 Y3.9223 Z-0.1927
N9105 X4.6144 Y3.9232 Z-0.1928
N9110 X4.612 Y3.9241 Z-0.1929
N9115 X4.6097 Y3.9248 Z-0.193
N9120 X4.6073 Y3.9255 Z-0.1931
N9125 X4.6049 Y3.926 Z-0.1932
N9130 X4.6024 Y3.9264
N9135 X4.6 Y3.9268 Z-0.1933
N9140 X4.5975 Y3.927 Z-0.1934
N9145 X4.595 Y3.9271 Z-0.1935
N9150 X4.5926 Y3.9272 Z-0.1936
N9155 X4.5901 Y3.9271 Z-0.1937
N9160 X4.5876 Y3.9269 Z-0.1938
N9165 X4.5852 Y3.9266 Z-0.1939
N9170 X4.5827 Y3.9262
N9175 X4.5779 Y3.9251 Z-0.1941
N9180 X4.5755 Y3.9244 Z-0.1942
N9185 X4.5732 Y3.9236 Z-0.1943
N9190 X4.5709 Y3.9227 Z-0.1944
N9195 X4.5686 Y3.9217 Z-0.1945
N9200 X4.5664 Y3.9206
N9205 X4.5642 Y3.9194 Z-0.1946
N9210 X4.5621 Y3.9181 Z-0.1947
N9215 X4.5601 Y3.9168 Z-0.1948
N9220 X4.5581 Y3.9153 Z-0.1949
N9225 X4.5561 Y3.9138 Z-0.195
N9230 X4.5542 Y3.9122 Z-0.1951
N9235 X4.5524 Y3.9105
N9240 X4.5507 Y3.9087 Z-0.1952
N9245 X4.5491 Y3.9069 Z-0.1953
N9250 X4.5475 Y3.905 Z-0.1954
N9255 X4.546 Y3.903 Z-0.1955
N9260 X4.5433 Y3.8988 Z-0.1957
N9265 X4.5421 Y3.8967
N9270 X4.5409 Y3.8945 Z-0.1958
N9275 X4.5399 Y3.8923 Z-0.1959
N9280 X4.5389 Y3.89 Z-0.196
N9285 X4.5381 Y3.8876 Z-0.1961
N9290 X4.5374 Y3.8853 Z-0.1962
N9295 X4.5367 Y3.8829 Z-0.1963
N9300 X4.5362 Y3.8805 Z-0.1964
N9305 X4.5357 Y3.8781
N9310 X4.5354 Y3.8756 Z-0.1965
N9315 X4.5352 Y3.8733 Z-0.1966
N9320 X4.535 Y3.871 Z-0.1967
N9325 X4.5351 Y3.8663 Z-0.1968
N9330 Y3.8662 Z-0.1969
N9335 Y3.8661
N9340 X4.5352 Y3.8636
N9345 X4.5355 Y3.861 Z-0.197
N9350 X4.5359 Y3.8585 Z-0.1971
N9355 X4.5365 Y3.856 Z-0.1972
N9360 X4.5371 Y3.8535 Z-0.1973
N9365 X4.5378 Y3.8511 Z-0.1974
N9370 X4.5386 Y3.8487 Z-0.1975
N9375 X4.5396 Y3.8463 Z-0.1976
N9380 X4.5406 Y3.844
N9385 X4.5417 Y3.8418 Z-0.1977
N9390 X4.543 Y3.8395 Z-0.1978
N9395 X4.5443 Y3.8374 Z-0.1979
N9400 X4.5457 Y3.8353 Z-0.198
N9405 X4.5472 Y3.8332 Z-0.1981
N9410 X4.5488 Y3.8313 Z-0.1982
N9415 X4.5505 Y3.8294 Z-0.1983
N9420 X4.5523 Y3.8276 Z-0.1984
N9425 X4.5541 Y3.8258
N9430 X4.5561 Y3.8241 Z-0.1985
N9435 X4.558 Y3.8226 Z-0.1986
N9440 X4.5601 Y3.8211 Z-0.1987
N9445 X4.5622 Y3.8197 Z-0.1988
N9450 X4.5644 Y3.8184 Z-0.1989
N9455 X4.5666 Y3.8172 Z-0.199
N9460 X4.5689 Y3.8161 Z-0.1991
N9465 X4.5712 Y3.8151 Z-0.1992
N9470 X4.5736 Y3.8142
N9475 X4.576 Y3.8134 Z-0.1993
N9480 X4.5784 Y3.8127 Z-0.1994
N9485 X4.5809 Y3.8121 Z-0.1995
N9490 X4.5833 Y3.8116 Z-0.1996
N9495 X4.5858 Y3.8112 Z-0.1997
N9500 X4.5884 Y3.811 Z-0.1998
N9505 X4.5909 Y3.8108 Z-0.1999
N9510 X4.5935
N9515 X4.596 Z-0.2
N9520 X4.601 Y3.8113 Z-0.2002
N9525 X4.6035 Y3.8117 Z-0.2003
N9530 X4.606 Y3.8122 Z-0.2004
N9535 X4.6085 Y3.8128 Z-0.2005
N9540 X4.6109 Y3.8136 Z-0.2006
N9545 X4.6133 Y3.8144 Z-0.2007
N9550 X4.6157 Y3.8153
N9555 X4.618 Y3.8164 Z-0.2008
N9560 X4.6202 Y3.8175 Z-0.2009
N9565 X4.6224 Y3.8187 Z-0.201
N9570 X4.6246 Y3.82 Z-0.2011
N9575 X4.6267 Y3.8215 Z-0.2012
N9580 X4.6287 Y3.823 Z-0.2013
N9585 X4.6307 Y3.8246 Z-0.2014
N9590 X4.6326 Y3.8262
N9595 X4.6344 Y3.828 Z-0.2015
N9600 X4.6361 Y3.8298 Z-0.2016
N9605 X4.6378 Y3.8318 Z-0.2017
N9610 X4.6394 Y3.8337 Z-0.2018
N9615 X4.6409 Y3.8358 Z-0.2019
N9620 X4.6423 Y3.8379 Z-0.202
N9625 X4.6447 Y3.8423 Z-0.2022
N9630 X4.6458 Y3.8446
N9635 X4.6468 Y3.8469 Z-0.2023
N9640 X4.6485 Y3.8516 Z-0.2025
N9645 X4.6498 Y3.8565 Z-0.2027
N9650 X4.6503 Y3.859 Z-0.2028
N9655 X4.6507 Y3.8616 Z-0.2029
N9660 X4.6511 Y3.8666 Z-0.203
N9665 Y3.8716 Z-0.2032
N9670 X4.651 Y3.8729 Z-0.2033
N9675 X4.6509 Y3.8741
N9680 X4.6506 Y3.8767 Z-0.2034
N9685 X4.6497 Y3.8816 Z-0.2036
N9690 X4.6491 Y3.8841 Z-0.2037
N9695 X4.6484 Y3.8865
N9700 X4.6476 Y3.8889 Z-0.2038
N9705 X4.6466 Y3.8912 Z-0.2039
N9710 X4.6456 Y3.8935 Z-0.204
N9715 X4.6445 Y3.8958 Z-0.2041
N9720 X4.6432 Y3.898 Z-0.2042
N9725 X4.6419 Y3.9002 Z-0.2043
N9730 X4.6405 Y3.9023 Z-0.2044
N9735 X4.639 Y3.9043
N9740 X4.6374 Y3.9062 Z-0.2045
N9745 X4.6357 Y3.9081 Z-0.2046
N9750 X4.634 Y3.9099 Z-0.2047
N9755 X4.6321 Y3.9117 Z-0.2048
N9760 X4.6302 Y3.9134 Z-0.2049
N9765 X4.6282 Y3.9149 Z-0.205
N9770 X4.6262 Y3.9164 Z-0.2051
N9775 X4.6241 Y3.9178 Z-0.2052
N9780 X4.6219 Y3.9191
N9785 X4.6197 Y3.9203 Z-0.2053
N9790 X4.6174 Y3.9214 Z-0.2054
N9795 X4.6151 Y3.9224 Z-0.2055
N9800 X4.6128 Y3.9233 Z-0.2056
N9805 X4.6104 Y3.9241 Z-0.2057
N9810 X4.6079 Y3.9248 Z-0.2058
N9815 X4.6055 Y3.9254 Z-0.2059
N9820 X4.603 Y3.9259
N9825 X4.6005 Y3.9262 Z-0.206
N9830 X4.598 Y3.9265 Z-0.2061
N9835 X4.5955 Y3.9267 Z-0.2062
N9840 X4.593 Z-0.2063
N9845 X4.5904 Y3.9266 Z-0.2064
N9850 X4.5879 Y3.9264 Z-0.2065
N9855 X4.5854 Y3.9262 Z-0.2066
N9860 X4.5804 Y3.9252 Z-0.2067
N9865 X4.578 Y3.9246 Z-0.2068
N9870 X4.5756 Y3.9239 Z-0.2069
N9875 X4.5732 Y3.9231 Z-0.207
N9880 X4.5708 Y3.9222 Z-0.2071
N9885 X4.5685 Y3.9211 Z-0.2072
N9890 X4.5663 Y3.92 Z-0.2073
N9895 X4.5641 Y3.9188 Z-0.2074
N9900 X4.5619 Y3.9175
N9905 X4.5599 Y3.916 Z-0.2075
N9910 X4.5578 Y3.9145 Z-0.2076
N9915 X4.5559 Y3.913 Z-0.2077
N9920 X4.554 Y3.9113 Z-0.2078
N9925 X4.5522 Y3.9095 Z-0.2079
N9930 X4.5505 Y3.9077 Z-0.208
N9935 X4.5488 Y3.9058 Z-0.2081
N9940 X4.5472 Y3.9038
N9945 X4.5458 Y3.9018 Z-0.2082
N9950 X4.5444 Y3.8997 Z-0.2083
N9955 X4.5431 Y3.8975 Z-0.2084
N9960 X4.5419 Y3.8953 Z-0.2085
N9965 X4.5408 Y3.893 Z-0.2086
N9970 X4.5398 Y3.8907 Z-0.2087
N9975 X4.5389 Y3.8884 Z-0.2088
N9980 X4.5381 Y3.886
N9985 X4.5374 Y3.8836 Z-0.2089
N9990 X4.5368 Y3.8811 Z-0.209
N9995 X4.5363 Y3.8786 Z-0.2091
N10000 X4.5359 Y3.8761 Z-0.2092
N10005 X4.5357 Y3.8736 Z-0.2093
N10010 X4.5355 Y3.8711 Z-0.2094
N10015 Y3.8686 Z-0.2095
N10020 X4.5356 Y3.8661
N10025 X4.536 Y3.8611 Z-0.2097
N10030 X4.5364 Y3.8586 Z-0.2098
N10035 X4.5369 Y3.8561 Z-0.2099
N10040 X4.5375 Y3.8537 Z-0.21
N10045 X4.5383 Y3.8513 Z-0.2101
N10050 X4.5391 Y3.8489 Z-0.2102
N10055 X4.54 Y3.8465 Z-0.2103
N10060 X4.541 Y3.8442
N10065 X4.5422 Y3.842 Z-0.2104
N10070 X4.5434 Y3.8398 Z-0.2105
N10075 X4.5447 Y3.8377 Z-0.2106
N10080 X4.5461 Y3.8356 Z-0.2107
N10085 X4.5476 Y3.8335 Z-0.2108
N10090 X4.5492 Y3.8316 Z-0.2109
N10095 X4.5509 Y3.8297 Z-0.211
N10100 X4.5526 Y3.8279
N10105 X4.5545 Y3.8262 Z-0.2111
N10110 X4.5564 Y3.8245 Z-0.2112
N10115 X4.5583 Y3.823 Z-0.2113
N10120 X4.5604 Y3.8215 Z-0.2114
N10125 X4.5625 Y3.8201 Z-0.2115
N10130 X4.5646 Y3.8188 Z-0.2116
N10135 X4.5668 Y3.8176 Z-0.2117
N10140 X4.5691 Y3.8165
N10145 X4.5714 Y3.8155 Z-0.2118
N10150 X4.5737 Y3.8146 Z-0.2119
N10155 X4.5761 Y3.8138 Z-0.212
N10160 X4.5785 Y3.8131 Z-0.2121
N10165 X4.581 Y3.8126 Z-0.2122
N10170 X4.5834 Y3.8121 Z-0.2123
N10175 X4.5859 Y3.8117 Z-0.2124
N10180 X4.5884 Y3.8114
N10185 X4.5909 Y3.8113 Z-0.2125
N10190 X4.5935 Y3.8112 Z-0.2126
N10195 X4.596 Y3.8113 Z-0.2127
N10200 X4.601 Y3.8118 Z-0.2129
N10205 X4.6034 Y3.8122 Z-0.213
N10210 X4.6059 Y3.8127 Z-0.2131
N10215 X4.6083 Y3.8133
N10220 X4.6108 Y3.814 Z-0.2132
N10225 X4.6131 Y3.8148 Z-0.2133
N10230 X4.6155 Y3.8158 Z-0.2134
N10235 X4.6178 Y3.8168 Z-0.2135
N10240 X4.62 Y3.8179 Z-0.2136
N10245 X4.6222 Y3.8191 Z-0.2137
N10250 X4.6243 Y3.8204 Z-0.2138
N10255 X4.6264 Y3.8218
N10260 X4.6284 Y3.8233 Z-0.2139
N10265 X4.6304 Y3.8249 Z-0.214
N10270 X4.6323 Y3.8266 Z-0.2141
N10275 X4.6341 Y3.8283 Z-0.2142
N10280 X4.6358 Y3.8302 Z-0.2143
N10285 X4.6374 Y3.8321 Z-0.2144
N10290 X4.639 Y3.834 Z-0.2145
N10295 X4.6405 Y3.8361
N10300 X4.6418 Y3.8381 Z-0.2146
N10305 X4.6443 Y3.8425 Z-0.2148
N10310 X4.6454 Y3.8448 Z-0.2149
N10315 X4.6464 Y3.8471 Z-0.215
N10320 X4.6481 Y3.8518 Z-0.2152
N10325 X4.6494 Y3.8567 Z-0.2153
N10330 X4.6498 Y3.8591 Z-0.2154
N10335 X4.6502 Y3.8616 Z-0.2155
N10340 X4.6506 Y3.8666 Z-0.2157
N10345 Y3.8716 Z-0.2159
N10350 X4.6505 Y3.8728
N10355 X4.6504 Y3.8741
N10360 X4.6502 Y3.8766 Z-0.216
N10365 X4.6493 Y3.8815 Z-0.2162
N10370 X4.6486 Y3.884 Z-0.2163
N10375 X4.6479 Y3.8864 Z-0.2164
N10380 X4.6471 Y3.8887 Z-0.2165
N10385 X4.6462 Y3.891 Z-0.2166
N10390 X4.6452 Y3.8933
N10395 X4.644 Y3.8956 Z-0.2167
N10400 X4.6428 Y3.8978 Z-0.2168
N10405 X4.6415 Y3.8999 Z-0.2169
N10410 X4.6401 Y3.902 Z-0.217
N10415 X4.6386 Y3.904 Z-0.2171
N10420 X4.637 Y3.9059 Z-0.2172
N10425 X4.6354 Y3.9078 Z-0.2173
N10430 X4.6336 Y3.9096
N10435 X4.6318 Y3.9113 Z-0.2174
N10440 X4.6299 Y3.913 Z-0.2175
N10445 X4.628 Y3.9145 Z-0.2176
N10450 X4.6259 Y3.916 Z-0.2177
N10455 X4.6238 Y3.9174 Z-0.2178
N10460 X4.6217 Y3.9187 Z-0.2179
N10465 X4.6195 Y3.9199 Z-0.218
N10470 X4.6172 Y3.921
N10475 X4.6149 Y3.922 Z-0.2181
N10480 X4.6126 Y3.9228 Z-0.2182
N10485 X4.6102 Y3.9236 Z-0.2183
N10490 X4.6078 Y3.9243 Z-0.2184
N10495 X4.6054 Y3.9249 Z-0.2185
N10500 X4.6029 Y3.9254 Z-0.2186
N10505 X4.6004 Y3.9257 Z-0.2187
N10510 X4.598 Y3.926
N10515 X4.5955 Y3.9262 Z-0.2188
N10520 X4.593 Z-0.2189
N10525 X4.5905 Y3.9261 Z-0.219
N10530 X4.588 Y3.926 Z-0.2191
N10535 X4.5855 Y3.9257 Z-0.2192
N10540 X4.5805 Y3.9248 Z-0.2194
N10545 X4.5781 Y3.9242
N10550 X4.5757 Y3.9234 Z-0.2195
N10555 X4.5734 Y3.9226 Z-0.2196
N10560 X4.571 Y3.9217 Z-0.2197
N10565 X4.5688 Y3.9207 Z-0.2198
N10570 X4.5665 Y3.9196 Z-0.2199
N10575 X4.5643 Y3.9183 Z-0.22
N10580 X4.5622 Y3.917 Z-0.2201
N10585 X4.5601 Y3.9156
N10590 X4.5581 Y3.9141 Z-0.2202
N10595 X4.5562 Y3.9126 Z-0.2203
N10600 X4.5543 Y3.9109 Z-0.2204
N10605 X4.5525 Y3.9092 Z-0.2205
N10610 X4.5508 Y3.9074 Z-0.2206
N10615 X4.5492 Y3.9055 Z-0.2207
N10620 X4.5476 Y3.9035
N10625 X4.5462 Y3.9015 Z-0.2208
N10630 X4.5448 Y3.8994 Z-0.2209
N10635 X4.5435 Y3.8973 Z-0.221
N10640 X4.5423 Y3.8951 Z-0.2211
N10645 X4.5412 Y3.8928 Z-0.2212
N10650 X4.5402 Y3.8905 Z-0.2213
N10655 X4.5393 Y3.8882 Z-0.2214
N10660 X4.5386 Y3.8858
N10665 X4.5379 Y3.8834 Z-0.2215
N10670 X4.5373 Y3.881 Z-0.2216
N10675 X4.5368 Y3.8785 Z-0.2217
N10680 X4.5364 Y3.8761 Z-0.2218
N10685 X4.5362 Y3.8736 Z-0.2219
N10690 X4.536 Y3.8711 Z-0.222
N10695 Y3.8686 Z-0.2221
N10700 X4.5361 Y3.8661
N10705 X4.5365 Y3.8612 Z-0.2223
N10710 X4.5369 Y3.8587 Z-0.2224
N10715 X4.5374 Y3.8562 Z-0.2225
N10720 X4.538 Y3.8538 Z-0.2226
N10725 X4.5387 Y3.8514 Z-0.2227
N10730 X4.5396 Y3.8491 Z-0.2228
N10735 X4.5405 Y3.8467
N10740 X4.5415 Y3.8445 Z-0.2229
N10745 X4.5426 Y3.8422 Z-0.223
N10750 X4.5438 Y3.8401 Z-0.2231
N10755 X4.5451 Y3.8379 Z-0.2232
N10760 X4.5465 Y3.8359 Z-0.2233
N10765 X4.548 Y3.8339 Z-0.2234
N10770 X4.5496 Y3.8319
N10775 X4.5513 Y3.8301 Z-0.2235
N10780 X4.553 Y3.8283 Z-0.2236
N10785 X4.5548 Y3.8266 Z-0.2237
N10790 X4.5567 Y3.8249 Z-0.2238
N10795 X4.5586 Y3.8234 Z-0.2239
N10800 X4.5607 Y3.8219 Z-0.224
N10805 X4.5627 Y3.8205 Z-0.2241
N10810 X4.5649 Y3.8193
N10815 X4.5671 Y3.8181 Z-0.2242
N10820 X4.5693 Y3.817 Z-0.2243
N10825 X4.5716 Y3.816 Z-0.2244
N10830 X4.5739 Y3.8151 Z-0.2245
N10835 X4.5763 Y3.8143 Z-0.2246
N10840 X4.5787 Y3.8136 Z-0.2247
N10845 X4.5811 Y3.8131 Z-0.2248
N10850 X4.5835 Y3.8126
N10855 X4.586 Y3.8122 Z-0.2249
N10860 X4.5885 Y3.812 Z-0.225
N10865 X4.591 Y3.8118 Z-0.2251
N10870 X4.5934 Z-0.2252
N10875 X4.5959 Z-0.2253
N10880 X4.6009 Y3.8123 Z-0.2254
N10885 X4.6033 Y3.8127 Z-0.2255
N10890 X4.6058 Y3.8132 Z-0.2256
N10895 X4.6082 Y3.8138 Z-0.2257
N10900 X4.6106 Y3.8145 Z-0.2258
N10905 X4.6129 Y3.8153 Z-0.2259
N10910 X4.6153 Y3.8162 Z-0.226
N10915 X4.6175 Y3.8173 Z-0.2261
N10920 X4.6198 Y3.8184
N10925 X4.6219 Y3.8196 Z-0.2262
N10930 X4.624 Y3.8209 Z-0.2263
N10935 X4.6261 Y3.8223 Z-0.2264
N10940 X4.6281 Y3.8238 Z-0.2265
N10945 X4.63 Y3.8253 Z-0.2266
N10950 X4.6319 Y3.827 Z-0.2267
N10955 X4.6337 Y3.8287
N10960 X4.6354 Y3.8305 Z-0.2268
N10965 X4.637 Y3.8324 Z-0.2269
N10970 X4.6386 Y3.8343 Z-0.227
N10975 X4.64 Y3.8364 Z-0.2271
N10980 X4.6414 Y3.8384 Z-0.2272
N10985 X4.6438 Y3.8428 Z-0.2274
N10990 X4.6449 Y3.845
N10995 X4.6459 Y3.8473 Z-0.2275
N11000 X4.6476 Y3.852 Z-0.2277
N11005 X4.6488 Y3.8568 Z-0.2279
N11010 X4.6493 Y3.8592 Z-0.228
N11015 X4.6497 Y3.8617
N11020 X4.6501 Y3.8666 Z-0.2282
N11025 X4.6502 Y3.8691 Z-0.2283
N11030 X4.6501 Y3.8703 Z-0.2284
N11035 Y3.8716
N11040 X4.6499 Y3.8741 Z-0.2285
N11045 X4.6496 Y3.8765 Z-0.2286
N11050 X4.6487 Y3.8814 Z-0.2287
N11055 X4.6481 Y3.8838 Z-0.2288
N11060 X4.6474 Y3.8862 Z-0.2289
N11065 X4.6466 Y3.8885 Z-0.229
N11070 X4.6457 Y3.8909 Z-0.2291
N11075 X4.6447 Y3.8931 Z-0.2292
N11080 X4.6436 Y3.8953 Z-0.2293
N11085 X4.6424 Y3.8975
N11090 X4.641 Y3.8996 Z-0.2294
N11095 X4.6397 Y3.9017 Z-0.2295
N11100 X4.6382 Y3.9037 Z-0.2296
N11105 X4.6366 Y3.9056 Z-0.2297
N11110 X4.635 Y3.9074 Z-0.2298
N11115 X4.6332 Y3.9092 Z-0.2299
N11120 X4.6314 Y3.9109 Z-0.23
N11125 X4.6296 Y3.9126
N11130 X4.6276 Y3.9141 Z-0.2301
N11135 X4.6256 Y3.9156 Z-0.2302
N11140 X4.6235 Y3.9169 Z-0.2303
N11145 X4.6214 Y3.9182 Z-0.2304
N11150 X4.6192 Y3.9194 Z-0.2305
N11155 X4.617 Y3.9205 Z-0.2306
N11160 X4.6147 Y3.9215
N11165 X4.6124 Y3.9223 Z-0.2307
N11170 X4.6101 Y3.9231 Z-0.2308
N11175 X4.6077 Y3.9238 Z-0.2309
N11180 X4.6053 Y3.9244 Z-0.231
N11185 X4.6028 Y3.9248 Z-0.2311
N11190 X4.6004 Y3.9252 Z-0.2312
N11195 X4.5979 Y3.9255
N11200 X4.5954 Y3.9256 Z-0.2313
N11205 X4.593 Y3.9257 Z-0.2314
N11210 X4.5905 Y3.9256 Z-0.2315
N11215 X4.5856 Y3.9251 Z-0.2317
N11220 X4.5831 Y3.9247 Z-0.2318
N11225 X4.5807 Y3.9242 Z-0.2319
N11230 X4.5783 Y3.9236
N11235 X4.5759 Y3.9229 Z-0.232
N11240 X4.5736 Y3.9221 Z-0.2321
N11245 X4.5713 Y3.9212 Z-0.2322
N11250 X4.569 Y3.9202 Z-0.2323
N11255 X4.5668 Y3.9191 Z-0.2324
N11260 X4.5646 Y3.9179 Z-0.2325
N11265 X4.5625 Y3.9166
N11270 X4.5605 Y3.9152 Z-0.2326
N11275 X4.5585 Y3.9137 Z-0.2327
N11280 X4.5566 Y3.9122 Z-0.2328
N11285 X4.5547 Y3.9105 Z-0.2329
N11290 X4.5529 Y3.9088 Z-0.233
N11295 X4.5512 Y3.907 Z-0.2331
N11300 X4.5496 Y3.9051
N11305 X4.5481 Y3.9032 Z-0.2332
N11310 X4.5466 Y3.9012 Z-0.2333
N11315 X4.5453 Y3.8991 Z-0.2334
N11320 X4.544 Y3.897 Z-0.2335
N11325 X4.5428 Y3.8948 Z-0.2336
N11330 X4.5417 Y3.8926 Z-0.2337
N11335 X4.5407 Y3.8903 Z-0.2338
N11340 X4.5399 Y3.888
N11345 X4.5391 Y3.8857 Z-0.2339
N11350 X4.5384 Y3.8833 Z-0.234
N11355 X4.5378 Y3.8809 Z-0.2341
N11360 X4.5373 Y3.8785 Z-0.2342
N11365 X4.537 Y3.876 Z-0.2343
N11370 X4.5367 Y3.8736 Z-0.2344
N11375 X4.5366 Y3.8711
N11380 X4.5365 Y3.8686 Z-0.2345
N11385 X4.5366 Y3.8661 Z-0.2346
N11390 X4.5371 Y3.8612 Z-0.2348
N11395 X4.5375 Y3.8588 Z-0.2349
N11400 X4.538 Y3.8564 Z-0.235
N11405 X4.5386 Y3.854
N11410 X4.5393 Y3.8516 Z-0.2351
N11415 X4.5401 Y3.8493 Z-0.2352
N11420 X4.541 Y3.847 Z-0.2353
N11425 X4.542 Y3.8447 Z-0.2354
N11430 X4.5431 Y3.8425 Z-0.2355
N11435 X4.5443 Y3.8403 Z-0.2356
N11440 X4.5456 Y3.8382 Z-0.2357
N11445 X4.547 Y3.8362
N11450 X4.5484 Y3.8342 Z-0.2358
N11455 X4.55 Y3.8323 Z-0.2359
N11460 X4.5516 Y3.8304 Z-0.236
N11465 X4.5539 Y3.8281 Z-0.2361
N11470 X4.5551 Y3.827 Z-0.2362
N11475 X4.5563 Y3.826
N11480 X4.5564 Y3.8258
N11485 X4.5574 Y3.825 Z-0.2363
N11490 X4.5584 Y3.8242
N11495 X4.5604 Y3.8227 Z-0.2364
N11500 X4.5625 Y3.8213 Z-0.2365
N11505 X4.5647 Y3.82 Z-0.2366
N11510 X4.5669 Y3.8188 Z-0.2367
N11515 X4.5692 Y3.8176 Z-0.2368
N11520 X4.5715 Y3.8166
N11525 X4.5739 Y3.8157 Z-0.2369
N11530 X4.5763 Y3.8149 Z-0.237
N11535 X4.5787 Y3.8142 Z-0.2371
N11540 X4.5812 Y3.8136 Z-0.2372
N11545 X4.5837 Y3.8131 Z-0.2373
N11550 X4.5862 Y3.8127 Z-0.2374
N11555 X4.5887 Y3.8125 Z-0.2375
N11560 X4.5913 Y3.8123
N11565 X4.5938 Z-0.2376
N11570 X4.5963 Y3.8124 Z-0.2377
N11575 X4.5989 Y3.8126 Z-0.2378
N11580 X4.6014 Y3.8129 Z-0.2379
N11585 X4.6039 Y3.8134 Z-0.238
N11590 X4.6064 Y3.8139 Z-0.2381
N11595 X4.6088 Y3.8145 Z-0.2382
N11600 X4.6112 Y3.8153 Z-0.2383
N11605 X4.6136 Y3.8162
N11610 X4.616 Y3.8171 Z-0.2384
N11615 X4.6183 Y3.8182 Z-0.2385
N11620 X4.6205 Y3.8194 Z-0.2386
N11625 X4.6227 Y3.8207 Z-0.2387
N11630 X4.6248 Y3.822 Z-0.2388
N11635 X4.6269 Y3.8235 Z-0.2389
N11640 X4.6289 Y3.8251 Z-0.239
N11645 X4.6308 Y3.8267 Z-0.2391
N11650 X4.6327 Y3.8284
N11655 X4.6344 Y3.8302 Z-0.2392
N11660 X4.6361 Y3.8321 Z-0.2393
N11665 X4.6377 Y3.8341 Z-0.2394
N11670 X4.6392 Y3.8361 Z-0.2395
N11675 X4.6406 Y3.8382 Z-0.2396
N11680 X4.6431 Y3.8426 Z-0.2398
N11685 X4.6443 Y3.8449
N11690 X4.6453 Y3.8472 Z-0.2399
N11695 X4.647 Y3.852 Z-0.2401
N11700 X4.6483 Y3.8569 Z-0.2403
N11705 X4.6488 Y3.8594 Z-0.2404
N11710 X4.6492 Y3.8619 Z-0.2405
N11715 X4.6495 Y3.8669 Z-0.2406
N11720 X4.6496 Y3.8695 Z-0.2407
N11725 X4.6495 Y3.872 Z-0.2408
N11730 X4.6493 Y3.8745 Z-0.2409
N11735 X4.649 Y3.877 Z-0.241
N11740 X4.6486 Y3.8795 Z-0.2411
N11745 X4.648 Y3.882 Z-0.2412
N11750 X4.6474 Y3.8844 Z-0.2413
N11755 X4.6466 Y3.8868
N11760 X4.6458 Y3.8892 Z-0.2414
N11765 X4.6448 Y3.8915 Z-0.2415
N11770 X4.6437 Y3.8938 Z-0.2416
N11775 X4.6425 Y3.8961 Z-0.2417
N11780 X4.6413 Y3.8983 Z-0.2418
N11785 X4.6399 Y3.9004 Z-0.2419
N11790 X4.6384 Y3.9025 Z-0.242
N11795 X4.6369 Y3.9045 Z-0.2421
N11800 X4.6352 Y3.9064
N11805 X4.6335 Y3.9082 Z-0.2422
N11810 X4.6317 Y3.91 Z-0.2423
N11815 X4.6298 Y3.9117 Z-0.2424
N11820 X4.6278 Y3.9132 Z-0.2425
N11825 X4.6258 Y3.9148 Z-0.2426
N11830 X4.6237 Y3.9162 Z-0.2427
N11835 X4.6216 Y3.9175 Z-0.2428
N11840 X4.6194 Y3.9187
N11845 X4.6171 Y3.9198 Z-0.2429
N11850 X4.6148 Y3.9208 Z-0.243
N11855 X4.6124 Y3.9217 Z-0.2431
N11860 X4.61 Y3.9225 Z-0.2432
N11865 X4.6076 Y3.9232 Z-0.2433
N11870 X4.6052 Y3.9238 Z-0.2434
N11875 X4.6027 Y3.9243 Z-0.2435
N11880 X4.6002 Y3.9247 Z-0.2436
N11885 X4.5976 Y3.9249
N11890 X4.5951 Y3.9251 Z-0.2437
N11895 X4.5926 Z-0.2438
N11900 X4.5901 Y3.925 Z-0.2439
N11905 X4.5876 Y3.9248 Z-0.244
N11910 X4.5851 Y3.9245 Z-0.2441
N11915 X4.5826 Y3.9241 Z-0.2442
N11920 X4.5801 Y3.9235 Z-0.2443
N11925 X4.5777 Y3.9229
N11930 X4.5753 Y3.9221 Z-0.2444
N11935 X4.5729 Y3.9213 Z-0.2445
N11940 X4.5706 Y3.9203 Z-0.2446
N11945 X4.5683 Y3.9192 Z-0.2447
N11950 X4.5661 Y3.9181 Z-0.2448
N11955 X4.5639 Y3.9168 Z-0.2449
N11960 X4.5618 Y3.9154 Z-0.245
N11965 X4.5597 Y3.914
N11970 X4.5577 Y3.9124 Z-0.2451
N11975 X4.5558 Y3.9108 Z-0.2452
N11980 X4.554 Y3.9091 Z-0.2453
N11985 X4.5522 Y3.9073 Z-0.2454
N11990 X4.5505 Y3.9054 Z-0.2455
N11995 X4.5489 Y3.9034 Z-0.2456
N12000 X4.5474 Y3.9014 Z-0.2457
N12005 X4.546 Y3.8993
N12010 X4.5447 Y3.8971 Z-0.2458
N12015 X4.5435 Y3.8949 Z-0.2459
N12020 X4.5424 Y3.8927 Z-0.246
N12025 X4.5414 Y3.8904 Z-0.2461
N12030 X4.5405 Y3.888 Z-0.2462
N12035 X4.5397 Y3.8856 Z-0.2463
N12040 X4.539 Y3.8832 Z-0.2464
N12045 X4.5384 Y3.8808 Z-0.2465
N12050 X4.5379 Y3.8783
N12055 X4.5375 Y3.8758 Z-0.2466
N12060 X4.5373 Y3.8733 Z-0.2467
N12065 X4.5371 Y3.8708 Z-0.2468
N12070 Y3.8683 Z-0.2469
N12075 X4.5372 Y3.8658 Z-0.247
N12080 X4.5374 Y3.8633 Z-0.2471
N12085 X4.5377 Y3.8608 Z-0.2472
N12090 X4.5381 Y3.8583
N12095 X4.5387 Y3.8558 Z-0.2473
N12100 X4.5393 Y3.8534 Z-0.2474
N12105 X4.5401 Y3.851 Z-0.2475
N12110 X4.5409 Y3.8486 Z-0.2476
N12115 X4.5419 Y3.8463 Z-0.2477
N12120 X4.543 Y3.844 Z-0.2478
N12125 X4.5441 Y3.8418 Z-0.2479
N12130 X4.5454 Y3.8396
N12135 X4.5468 Y3.8375 Z-0.248
N12140 X4.5482 Y3.8354 Z-0.2481
N12145 X4.5498 Y3.8335 Z-0.2482
N12150 X4.5514 Y3.8316 Z-0.2483
N12155 X4.5531 Y3.8297 Z-0.2484
N12160 X4.5549 Y3.828 Z-0.2485
N12165 X4.5568 Y3.8263 Z-0.2486
N12170 X4.5588 Y3.8247
N12175 X4.5608 Y3.8232 Z-0.2487
N12180 X4.5628 Y3.8218 Z-0.2488
N12185 X4.565 Y3.8205 Z-0.2489
N12190 X4.5672 Y3.8193 Z-0.249
N12195 X4.5694 Y3.8182 Z-0.2491
N12200 X4.5717 Y3.8171 Z-0.2492
N12205 X4.5741 Y3.8162 Z-0.2493
N12210 X4.5765 Y3.8154
N12215 X4.5789 Y3.8147 Z-0.2494
N12220 X4.5813 Y3.8142 Z-0.2495
N12225 X4.5838 Y3.8137 Z-0.2496
N12230 X4.5863 Y3.8133 Z-0.2497
N12235 X4.5888 Y3.8131 Z-0.2498
N12240 X4.5913 Y3.8129 Z-0.2499
N12245 X4.5938 Z-0.25
N12250 X4.5963 Y3.813
N12255 X4.5988 Y3.8132 Z-0.2501
N12260 X4.6013 Y3.8135 Z-0.2502
N12265 X4.6038 Y3.8139 Z-0.2503
N12270 X4.6062 Y3.8145 Z-0.2504
N12275 X4.6087 Y3.8151 Z-0.2505
N12280 X4.611 Y3.8159 Z-0.2506
N12285 X4.6134 Y3.8167 Z-0.2507
N12290 X4.6157 Y3.8177
N12295 X4.618 Y3.8187 Z-0.2508
N12300 X4.6202 Y3.8199 Z-0.2509
N12305 X4.6224 Y3.8212 Z-0.251
N12310 X4.6245 Y3.8225 Z-0.2511
N12315 X4.6265 Y3.824 Z-0.2512
N12320 X4.6285 Y3.8255 Z-0.2513
N12325 X4.6304 Y3.8272 Z-0.2514
N12330 X4.6322 Y3.8289
N12335 X4.634 Y3.8307 Z-0.2515
N12340 X4.6357 Y3.8325 Z-0.2516
N12345 X4.6372 Y3.8345 Z-0.2517
N12350 X4.6387 Y3.8365 Z-0.2518
N12355 X4.6401 Y3.8385 Z-0.2519
N12360 X4.6426 Y3.8429 Z-0.2521
N12365 X4.6437 Y3.8451
N12370 X4.6448 Y3.8474 Z-0.2522
N12375 X4.6465 Y3.8522 Z-0.2524
N12380 X4.6477 Y3.857 Z-0.2526
N12385 X4.6482 Y3.8595 Z-0.2527
N12390 X4.6486 Y3.8619 Z-0.2528
N12395 X4.6489 Y3.8669 Z-0.2529
N12400 X4.649 Y3.8695 Z-0.253
N12405 X4.6489 Y3.872 Z-0.2531
N12410 X4.6487 Y3.8745 Z-0.2532
N12415 X4.6484 Y3.8769 Z-0.2533
N12420 X4.648 Y3.8794 Z-0.2534
N12425 X4.6475 Y3.8818 Z-0.2535
N12430 X4.6468 Y3.8842
N12435 X4.6461 Y3.8866 Z-0.2536
N12440 X4.6452 Y3.889 Z-0.2537
N12445 X4.6443 Y3.8913 Z-0.2538
N12450 X4.6432 Y3.8936 Z-0.2539
N12455 X4.642 Y3.8958 Z-0.254
N12460 X4.6408 Y3.898 Z-0.2541
N12465 X4.6394 Y3.9001 Z-0.2542
N12470 X4.6379 Y3.9021
N12475 X4.6364 Y3.9041 Z-0.2543
N12480 X4.6348 Y3.906 Z-0.2544
N12485 X4.6331 Y3.9078 Z-0.2545
N12490 X4.6313 Y3.9095 Z-0.2546
N12495 X4.6294 Y3.9112 Z-0.2547
N12500 X4.6275 Y3.9128 Z-0.2548
N12505 X4.6255 Y3.9143 Z-0.2549
N12510 X4.6234 Y3.9157
N12515 X4.6213 Y3.917 Z-0.255
N12520 X4.6191 Y3.9182 Z-0.2551
N12525 X4.6168 Y3.9193 Z-0.2552
N12530 X4.6146 Y3.9203 Z-0.2553
N12535 X4.6122 Y3.9212 Z-0.2554
N12540 X4.6099 Y3.922 Z-0.2555
N12545 X4.6075 Y3.9227
N12550 X4.605 Y3.9233 Z-0.2556
N12555 X4.6026 Y3.9237 Z-0.2557
N12560 X4.6001 Y3.9241 Z-0.2558
N12565 X4.5976 Y3.9243 Z-0.2559
N12570 X4.5951 Y3.9245 Z-0.256
N12575 X4.5926 Z-0.2561
N12580 X4.5901 Y3.9244 Z-0.2562
N12585 X4.5876 Y3.9242
N12590 X4.5852 Y3.9239 Z-0.2563
N12595 X4.5827 Y3.9235 Z-0.2564
N12600 X4.5803 Y3.923 Z-0.2565
N12605 X4.5779 Y3.9223 Z-0.2566
N12610 X4.5755 Y3.9216 Z-0.2567
N12615 X4.5731 Y3.9207 Z-0.2568
N12620 X4.5708 Y3.9198 Z-0.2569
N12625 X4.5686 Y3.9187
N12630 X4.5663 Y3.9175 Z-0.257
N12635 X4.5642 Y3.9163 Z-0.2571
N12640 X4.5621 Y3.9149 Z-0.2572
N12645 X4.5601 Y3.9135 Z-0.2573
N12650 X4.5581 Y3.912 Z-0.2574
N12655 X4.5562 Y3.9103 Z-0.2575
N12660 X4.5544 Y3.9086
N12665 X4.5527 Y3.9069 Z-0.2576
N12670 X4.551 Y3.905 Z-0.2577
N12675 X4.5494 Y3.903 Z-0.2578
N12680 X4.5479 Y3.901 Z-0.2579
N12685 X4.5465 Y3.899 Z-0.258
N12690 X4.5452 Y3.8968 Z-0.2581
N12695 X4.544 Y3.8947 Z-0.2582
N12700 X4.5429 Y3.8924
N12705 X4.5419 Y3.8901 Z-0.2583
N12710 X4.541 Y3.8878 Z-0.2584
N12715 X4.5402 Y3.8855 Z-0.2585
N12720 X4.5395 Y3.8831 Z-0.2586
N12725 X4.539 Y3.8807 Z-0.2587
N12730 X4.5385 Y3.8782 Z-0.2588
N12735 X4.5381 Y3.8757 Z-0.2589
N12740 X4.5379 Y3.8733
N12745 X4.5377 Y3.8708 Z-0.259
N12750 Y3.8683 Z-0.2591
N12755 X4.5378 Y3.8658 Z-0.2592
N12760 X4.538 Y3.8633 Z-0.2593
N12765 X4.5383 Y3.8608 Z-0.2594
N12770 X4.5387 Y3.8584 Z-0.2595
N12775 X4.5392 Y3.8559
N12780 X4.5399 Y3.8535 Z-0.2596
N12785 X4.5406 Y3.8512 Z-0.2597
N12790 X4.5415 Y3.8488 Z-0.2598
N12795 X4.5424 Y3.8465 Z-0.2599
N12800 X4.5435 Y3.8443 Z-0.26
N12805 X4.5446 Y3.8421 Z-0.2601
N12810 X4.5459 Y3.8399 Z-0.2602
N12815 X4.5472 Y3.8378
N12820 X4.5487 Y3.8358 Z-0.2603
N12825 X4.5502 Y3.8338 Z-0.2604
N12830 X4.5518 Y3.8319 Z-0.2605
N12835 X4.5535 Y3.8301 Z-0.2606
N12840 X4.5553 Y3.8284 Z-0.2607
N12845 X4.5572 Y3.8267 Z-0.2608
N12850 X4.5591 Y3.8252 Z-0.2609
N12855 X4.5611 Y3.8237
N12860 X4.5632 Y3.8223 Z-0.261
N12865 X4.5653 Y3.821 Z-0.2611
N12870 X4.5675 Y3.8198 Z-0.2612
N12875 X4.5697 Y3.8187 Z-0.2613
N12880 X4.572 Y3.8177 Z-0.2614
N12885 X4.5743 Y3.8168 Z-0.2615
N12890 X4.5766 Y3.816
N12895 X4.579 Y3.8153 Z-0.2616
N12900 X4.5815 Y3.8147 Z-0.2617
N12905 X4.5839 Y3.8143 Z-0.2618
N12910 X4.5864 Y3.8139 Z-0.2619
N12915 X4.5888 Y3.8137 Z-0.262
N12920 X4.5913 Y3.8135 Z-0.2621
N12925 X4.5938 Z-0.2622
N12930 X4.5963 Y3.8136
N12935 X4.5987 Y3.8138 Z-0.2623
N12940 X4.6012 Y3.8141 Z-0.2624
N12945 X4.6037 Y3.8145 Z-0.2625
N12950 X4.6061 Y3.815 Z-0.2626
N12955 X4.6085 Y3.8157 Z-0.2627
N12960 X4.6109 Y3.8164 Z-0.2628
N12965 X4.6132 Y3.8173
N12970 X4.6155 Y3.8182 Z-0.2629
N12975 X4.6177 Y3.8193 Z-0.263
N12980 X4.6199 Y3.8204 Z-0.2631
N12985 X4.6221 Y3.8217 Z-0.2632
N12990 X4.6242 Y3.823 Z-0.2633
N12995 X4.6262 Y3.8245 Z-0.2634
N13000 X4.6281 Y3.826 Z-0.2635
N13005 X4.63 Y3.8276
N13010 X4.6318 Y3.8293 Z-0.2636
N13015 X4.6336 Y3.8311 Z-0.2637
N13020 X4.6352 Y3.8329 Z-0.2638
N13025 X4.6368 Y3.8348 Z-0.2639
N13030 X4.6383 Y3.8368 Z-0.264
N13035 X4.6396 Y3.8389 Z-0.2641
N13040 X4.6421 Y3.8432 Z-0.2642
N13045 X4.6432 Y3.8454 Z-0.2643
N13050 X4.6442 Y3.8477 Z-0.2644
N13055 X4.6459 Y3.8524 Z-0.2646
N13060 X4.6472 Y3.8571 Z-0.2647
N13065 X4.6476 Y3.8596 Z-0.2648
N13070 X4.648 Y3.862 Z-0.2649
N13075 X4.6483 Y3.867 Z-0.2651
N13080 X4.6484 Y3.8694 Z-0.2652
N13085 X4.6483 Y3.8719 Z-0.2653
N13090 X4.6481 Y3.8744 Z-0.2654
N13095 X4.6478 Y3.8768
N13100 X4.6474 Y3.8793 Z-0.2655
N13105 X4.6469 Y3.8817 Z-0.2656
N13110 X4.6462 Y3.8841 Z-0.2657
N13115 X4.6455 Y3.8864 Z-0.2658
N13120 X4.6447 Y3.8888 Z-0.2659
N13125 X4.6437 Y3.8911 Z-0.266
N13130 X4.6427 Y3.8933
N13135 X4.6415 Y3.8955 Z-0.2661
N13140 X4.6402 Y3.8976 Z-0.2662
N13145 X4.6389 Y3.8997 Z-0.2663
N13150 X4.6375 Y3.9017 Z-0.2664
N13155 X4.6359 Y3.9037 Z-0.2665
N13160 X4.6343 Y3.9056 Z-0.2666
N13165 X4.6327 Y3.9074
N13170 X4.6309 Y3.9091 Z-0.2667
N13175 X4.629 Y3.9107 Z-0.2668
N13180 X4.6271 Y3.9123 Z-0.2669
N13185 X4.6251 Y3.9138 Z-0.267
N13190 X4.6231 Y3.9152 Z-0.2671
N13195 X4.621 Y3.9164 Z-0.2672
N13200 X4.6188 Y3.9176 Z-0.2673
N13205 X4.6166 Y3.9187
N13210 X4.6143 Y3.9197 Z-0.2674
N13215 X4.612 Y3.9206 Z-0.2675
N13220 X4.6097 Y3.9214 Z-0.2676
N13225 X4.6073 Y3.9221 Z-0.2677
N13230 X4.6049 Y3.9227 Z-0.2678
N13235 X4.6025 Y3.9231 Z-0.2679
N13240 X4.6 Y3.9235
N13245 X4.5976 Y3.9237 Z-0.268
N13250 X4.5951 Y3.9239 Z-0.2681
N13255 X4.5926 Z-0.2682
N13260 X4.5902 Y3.9238 Z-0.2683
N13265 X4.5877 Y3.9236 Z-0.2684
N13270 X4.5853 Y3.9233 Z-0.2685
N13275 X4.5828 Y3.9229
N13280 X4.5804 Y3.9224 Z-0.2686
N13285 X4.578 Y3.9217 Z-0.2687
N13290 X4.5757 Y3.921 Z-0.2688
N13295 X4.5733 Y3.9201 Z-0.2689
N13300 X4.5711 Y3.9192 Z-0.269
N13305 X4.5688 Y3.9181 Z-0.2691
N13310 X4.5666 Y3.917
N13315 X4.5645 Y3.9158 Z-0.2692
N13320 X4.5624 Y3.9144 Z-0.2693
N13325 X4.5604 Y3.913 Z-0.2694
N13330 X4.5585 Y3.9115 Z-0.2695
N13335 X4.5566 Y3.9099 Z-0.2696
N13340 X4.5548 Y3.9082 Z-0.2697
N13345 X4.5531 Y3.9064
N13350 X4.5515 Y3.9046 Z-0.2698
N13355 X4.5499 Y3.9027 Z-0.2699
N13360 X4.5484 Y3.9007 Z-0.27
N13365 X4.547 Y3.8986 Z-0.2701
N13370 X4.5458 Y3.8965 Z-0.2702
N13375 X4.5446 Y3.8944 Z-0.2703
N13380 X4.5435 Y3.8922
N13385 X4.5425 Y3.8899 Z-0.2704
N13390 X4.5416 Y3.8876 Z-0.2705
N13395 X4.5408 Y3.8853 Z-0.2706
N13400 X4.5401 Y3.8829 Z-0.2707
N13405 X4.5396 Y3.8805 Z-0.2708
N13410 X4.5391 Y3.8781 Z-0.2709
N13415 X4.5387 Y3.8757 Z-0.271
N13420 X4.5385 Y3.8732
N13425 X4.5384 Y3.8707 Z-0.2711
N13430 X4.5383 Y3.8683 Z-0.2712
N13435 X4.5384 Y3.8658 Z-0.2713
N13440 X4.5386 Y3.8634 Z-0.2714
N13445 X4.5389 Y3.8609 Z-0.2715
N13450 X4.5393 Y3.8585 Z-0.2716
N13455 X4.5399 Y3.8561
N13460 X4.5405 Y3.8537 Z-0.2717
N13465 X4.5412 Y3.8514 Z-0.2718
N13470 X4.5421 Y3.849 Z-0.2719
N13475 X4.543 Y3.8468 Z-0.272
N13480 X4.5441 Y3.8445 Z-0.2721
N13485 X4.5452 Y3.8424 Z-0.2722
N13490 X4.5464 Y3.8402
N13495 X4.5478 Y3.8382 Z-0.2723
N13500 X4.5492 Y3.8362 Z-0.2724
N13505 X4.5507 Y3.8342 Z-0.2725
N13510 X4.5523 Y3.8324 Z-0.2726
N13515 X4.554 Y3.8306 Z-0.2727
N13520 X4.5558 Y3.8289 Z-0.2728
N13525 X4.5576 Y3.8272
N13530 X4.5595 Y3.8257 Z-0.2729
N13535 X4.5615 Y3.8242 Z-0.273
N13540 X4.5635 Y3.8228 Z-0.2731
N13545 X4.5656 Y3.8215 Z-0.2732
N13550 X4.5678 Y3.8204 Z-0.2733
N13555 X4.57 Y3.8193 Z-0.2734
N13560 X4.5722 Y3.8183
N13565 X4.5745 Y3.8174 Z-0.2735
N13570 X4.5768 Y3.8166 Z-0.2736
N13575 X4.5792 Y3.8159 Z-0.2737
N13580 X4.5816 Y3.8154 Z-0.2738
N13585 X4.584 Y3.8149 Z-0.2739
N13590 X4.5864 Y3.8145 Z-0.274
N13595 X4.5889 Y3.8143
N13600 X4.5913 Y3.8142 Z-0.2741
N13605 X4.5938 Y3.8141 Z-0.2742
N13610 X4.5962 Y3.8142 Z-0.2743
N13615 X4.5987 Y3.8144 Z-0.2744
N13620 X4.6011 Y3.8147 Z-0.2745
N13625 X4.6035 Y3.8151 Z-0.2746
N13630 X4.6059 Y3.8157
N13635 X4.6083 Y3.8163 Z-0.2747
N13640 X4.6106 Y3.817 Z-0.2748
N13645 X4.613 Y3.8179 Z-0.2749
N13650 X4.6152 Y3.8188 Z-0.275
N13655 X4.6174 Y3.8198 Z-0.2751
N13660 X4.6196 Y3.821 Z-0.2752
N13665 X4.6217 Y3.8222
N13670 X4.6238 Y3.8235 Z-0.2753
N13675 X4.6258 Y3.825 Z-0.2754
N13680 X4.6277 Y3.8265 Z-0.2755
N13685 X4.6296 Y3.8281 Z-0.2756
N13690 X4.6298 Y3.8283
N13695 X4.63 Y3.8284
N13700 X4.6309 Y3.8293
N13705 X4.6318 Y3.8302 Z-0.2757
N13710 X4.6335 Y3.832 Z-0.2758
N13715 X4.6352 Y3.8339 Z-0.2759
N13720 X4.6368 Y3.8359
N13725 X4.6383 Y3.838 Z-0.276
N13730 X4.6396 Y3.8401 Z-0.2761
N13735 X4.6409 Y3.8423 Z-0.2762
N13740 X4.6421 Y3.8445 Z-0.2763
N13745 X4.6441 Y3.8491 Z-0.2765
N13750 X4.6457 Y3.8538 Z-0.2766
N13755 X4.6463 Y3.8563 Z-0.2767
N13760 X4.6468 Y3.8588 Z-0.2768
N13765 X4.6475 Y3.8638 Z-0.277
N13770 X4.6478 Y3.8688 Z-0.2772
N13775 Y3.8701
N13780 X4.6477 Y3.8713 Z-0.2773
N13785 X4.6475 Y3.8738
N13790 X4.6472 Y3.8763 Z-0.2774
N13795 X4.6468 Y3.8788 Z-0.2775
N13800 X4.6463 Y3.8813 Z-0.2776
N13805 X4.6457 Y3.8838 Z-0.2777
N13810 X4.6449 Y3.8862 Z-0.2778
N13815 X4.6441 Y3.8885 Z-0.2779
N13820 X4.6431 Y3.8908 Z-0.278
N13825 X4.642 Y3.8931 Z-0.2781
N13830 X4.6409 Y3.8953
N13835 X4.6396 Y3.8975 Z-0.2782
N13840 X4.6382 Y3.8996 Z-0.2783
N13845 X4.6367 Y3.9016 Z-0.2784
N13850 X4.6352 Y3.9036 Z-0.2785
N13855 X4.6335 Y3.9055 Z-0.2786
N13860 X4.6318 Y3.9073 Z-0.2787
N13865 X4.63 Y3.9091 Z-0.2788
N13870 X4.6281 Y3.9107
N13875 X4.6261 Y3.9123 Z-0.2789
N13880 X4.6241 Y3.9137 Z-0.279
N13885 X4.6219 Y3.9151 Z-0.2791
N13890 X4.6198 Y3.9164 Z-0.2792
N13895 X4.6176 Y3.9176 Z-0.2793
N13900 X4.6153 Y3.9186 Z-0.2794
N13905 X4.613 Y3.9196 Z-0.2795
N13910 X4.6106 Y3.9204
N13915 X4.6082 Y3.9212 Z-0.2796
N13920 X4.6057 Y3.9218 Z-0.2797
N13925 X4.6032 Y3.9223 Z-0.2798
N13930 X4.6007 Y3.9227 Z-0.2799
N13935 X4.5983 Y3.923 Z-0.28
N13940 X4.5958 Y3.9232 Z-0.2801
N13945 X4.5933 Y3.9233 Z-0.2802
N13950 X4.592 Y3.9232
N13955 X4.5907
N13960 X4.5882 Y3.923 Z-0.2803
N13965 X4.5857 Y3.9227 Z-0.2804
N13970 X4.5832 Y3.9223 Z-0.2805
N13975 X4.5808 Y3.9218 Z-0.2806
N13980 X4.5784 Y3.9212 Z-0.2807
N13985 X4.576 Y3.9204 Z-0.2808
N13990 X4.5736 Y3.9196 Z-0.2809
N13995 X4.5713 Y3.9186
N14000 X4.569 Y3.9175 Z-0.281
N14005 X4.5668 Y3.9164 Z-0.2811
N14010 X4.5646 Y3.9151 Z-0.2812
N14015 X4.5625 Y3.9137 Z-0.2813
N14020 X4.5605 Y3.9122 Z-0.2814
N14025 X4.5585 Y3.9107 Z-0.2815
N14030 X4.5566 Y3.909 Z-0.2816
N14035 X4.5548 Y3.9073
N14040 X4.5531 Y3.9055 Z-0.2817
N14045 X4.5514 Y3.9036 Z-0.2818
N14050 X4.5499 Y3.9016 Z-0.2819
N14055 X4.5484 Y3.8996 Z-0.282
N14060 X4.5471 Y3.8975 Z-0.2821
N14065 X4.5458 Y3.8953 Z-0.2822
N14070 X4.5446 Y3.8931 Z-0.2823
N14075 X4.5436 Y3.8908
N14080 X4.5426 Y3.8885 Z-0.2824
N14085 X4.5418 Y3.8862 Z-0.2825
N14090 X4.541 Y3.8838 Z-0.2826
N14095 X4.5404 Y3.8813 Z-0.2827
N14100 X4.5399 Y3.8789 Z-0.2828
N14105 X4.5395 Y3.8764 Z-0.2829
N14110 X4.5392 Y3.8739 Z-0.283
N14115 X4.539 Y3.8714
N14120 Y3.8689 Z-0.2831
N14125 Y3.8664 Z-0.2832
N14130 X4.5391 Y3.8652 Z-0.2833
N14135 X4.5392 Y3.8639
N14140 X4.5395 Y3.8614 Z-0.2834
N14145 X4.5399 Y3.8589 Z-0.2835
N14150 X4.5404 Y3.8565 Z-0.2836
N14155 X4.5411 Y3.854 Z-0.2837
N14160 X4.5418 Y3.8517
N14165 X4.5426 Y3.8493 Z-0.2838
N14170 X4.5436 Y3.847 Z-0.2839
N14175 X4.5447 Y3.8447 Z-0.284
N14180 X4.5458 Y3.8425 Z-0.2841
N14185 X4.5471 Y3.8404 Z-0.2842
N14190 X4.5485 Y3.8383 Z-0.2843
N14195 X4.5499 Y3.8363 Z-0.2844
N14200 X4.5515 Y3.8343
N14205 X4.5531 Y3.8324 Z-0.2845
N14210 X4.5549 Y3.8306 Z-0.2846
N14215 X4.5567 Y3.8289 Z-0.2847
N14220 X4.5586 Y3.8272 Z-0.2848
N14225 X4.5605 Y3.8257 Z-0.2849
N14230 X4.5626 Y3.8242 Z-0.285
N14235 X4.5647 Y3.8229 Z-0.2851
N14240 X4.5668 Y3.8216
N14245 X4.569 Y3.8204 Z-0.2852
N14250 X4.5713 Y3.8194 Z-0.2853
N14255 X4.5736 Y3.8184 Z-0.2854
N14260 X4.576 Y3.8176 Z-0.2855
N14265 X4.5783 Y3.8168 Z-0.2856
N14270 X4.5807 Y3.8162 Z-0.2857
N14275 X4.5832 Y3.8157 Z-0.2858
N14280 X4.5857 Y3.8153
N14285 X4.5881 Y3.815 Z-0.2859
N14290 X4.5907 Y3.8148 Z-0.286
N14295 X4.5932 Z-0.2861
N14300 X4.5957 Z-0.2862
N14305 X4.5981 Y3.815 Z-0.2863
N14310 X4.5994 Y3.8151
N14315 X4.6006 Y3.8153 Z-0.2864
N14320 X4.6031 Y3.8157
N14325 X4.6055 Y3.8162 Z-0.2865
N14330 X4.608 Y3.8168 Z-0.2866
N14335 X4.6104 Y3.8176 Z-0.2867
N14340 X4.6127 Y3.8184 Z-0.2868
N14345 X4.615 Y3.8194 Z-0.2869
N14350 X4.6173 Y3.8205 Z-0.287
N14355 X4.6195 Y3.8216 Z-0.2871
N14360 X4.6216 Y3.8229
N14365 X4.6237 Y3.8243 Z-0.2872
N14370 X4.6257 Y3.8257 Z-0.2873
N14375 X4.6277 Y3.8273 Z-0.2874
N14380 X4.6295 Y3.8289 Z-0.2875
N14385 X4.6313 Y3.8306 Z-0.2876
N14390 X4.6331 Y3.8324 Z-0.2877
N14395 X4.6347 Y3.8343 Z-0.2878
N14400 X4.6363 Y3.8363
N14405 X4.6377 Y3.8383 Z-0.2879
N14410 X4.6391 Y3.8404 Z-0.288
N14415 X4.6403 Y3.8426 Z-0.2881
N14420 X4.6415 Y3.8448 Z-0.2882
N14425 X4.6435 Y3.8493 Z-0.2884
N14430 X4.6451 Y3.854 Z-0.2885
N14435 X4.6457 Y3.8564 Z-0.2886
N14440 X4.6462 Y3.8589 Z-0.2887
N14445 X4.6466 Y3.8614 Z-0.2888
N14450 X4.6469 Y3.8639 Z-0.2889
N14455 X4.6471 Y3.8688 Z-0.2891
N14460 Y3.8713
N14465 X4.647 Y3.8725 Z-0.2892
N14470 X4.6469 Y3.8738
N14475 X4.6466 Y3.8763 Z-0.2893
N14480 X4.6462 Y3.8787 Z-0.2894
N14485 X4.6457 Y3.8812 Z-0.2895
N14490 X4.645 Y3.8836 Z-0.2896
N14495 X4.6443 Y3.8859 Z-0.2897
N14500 X4.6435 Y3.8883 Z-0.2898
N14505 X4.6425 Y3.8906
N14510 X4.6414 Y3.8928 Z-0.2899
N14515 X4.6403 Y3.895 Z-0.29
N14520 X4.639 Y3.8972 Z-0.2901
N14525 X4.6377 Y3.8992 Z-0.2902
N14530 X4.6362 Y3.9013 Z-0.2903
N14535 X4.6347 Y3.9032 Z-0.2904
N14540 X4.633 Y3.9051
N14545 X4.6313 Y3.9069 Z-0.2905
N14550 X4.6295 Y3.9086 Z-0.2906
N14555 X4.6276 Y3.9102 Z-0.2907
N14560 X4.6257 Y3.9118 Z-0.2908
N14565 X4.6237 Y3.9132 Z-0.2909
N14570 X4.6216 Y3.9146 Z-0.291
N14575 X4.6195 Y3.9158 Z-0.2911
N14580 X4.6173 Y3.917
N14585 X4.615 Y3.918 Z-0.2912
N14590 X4.6127 Y3.919 Z-0.2913
N14595 X4.6104 Y3.9198 Z-0.2914
N14600 X4.608 Y3.9206 Z-0.2915
N14605 X4.6056 Y3.9212 Z-0.2916
N14610 X4.6031 Y3.9217 Z-0.2917
N14615 X4.6007 Y3.9221
N14620 X4.5982 Y3.9224 Z-0.2918
N14625 X4.5957 Y3.9226 Z-0.2919
N14630 X4.5933 Z-0.292
N14635 X4.592 Z-0.2921
N14640 X4.5908 Y3.9225
N14645 X4.5883 Y3.9224 Z-0.2922
N14650 X4.5858 Y3.9221 Z-0.2923
N14655 X4.5834 Y3.9217 Z-0.2924
N14660 X4.5809 Y3.9212
N14665 X4.5785 Y3.9205 Z-0.2925
N14670 X4.5762 Y3.9198 Z-0.2926
N14675 X4.5738 Y3.9189 Z-0.2927
N14680 X4.5716 Y3.918 Z-0.2928
N14685 X4.5693 Y3.9169 Z-0.2929
N14690 X4.5671 Y3.9158 Z-0.293
N14695 X4.565 Y3.9145
N14700 X4.5629 Y3.9132 Z-0.2931
N14705 X4.5609 Y3.9117 Z-0.2932
N14710 X4.559 Y3.9102 Z-0.2933
N14715 X4.5571 Y3.9085 Z-0.2934
N14720 X4.5553 Y3.9068 Z-0.2935
N14725 X4.5536 Y3.905 Z-0.2936
N14730 X4.552 Y3.9032 Z-0.2937
N14735 X4.5504 Y3.9012
N14740 X4.549 Y3.8992 Z-0.2938
N14745 X4.5476 Y3.8971 Z-0.2939
N14750 X4.5464 Y3.895 Z-0.294
N14755 X4.5452 Y3.8928 Z-0.2941
N14760 X4.5442 Y3.8906 Z-0.2942
N14765 X4.5432 Y3.8883 Z-0.2943
N14770 X4.5424 Y3.8859
N14775 X4.5417 Y3.8836 Z-0.2944
N14780 X4.541 Y3.8812 Z-0.2945
N14785 X4.5405 Y3.8787 Z-0.2946
N14790 X4.5401 Y3.8763 Z-0.2947
N14795 X4.5399 Y3.8738 Z-0.2948
N14800 X4.5397 Y3.8714 Z-0.2949
N14805 X4.5396 Y3.8689
N14810 X4.5397 Y3.8664 Z-0.295
N14815 X4.5398 Y3.8652 Z-0.2951
N14820 X4.5399 Y3.864
N14825 X4.5401 Y3.8615 Z-0.2952
N14830 X4.5406 Y3.8591 Z-0.2953
N14835 X4.5411 Y3.8566 Z-0.2954
N14840 X4.5417 Y3.8542 Z-0.2955
N14845 X4.5424 Y3.8519
N14850 X4.5433 Y3.8496 Z-0.2956
N14855 X4.5442 Y3.8473 Z-0.2957
N14860 X4.5453 Y3.845 Z-0.2958
N14865 X4.5464 Y3.8429 Z-0.2959
N14870 X4.5477 Y3.8407 Z-0.296
N14875 X4.549 Y3.8387 Z-0.2961
N14880 X4.5505 Y3.8367 Z-0.2962
N14885 X4.552 Y3.8347
N14890 X4.5536 Y3.8329 Z-0.2963
N14895 X4.5554 Y3.8311 Z-0.2964
N14900 X4.5571 Y3.8294 Z-0.2965
N14905 X4.559 Y3.8277 Z-0.2966
N14910 X4.5609 Y3.8262 Z-0.2967
N14915 X4.5629 Y3.8248 Z-0.2968
N14920 X4.565 Y3.8234
N14925 X4.5671 Y3.8222 Z-0.2969
N14930 X4.5693 Y3.821 Z-0.297
N14935 X4.5716 Y3.82 Z-0.2971
N14940 X4.5739 Y3.819 Z-0.2972
N14945 X4.5762 Y3.8182 Z-0.2973
N14950 X4.5785 Y3.8175 Z-0.2974
N14955 X4.5809 Y3.8169
N14960 X4.5833 Y3.8164 Z-0.2975
N14965 X4.5858 Y3.816 Z-0.2976
N14970 X4.5882 Y3.8157 Z-0.2977
N14975 X4.5907 Y3.8155 Z-0.2978
N14980 X4.5932 Y3.8154 Z-0.2979
N14985 X4.5956 Y3.8155 Z-0.298
N14990 X4.5981 Y3.8157
N14995 X4.5993 Y3.8158 Z-0.2981
N15000 X4.6005 Y3.816
N15005 X4.603 Y3.8164 Z-0.2982
N15010 X4.6054 Y3.8169 Z-0.2983
N15015 X4.6078 Y3.8175 Z-0.2984
N15020 X4.6101 Y3.8182 Z-0.2985
N15025 X4.6125 Y3.8191 Z-0.2986
N15030 X4.6147 Y3.82
N15035 X4.617 Y3.8211 Z-0.2987
N15040 X4.6191 Y3.8222 Z-0.2988
N15045 X4.6213 Y3.8235 Z-0.2989
N15050 X4.6233 Y3.8248 Z-0.299
N15055 X4.6253 Y3.8263 Z-0.2991
N15060 X4.6272 Y3.8278 Z-0.2992
N15065 X4.6291 Y3.8294
N15070 X4.6309 Y3.8311 Z-0.2993
N15075 X4.6326 Y3.8329 Z-0.2994
N15080 X4.6342 Y3.8348 Z-0.2995
N15085 X4.6357 Y3.8367 Z-0.2996
N15090 X4.6371 Y3.8387 Z-0.2997
N15095 X4.6385 Y3.8408 Z-0.2998
N15100 X4.6397 Y3.8429 Z-0.2999
N15105 X4.6409 Y3.8451
N15110 X4.6428 Y3.8496 Z-0.3001
N15115 X4.6444 Y3.8542 Z-0.3003
N15120 X4.645 Y3.8566 Z-0.3004
N15125 X4.6455 Y3.859 Z-0.3005
N15130 X4.6459 Y3.8615
N15135 X4.6462 Y3.8639 Z-0.3006
N15140 X4.6464 Y3.8688 Z-0.3008
N15145 Y3.8713 Z-0.3009
N15150 X4.6463 Y3.8725
N15155 X4.6462 Y3.8737 Z-0.301
N15160 X4.6459 Y3.8762 Z-0.3011
N15165 X4.6455 Y3.8786
N15170 X4.645 Y3.881 Z-0.3012
N15175 X4.6444 Y3.8834 Z-0.3013
N15180 X4.6437 Y3.8857 Z-0.3014
N15185 X4.6428 Y3.888 Z-0.3015
N15190 X4.6419 Y3.8903 Z-0.3016
N15195 X4.6408 Y3.8925 Z-0.3017
N15200 X4.6397 Y3.8947
N15205 X4.6384 Y3.8968 Z-0.3018
N15210 X4.6371 Y3.8989 Z-0.3019
N15215 X4.6357 Y3.9008 Z-0.302
N15220 X4.6341 Y3.9028 Z-0.3021
N15225 X4.6325 Y3.9046 Z-0.3022
N15230 X4.6308 Y3.9064 Z-0.3023
N15235 X4.629 Y3.9081
N15240 X4.6272 Y3.9097 Z-0.3024
N15245 X4.6253 Y3.9112 Z-0.3025
N15250 X4.6233 Y3.9126 Z-0.3026
N15255 X4.6212 Y3.914 Z-0.3027
N15260 X4.6191 Y3.9152 Z-0.3028
N15265 X4.6169 Y3.9164
N15270 X4.6147 Y3.9174 Z-0.3029
N15275 X4.6124 Y3.9183 Z-0.303
N15280 X4.6101 Y3.9192 Z-0.3031
N15285 X4.6078 Y3.9199 Z-0.3032
N15290 X4.6054 Y3.9205 Z-0.3033
N15295 X4.603 Y3.921 Z-0.3034
N15300 X4.6006 Y3.9214
N15305 X4.5981 Y3.9217 Z-0.3035
N15310 X4.5957 Y3.9219 Z-0.3036
N15315 X4.5933 Z-0.3037
N15320 X4.5908 Z-0.3038
N15325 X4.5896 Y3.9218
N15330 X4.5884 Y3.9217 Z-0.3039
N15335 X4.5859 Y3.9214 Z-0.304
N15340 X4.5835 Y3.921
N15345 X4.5811 Y3.9205 Z-0.3041
N15350 X4.5787 Y3.9199 Z-0.3042
N15355 X4.5764 Y3.9191 Z-0.3043
N15360 X4.5741 Y3.9183 Z-0.3044
N15365 X4.5718 Y3.9174 Z-0.3045
N15370 X4.5696 Y3.9163 Z-0.3046
N15375 X4.5675 Y3.9152
N15380 X4.5654 Y3.9139 Z-0.3047
N15385 X4.5633 Y3.9126 Z-0.3048
N15390 X4.5613 Y3.9112 Z-0.3049
N15395 X4.5594 Y3.9096 Z-0.305
N15400 X4.5576 Y3.908 Z-0.3051
N15405 X4.5558 Y3.9063 Z-0.3052
N15410 X4.5541 Y3.9046
N15415 X4.5525 Y3.9027 Z-0.3053
N15420 X4.551 Y3.9008 Z-0.3054
N15425 X4.5495 Y3.8988 Z-0.3055
N15430 X4.5482 Y3.8968 Z-0.3056
N15435 X4.547 Y3.8947 Z-0.3057
N15440 X4.5458 Y3.8925 Z-0.3058
N15445 X4.5448 Y3.8903
N15450 X4.5439 Y3.888 Z-0.3059
N15455 X4.543 Y3.8857 Z-0.306
N15460 X4.5423 Y3.8834 Z-0.3061
N15465 X4.5417 Y3.881 Z-0.3062
N15470 X4.5412 Y3.8786 Z-0.3063
N15475 X4.5408 Y3.8762 Z-0.3064
N15480 X4.5405 Y3.8738
N15485 X4.5404 Y3.8713 Z-0.3065
N15490 X4.5403 Y3.8689 Z-0.3066
N15495 X4.5404 Y3.8665 Z-0.3067
N15500 X4.5405 Y3.8652
N15505 Y3.864 Z-0.3068
N15510 X4.5408 Y3.8616 Z-0.3069
N15515 X4.5412 Y3.8592
N15520 X4.5417 Y3.8568 Z-0.307
N15525 X4.5424 Y3.8544 Z-0.3071
N15530 X4.5431 Y3.8521 Z-0.3072
N15535 X4.5439 Y3.8498 Z-0.3073
N15540 X4.5448 Y3.8476 Z-0.3074
N15545 X4.5459 Y3.8453 Z-0.3075
N15550 X4.547 Y3.8432
N15555 X4.5483 Y3.8411 Z-0.3076
N15560 X4.5496 Y3.839 Z-0.3077
N15565 X4.551 Y3.8371 Z-0.3078
N15570 X4.5525 Y3.8352 Z-0.3079
N15575 X4.5542 Y3.8333 Z-0.308
N15580 X4.5558 Y3.8316 Z-0.3081
N15585 X4.5576 Y3.8299
N15590 X4.5594 Y3.8283 Z-0.3082
N15595 X4.5614 Y3.8268 Z-0.3083
N15600 X4.5633 Y3.8253 Z-0.3084
N15605 X4.5654 Y3.824 Z-0.3085
N15610 X4.5675 Y3.8228 Z-0.3086
N15615 X4.5696 Y3.8216
N15620 X4.5719 Y3.8206 Z-0.3087
N15625 X4.5741 Y3.8197 Z-0.3088
N15630 X4.5764 Y3.8188 Z-0.3089
N15635 X4.5787 Y3.8181 Z-0.309
N15640 X4.5811 Y3.8175 Z-0.3091
N15645 X4.5835 Y3.817 Z-0.3092
N15650 X4.5859 Y3.8166
N15655 X4.5883 Y3.8163 Z-0.3093
N15660 X4.5907 Y3.8162 Z-0.3094
N15665 X4.5932 Y3.8161 Z-0.3095
N15670 X4.5956 Y3.8162 Z-0.3096
N15675 X4.598 Y3.8164 Z-0.3097
N15680 X4.5992 Y3.8165
N15685 X4.6004 Y3.8166 Z-0.3098
N15690 X4.6028 Y3.817
N15695 X4.6052 Y3.8175 Z-0.3099
N15700 X4.6076 Y3.8182 Z-0.31
N15705 X4.6099 Y3.8189 Z-0.3101
N15710 X4.6122 Y3.8197 Z-0.3102
N15715 X4.6144 Y3.8206 Z-0.3103
N15720 X4.6166 Y3.8217
N15725 X4.6188 Y3.8228 Z-0.3104
N15730 X4.6209 Y3.8241 Z-0.3105
N15735 X4.6229 Y3.8254 Z-0.3106
N15740 X4.6249 Y3.8268 Z-0.3107
N15745 X4.6268 Y3.8283 Z-0.3108
N15750 X4.6286 Y3.8299 Z-0.3109
N15755 X4.6304 Y3.8316
N15760 X4.6321 Y3.8334 Z-0.311
N15765 X4.6337 Y3.8352 Z-0.3111
N15770 X4.6352 Y3.8371 Z-0.3112
N15775 X4.6366 Y3.8391 Z-0.3113
N15780 X4.6379 Y3.8411 Z-0.3114
N15785 X4.6391 Y3.8432
N15790 X4.6403 Y3.8454 Z-0.3115
N15795 X4.6422 Y3.8498 Z-0.3117
N15800 X4.6437 Y3.8544 Z-0.3119
N15805 X4.6443 Y3.8568 Z-0.312
N15810 X4.6448 Y3.8592
N15815 X4.6452 Y3.8616 Z-0.3121
N15820 X4.6455 Y3.864 Z-0.3122
N15825 X4.6457 Y3.8688 Z-0.3124
N15830 Y3.8712 Z-0.3125
N15835 X4.6456 Y3.8724
N15840 X4.6455 Y3.8737 Z-0.3126
N15845 X4.6452 Y3.8761
N15850 X4.6449 Y3.8785 Z-0.3127
N15855 X4.6443 Y3.8808 Z-0.3128
N15860 X4.6437 Y3.8832 Z-0.3129
N15865 X4.643 Y3.8855 Z-0.313
N15870 X4.6422 Y3.8878 Z-0.3131
N15875 X4.6412 Y3.89
N15880 X4.6402 Y3.8922 Z-0.3132
N15885 X4.6391 Y3.8944 Z-0.3133
N15890 X4.6378 Y3.8964 Z-0.3134
N15895 X4.6365 Y3.8985 Z-0.3135
N15900 X4.6351 Y3.9004 Z-0.3136
N15905 X4.6336 Y3.9023 Z-0.3137
N15910 X4.632 Y3.9042
N15915 X4.6303 Y3.9059 Z-0.3138
N15920 X4.6286 Y3.9076 Z-0.3139
N15925 X4.6267 Y3.9092 Z-0.314
N15930 X4.6248 Y3.9107 Z-0.3141
N15935 X4.6229 Y3.9121 Z-0.3142
N15940 X4.6208 Y3.9134
N15945 X4.6188 Y3.9146 Z-0.3143
N15950 X4.6166 Y3.9158 Z-0.3144
N15955 X4.6144 Y3.9168 Z-0.3145
N15960 X4.6122 Y3.9177 Z-0.3146
N15965 X4.6099 Y3.9185 Z-0.3147
N15970 X4.6076 Y3.9192
N15975 X4.6052 Y3.9198 Z-0.3148
N15980 X4.6029 Y3.9203 Z-0.3149
N15985 X4.6017 Y3.9205 Z-0.315
N15990 X4.6015 Y3.9206
N15995 X4.6008 Y3.9207
N16000 X4.6002 Y3.9208
N16005 X4.5989 Y3.9209 Z-0.3151
N16010 X4.5963 Y3.9211
N16015 X4.5937 Y3.9212 Z-0.3152
N16020 X4.5911 Z-0.3153
N16025 X4.5886 Y3.921 Z-0.3154
N16030 X4.5873 Y3.9209 Z-0.3155
N16035 X4.5861 Y3.9207
N16040 X4.5835 Y3.9203 Z-0.3156
N16045 X4.581 Y3.9198 Z-0.3157
N16050 X4.5785 Y3.9191 Z-0.3158
N16055 X4.5761 Y3.9183 Z-0.3159
N16060 X4.5736 Y3.9174
N16065 X4.5713 Y3.9163 Z-0.316
N16070 X4.569 Y3.9152 Z-0.3161
N16075 X4.5667 Y3.914 Z-0.3162
N16080 X4.5646 Y3.9126 Z-0.3163
N16085 X4.5625 Y3.9112 Z-0.3164
N16090 X4.5614 Y3.9104
N16095 X4.5604 Y3.9096 Z-0.3165
N16100 X4.5585 Y3.9079 Z-0.3166
N16105 X4.5566 Y3.9062 Z-0.3167
N16110 X4.5549 Y3.9044 Z-0.3168
N16115 X4.5532 Y3.9024
N16120 X4.5516 Y3.9004 Z-0.3169
N16125 X4.5501 Y3.8983 Z-0.317
N16130 X4.5487 Y3.8962 Z-0.3171
N16135 X4.5474 Y3.8939 Z-0.3172
N16140 X4.5462 Y3.8917 Z-0.3173
N16145 X4.5452 Y3.8893 Z-0.3174
N16150 X4.5447 Y3.8882
N16155 X4.5442 Y3.887 Z-0.3175
N16160 X4.5434 Y3.8845 Z-0.3176
N16165 X4.5427 Y3.882
N16170 X4.5421 Y3.8795 Z-0.3177
N16175 X4.5417 Y3.877 Z-0.3178
N16180 X4.5413 Y3.8745 Z-0.3179
N16185 X4.5411 Y3.8719 Z-0.318
N16190 X4.541 Y3.8694 Z-0.3181
N16195 X4.5411 Y3.8668 Z-0.3182
N16200 X4.5412 Y3.8643 Z-0.3183
N16205 X4.5414 Y3.863
N16210 X4.5415 Y3.8617 Z-0.3184
N16215 X4.542 Y3.8592 Z-0.3185
N16220 X4.5425 Y3.8567
N16225 X4.5432 Y3.8542 Z-0.3186
N16230 X4.544 Y3.8518 Z-0.3187
N16235 X4.5449 Y3.8494 Z-0.3188
N16240 X4.5459 Y3.847 Z-0.3189
N16245 X4.547 Y3.8447 Z-0.319
N16250 X4.5482 Y3.8425 Z-0.3191
N16255 X4.5496 Y3.8404 Z-0.3192
N16260 X4.551 Y3.8383 Z-0.3193
N16265 X4.5518 Y3.8372
N16270 X4.5526 Y3.8362
N16275 X4.5542 Y3.8343 Z-0.3194
N16280 X4.556 Y3.8324 Z-0.3195
N16285 X4.5578 Y3.8306 Z-0.3196
N16290 X4.5598 Y3.8289 Z-0.3197
N16295 X4.5618 Y3.8274 Z-0.3198
N16300 X4.5638 Y3.8259 Z-0.3199
N16305 X4.566 Y3.8245 Z-0.32
N16310 X4.5682 Y3.8232 Z-0.3201
N16315 X4.5705 Y3.822
N16320 X4.5728 Y3.821 Z-0.3202
N16325 X4.574 Y3.8205 Z-0.3203
N16330 X4.5752 Y3.82
N16335 X4.5776 Y3.8192 Z-0.3204
N16340 X4.5801 Y3.8185 Z-0.3205
N16345 X4.5825 Y3.8179 Z-0.3206
N16350 X4.5851 Y3.8175 Z-0.3207
N16355 X4.5876 Y3.8171 Z-0.3208
N16360 X4.5901 Y3.8169 Z-0.3209
N16365 X4.5927
N16370 X4.5953 Z-0.321
N16375 X4.5978 Y3.8171 Z-0.3211
N16380 X4.5991 Y3.8172 Z-0.3212
N16385 X4.6003 Y3.8174
N16390 X4.6028 Y3.8178 Z-0.3213
N16395 X4.6053 Y3.8183 Z-0.3214
N16400 X4.6078 Y3.819 Z-0.3215
N16405 X4.6102 Y3.8198 Z-0.3216
N16410 X4.6126 Y3.8206 Z-0.3217
N16415 X4.6149 Y3.8217
N16420 X4.6172 Y3.8228 Z-0.3218
N16425 X4.6194 Y3.824 Z-0.3219
N16430 X4.6216 Y3.8254 Z-0.322
N16435 X4.6237 Y3.8268 Z-0.3221
N16440 X4.6247 Y3.8276
N16445 X4.6257 Y3.8284 Z-0.3222
N16450 X4.6277 Y3.83 Z-0.3223
N16455 X4.6296 Y3.8318 Z-0.3224
N16460 X4.6313 Y3.8336 Z-0.3225
N16465 X4.633 Y3.8356
N16470 X4.6346 Y3.8376 Z-0.3226
N16475 X4.6361 Y3.8396 Z-0.3227
N16480 X4.6375 Y3.8418 Z-0.3228
N16485 X4.6387 Y3.844 Z-0.3229
N16490 X4.6399 Y3.8463 Z-0.323
N16495 X4.6418 Y3.8509 Z-0.3232
N16500 X4.6426 Y3.8533 Z-0.3233
N16505 X4.6433 Y3.8558
N16510 X4.6444 Y3.8607 Z-0.3235
N16515 X4.6447 Y3.8632 Z-0.3236
N16520 X4.6449 Y3.8658 Z-0.3237
N16525 X4.645 Y3.8709 Z-0.3239
N16530 X4.6448 Y3.8734 Z-0.324
N16535 X4.6447 Y3.8747
N16540 X4.6445 Y3.8759 Z-0.3241
N16545 X4.6441 Y3.8785
N16550 X4.6436 Y3.881 Z-0.3242
N16555 X4.6429 Y3.8834 Z-0.3243
N16560 X4.6421 Y3.8858 Z-0.3244
N16565 X4.6412 Y3.8882 Z-0.3245
N16570 X4.6402 Y3.8905 Z-0.3246
N16575 X4.6391 Y3.8928 Z-0.3247
N16580 X4.6379 Y3.895 Z-0.3248
N16585 X4.6365 Y3.8972 Z-0.3249
N16590 X4.6351 Y3.8993
N16595 X4.6343 Y3.9003 Z-0.325
N16600 X4.6335 Y3.9013
N16605 X4.6319 Y3.9032 Z-0.3251
N16610 X4.6302 Y3.9051 Z-0.3252
N16615 X4.6283 Y3.9068 Z-0.3253
N16620 X4.6264 Y3.9085 Z-0.3254
N16625 X4.6244 Y3.9101 Z-0.3255
N16630 X4.6224 Y3.9116 Z-0.3256
N16635 X4.6202 Y3.9129
N16640 X4.618 Y3.9142 Z-0.3257
N16645 X4.6158 Y3.9154 Z-0.3258
N16650 X4.6146 Y3.9159 Z-0.3259
N16655 X4.6135 Y3.9164
N16660 X4.6111 Y3.9173 Z-0.326
N16665 X4.6087 Y3.9181 Z-0.3261
N16670 X4.6063 Y3.9188 Z-0.3262
N16675 X4.6038 Y3.9194 Z-0.3263
N16680 X4.6013 Y3.9199 Z-0.3264
N16685 X4.5988 Y3.9202
N16690 X4.5963 Y3.9204 Z-0.3265
N16695 X4.5937 Y3.9205 Z-0.3266
N16700 X4.5912 Y3.9204 Z-0.3267
N16705 X4.5887 Y3.9203 Z-0.3268
N16710 X4.5874 Y3.9201
N16715 X4.5862 Y3.92 Z-0.3269
N16720 X4.5837 Y3.9196 Z-0.327
N16725 X4.5812 Y3.919 Z-0.3271
N16730 X4.5787 Y3.9184 Z-0.3272
N16735 X4.5763 Y3.9176
N16740 X4.5739 Y3.9167 Z-0.3273
N16745 X4.5716 Y3.9157 Z-0.3274
N16750 X4.5693 Y3.9146 Z-0.3275
N16755 X4.5671 Y3.9133 Z-0.3276
N16760 X4.565 Y3.912 Z-0.3277
N16765 X4.5629 Y3.9106 Z-0.3278
N16770 X4.5619 Y3.9098
N16775 X4.5609 Y3.909 Z-0.3279
N16780 X4.559 Y3.9074
N16785 X4.5571 Y3.9057 Z-0.328
N16790 X4.5554 Y3.9039 Z-0.3281
N16795 X4.5537 Y3.902 Z-0.3282
N16800 X4.5521 Y3.9 Z-0.3283
N16805 X4.5507 Y3.8979 Z-0.3284
N16810 X4.5493 Y3.8958 Z-0.3285
N16815 X4.548 Y3.8936 Z-0.3286
N16820 X4.5469 Y3.8914 Z-0.3287
N16825 X4.5458 Y3.8891
N16830 X4.5454 Y3.8879 Z-0.3288
N16835 X4.5449 Y3.8867
N16840 X4.5441 Y3.8843 Z-0.3289
N16845 X4.5434 Y3.8819 Z-0.329
N16850 X4.5428 Y3.8794 Z-0.3291
N16855 X4.5424 Y3.8769 Z-0.3292
N16860 X4.542 Y3.8744 Z-0.3293
N16865 X4.5418 Y3.8719 Z-0.3294
N16870 Y3.8694
N16875 Y3.8668 Z-0.3295
N16880 X4.542 Y3.8643 Z-0.3296
