%
O09715 (Thermocyler_Block_4)
(Using high feed G1 F500. instead of G0.)
(T8 D=0.125 CR=0. - ZMIN=-0.7087 - flat end mill)
N10 G90 G94 G17
N15 G20
N20 G53 G0 Z0.

(Ramp1)
N30 T8 M6
N35 S4000 M3
N40 G54
N45 M8
N60 G0 X1.4396 Y4.2886
N65 G43 Z0.5906 H8
N70 G0 Z0.0761
N75 G1 Z0. F8.
N80 G3 X1.4449 Y4.3111 I-0.002 J0.0123
N85 G1 X1.4409 Y4.314 Z-0.0002
N90 X1.4367 Y4.3167 Z-0.0003
N95 X1.4353 Y4.3175 Z-0.0004
N100 X1.4297 Y4.3203 Z-0.0006
N105 X1.425 Y4.3223 Z-0.0008
N110 X1.4241 Y4.3226
N115 X1.4185 Y4.3243 Z-0.001
N120 X1.4129 Y4.3256 Z-0.0012
N125 X1.4073 Y4.3264 Z-0.0014
N130 X1.4017 Y4.3269 Z-0.0016
N135 X1.3961 Z-0.0018
N140 X1.3906 Y4.3264 Z-0.002
N145 X1.385 Y4.3256 Z-0.0022
N150 X1.3794 Y4.3243 Z-0.0024
N155 X1.3738 Y4.3225 Z-0.0026
N160 X1.3731 Y4.3223 Z-0.0027
N165 X1.3682 Y4.3202 Z-0.0028
N170 X1.3626 Y4.3174 Z-0.0031
N175 X1.3613 Y4.3167
N180 X1.357 Y4.3139 Z-0.0033
N185 X1.3531 Y4.3111 Z-0.0035
N190 X1.3514 Y4.3098
N195 X1.3491 Y4.3077 Z-0.0036
N200 X1.3467 Y4.3055 Z-0.0038
N205 X1.3459 Y4.3046
N210 X1.3416 Y4.2999 Z-0.004
N215 X1.3403 Y4.2982 Z-0.0041
N220 X1.3375 Y4.2943 Z-0.0043
N225 X1.3347 Y4.2899 Z-0.0044
N230 X1.334 Y4.2887 Z-0.0045
N235 X1.3312 Y4.2831 Z-0.0047
N240 X1.3291 Y4.278 Z-0.0049
N245 X1.3289 Y4.2775
N250 X1.328 Y4.2748 Z-0.005
N255 X1.3271 Y4.272 Z-0.0051
N260 X1.3259 Y4.2664 Z-0.0053
N265 X1.325 Y4.2608 Z-0.0055
N270 X1.3246 Y4.2552 Z-0.0057
N275 Y4.2496 Z-0.0059
N280 X1.325 Y4.244 Z-0.0061
N285 X1.3259 Y4.2384 Z-0.0063
N290 X1.3272 Y4.2328 Z-0.0065
N295 X1.329 Y4.2273 Z-0.0067
N300 X1.3291 Y4.227
N305 X1.3313 Y4.2217 Z-0.0069
N310 X1.3341 Y4.2161 Z-0.0071
N315 X1.3347 Y4.2151 Z-0.0072
N320 X1.3376 Y4.2105 Z-0.0074
N325 X1.3403 Y4.2068 Z-0.0075
N330 X1.3418 Y4.2049 Z-0.0076
N335 X1.3459 Y4.2004 Z-0.0078
N340 X1.3469 Y4.1993 Z-0.0079
N345 X1.3514 Y4.1952 Z-0.0081
N350 X1.3534 Y4.1937 Z-0.0082
N355 X1.357 Y4.1911 Z-0.0083
N360 X1.3617 Y4.1881 Z-0.0085
N365 X1.3626 Y4.1876 Z-0.0086
N370 X1.3682 Y4.1848 Z-0.0088
N375 X1.3736 Y4.1825 Z-0.009
N380 X1.3738
N385 X1.3794 Y4.1807 Z-0.0092
N390 X1.385 Y4.1794 Z-0.0094
N395 X1.3906 Y4.1786 Z-0.0096
N400 X1.3961 Y4.1781 Z-0.0098
N405 X1.4017 Z-0.01
N410 X1.4073 Y4.1786 Z-0.0102
N415 X1.4129 Y4.1794 Z-0.0104
N420 X1.4185 Y4.1807 Z-0.0106
N425 X1.4241 Y4.1824 Z-0.0108
N430 X1.4244 Y4.1825
N435 X1.4297 Y4.1847 Z-0.011
N440 X1.4353 Y4.1875 Z-0.0112
N445 X1.4364 Y4.1881 Z-0.0113
N450 X1.4409 Y4.191 Z-0.0114
N455 X1.4447 Y4.1937 Z-0.0116
N460 X1.4464 Y4.1952 Z-0.0117
N465 X1.451 Y4.1993 Z-0.0119
N470 X1.452 Y4.2003 Z-0.012
N475 X1.4562 Y4.2049 Z-0.0122
N480 X1.4576 Y4.2067
N485 X1.4605 Y4.2105 Z-0.0124
N490 X1.4632 Y4.2148 Z-0.0126
N495 X1.4639 Y4.2161
N500 X1.4667 Y4.2217 Z-0.0129
N505 X1.4688 Y4.2267 Z-0.0131
N510 X1.469 Y4.2273
N515 X1.4708 Y4.2328 Z-0.0133
N520 X1.4721 Y4.2384 Z-0.0135
N525 X1.4729 Y4.244 Z-0.0137
N530 X1.4733 Y4.2496 Z-0.0139
N535 X1.4734 Y4.2552 Z-0.0141
N540 X1.4729 Y4.2608 Z-0.0143
N545 X1.4721 Y4.2664 Z-0.0145
N550 X1.4708 Y4.272 Z-0.0147
N555 X1.4691 Y4.2775 Z-0.0149
N560 X1.4688 Y4.2783
N565 X1.4668 Y4.2831 Z-0.0151
N570 X1.464 Y4.2887 Z-0.0153
N575 X1.4632 Y4.2902 Z-0.0154
N580 X1.4606 Y4.2943 Z-0.0155
N585 X1.4576 Y4.2983 Z-0.0157
N590 X1.4564 Y4.2999 Z-0.0158
N595 X1.452 Y4.3047 Z-0.016
N600 X1.4512 Y4.3055
N605 X1.4464 Y4.3098 Z-0.0163
N610 X1.4449 Y4.3111
N615 X1.4409 Y4.314 Z-0.0165
N620 X1.4367 Y4.3167 Z-0.0167
N625 X1.4353 Y4.3175
N630 X1.4297 Y4.3203 Z-0.0169
N635 X1.425 Y4.3223 Z-0.0171
N640 X1.4241 Y4.3226 Z-0.0172
N645 X1.4185 Y4.3243 Z-0.0174
N650 X1.4129 Y4.3256 Z-0.0176
N655 X1.4073 Y4.3264 Z-0.0178
N660 X1.4017 Y4.3269 Z-0.018
N665 X1.3961 Z-0.0182
N670 X1.3906 Y4.3264 Z-0.0183
N675 X1.385 Y4.3256 Z-0.0185
N680 X1.3794 Y4.3243 Z-0.0187
N685 X1.3738 Y4.3225 Z-0.019
N690 X1.3731 Y4.3223
N695 X1.3682 Y4.3202 Z-0.0192
N700 X1.3626 Y4.3174 Z-0.0194
N705 X1.3613 Y4.3167
N710 X1.357 Y4.3139 Z-0.0196
N715 X1.3531 Y4.3111 Z-0.0198
N720 X1.3514 Y4.3098 Z-0.0199
N725 X1.3491 Y4.3077 Z-0.02
N730 X1.3467 Y4.3055 Z-0.0201
N735 X1.3459 Y4.3046
N740 X1.3416 Y4.2999 Z-0.0203
N745 X1.3403 Y4.2982 Z-0.0204
N750 X1.3375 Y4.2943 Z-0.0206
N755 X1.3347 Y4.2899 Z-0.0208
N760 X1.334 Y4.2887
N765 X1.3312 Y4.2831 Z-0.021
N770 X1.3291 Y4.278 Z-0.0212
N775 X1.3289 Y4.2775
N780 X1.328 Y4.2748 Z-0.0213
N785 X1.3271 Y4.272 Z-0.0214
N790 X1.3259 Y4.2664 Z-0.0216
N795 X1.325 Y4.2608 Z-0.0218
N800 X1.3246 Y4.2552 Z-0.022
N805 Y4.2496 Z-0.0222
N810 X1.325 Y4.244 Z-0.0224
N815 X1.3259 Y4.2384 Z-0.0226
N820 X1.3272 Y4.2328 Z-0.0228
N825 X1.329 Y4.2273 Z-0.023
N830 X1.3291 Y4.227
N835 X1.3313 Y4.2217 Z-0.0232
N840 X1.3341 Y4.2161 Z-0.0235
N845 X1.3347 Y4.2151
N850 X1.3376 Y4.2105 Z-0.0237
N855 X1.3403 Y4.2068 Z-0.0239
N860 X1.3418 Y4.2049
N865 X1.3459 Y4.2004 Z-0.0241
N870 X1.3469 Y4.1993 Z-0.0242
N875 X1.3514 Y4.1952 Z-0.0244
N880 X1.3534 Y4.1937 Z-0.0245
N885 X1.357 Y4.1911 Z-0.0247
N890 X1.3617 Y4.1881 Z-0.0249
N895 X1.3626 Y4.1876
N900 X1.3682 Y4.1848 Z-0.0251
N905 X1.3736 Y4.1825 Z-0.0253
N910 X1.3738
N915 X1.3794 Y4.1807 Z-0.0255
N920 X1.385 Y4.1794 Z-0.0257
N925 X1.3906 Y4.1786 Z-0.0259
N930 X1.3961 Y4.1781 Z-0.0261
N935 X1.4017 Z-0.0263
N940 X1.4073 Y4.1786 Z-0.0265
N945 X1.4129 Y4.1794 Z-0.0267
N950 X1.4185 Y4.1807 Z-0.0269
N955 X1.4241 Y4.1824 Z-0.0271
N960 X1.4244 Y4.1825
N965 X1.4297 Y4.1847 Z-0.0273
N970 X1.4353 Y4.1875 Z-0.0275
N975 X1.4364 Y4.1881 Z-0.0276
N980 X1.4409 Y4.191 Z-0.0278
N985 X1.4447 Y4.1937 Z-0.0279
N990 X1.4464 Y4.1952 Z-0.028
N995 X1.451 Y4.1993 Z-0.0282
N1000 X1.452 Y4.2003 Z-0.0283
N1005 X1.4562 Y4.2049 Z-0.0285
N1010 X1.4576 Y4.2067 Z-0.0286
N1015 X1.4605 Y4.2105 Z-0.0287
N1020 X1.4632 Y4.2148 Z-0.0289
N1025 X1.4639 Y4.2161 Z-0.029
N1030 X1.4667 Y4.2217 Z-0.0292
N1035 X1.4688 Y4.2267 Z-0.0294
N1040 X1.469 Y4.2273
N1045 X1.4708 Y4.2328 Z-0.0296
N1050 X1.4721 Y4.2384 Z-0.0298
N1055 X1.4729 Y4.244 Z-0.03
N1060 X1.4733 Y4.2496 Z-0.0302
N1065 X1.4734 Y4.2552 Z-0.0304
N1070 X1.4729 Y4.2608 Z-0.0306
N1075 X1.4721 Y4.2664 Z-0.0308
N1080 X1.4708 Y4.272 Z-0.031
N1085 X1.4691 Y4.2775 Z-0.0312
N1090 X1.4688 Y4.2783
N1095 X1.4668 Y4.2831 Z-0.0314
N1100 X1.464 Y4.2887 Z-0.0316
N1105 X1.4632 Y4.2902 Z-0.0317
N1110 X1.4606 Y4.2943 Z-0.0318
N1115 X1.4576 Y4.2983 Z-0.032
N1120 X1.4564 Y4.2999 Z-0.0321
N1125 X1.452 Y4.3047 Z-0.0323
N1130 X1.4512 Y4.3055 Z-0.0324
N1135 X1.4464 Y4.3098 Z-0.0326
N1140 X1.4449 Y4.3111
N1145 X1.4409 Y4.314 Z-0.0328
N1150 X1.4367 Y4.3167 Z-0.033
N1155 X1.4353 Y4.3175 Z-0.0331
N1160 X1.4297 Y4.3203 Z-0.0333
N1165 X1.425 Y4.3223 Z-0.0335
N1170 X1.4241 Y4.3226
N1175 X1.4185 Y4.3243 Z-0.0337
N1180 X1.4129 Y4.3256 Z-0.0339
N1185 X1.4073 Y4.3264 Z-0.0341
N1190 X1.4017 Y4.3269 Z-0.0343
N1195 X1.3961 Z-0.0345
N1200 X1.3906 Y4.3264 Z-0.0347
N1205 X1.385 Y4.3256 Z-0.0349
N1210 X1.3794 Y4.3243 Z-0.0351
N1215 X1.3738 Y4.3225 Z-0.0353
N1220 X1.3731 Y4.3223
N1225 X1.3682 Y4.3202 Z-0.0355
N1230 X1.3626 Y4.3174 Z-0.0357
N1235 X1.3613 Y4.3167 Z-0.0358
N1240 X1.357 Y4.3139 Z-0.0359
N1245 X1.3531 Y4.3111 Z-0.0361
N1250 X1.3514 Y4.3098 Z-0.0362
N1255 X1.3491 Y4.3077 Z-0.0363
N1260 X1.3467 Y4.3055 Z-0.0364
N1265 X1.3459 Y4.3046
N1270 X1.3416 Y4.2999 Z-0.0367
N1275 X1.3403 Y4.2982
N1280 X1.3375 Y4.2943 Z-0.0369
N1285 X1.3347 Y4.2899 Z-0.0371
N1290 X1.334 Y4.2887
N1295 X1.3312 Y4.2831 Z-0.0374
N1300 X1.3291 Y4.278 Z-0.0375
N1305 X1.3289 Y4.2775 Z-0.0376
N1310 X1.328 Y4.2748 Z-0.0377
N1315 X1.3271 Y4.272 Z-0.0378
N1320 X1.3259 Y4.2664 Z-0.038
N1325 X1.325 Y4.2608 Z-0.0382
N1330 X1.3246 Y4.2552 Z-0.0384
N1335 Y4.2496 Z-0.0386
N1340 X1.325 Y4.244 Z-0.0388
N1345 X1.3259 Y4.2384 Z-0.039
N1350 X1.3272 Y4.2328 Z-0.0392
N1355 X1.329 Y4.2273 Z-0.0394
N1360 X1.3291 Y4.227
N1365 X1.3309 Y4.2224 Z-0.0395
N1370 X1.333 Y4.2181 Z-0.0397
N1375 X1.3354 Y4.2138 Z-0.0399
N1380 X1.3381 Y4.2098 Z-0.0401
N1385 X1.341 Y4.2059 Z-0.0402
N1390 X1.3442 Y4.2022 Z-0.0404
N1395 X1.3476 Y4.1987 Z-0.0406
N1400 X1.3512 Y4.1954 Z-0.0407
N1405 X1.3551 Y4.1924 Z-0.0409
N1410 X1.3591 Y4.1897 Z-0.0411
N1415 X1.3633 Y4.1872 Z-0.0412
N1420 X1.3676 Y4.185 Z-0.0414
N1425 X1.3721 Y4.1831 Z-0.0416
N1430 X1.3767 Y4.1815 Z-0.0417
N1435 X1.3814 Y4.1802 Z-0.0419
N1440 X1.3862 Y4.1792 Z-0.0421
N1445 X1.391 Y4.1785 Z-0.0423
N1450 X1.3958 Y4.1782 Z-0.0424
N1455 X1.4007 Y4.1781 Z-0.0426
N1460 X1.4056 Y4.1784 Z-0.0428
N1465 X1.4104 Y4.179 Z-0.0429
N1470 X1.4152 Y4.1799 Z-0.0431
N1475 X1.4199 Y4.181 Z-0.0433
N1480 X1.4245 Y4.1826 Z-0.0435
N1485 X1.4291 Y4.1844 Z-0.0436
N1490 X1.4334 Y4.1865 Z-0.0438
N1495 X1.4377 Y4.1889 Z-0.044
N1500 X1.4418 Y4.1916 Z-0.0441
N1505 X1.4457 Y4.1945 Z-0.0443
N1510 X1.4494 Y4.1977 Z-0.0445
N1515 X1.4528 Y4.2011 Z-0.0446
N1520 X1.4561 Y4.2047 Z-0.0448
N1525 X1.4591 Y4.2086 Z-0.045
N1530 X1.4618 Y4.2126 Z-0.0451
N1535 X1.4643 Y4.2168 Z-0.0453
N1540 X1.4665 Y4.2211 Z-0.0455
N1545 X1.4684 Y4.2256 Z-0.0457
N1550 X1.47 Y4.2302 Z-0.0458
N1555 X1.4713 Y4.2349 Z-0.046
N1560 X1.4723 Y4.2397 Z-0.0462
N1565 X1.473 Y4.2445 Z-0.0463
N1570 X1.4733 Y4.2494 Z-0.0465
N1575 X1.4734 Y4.2542 Z-0.0467
N1580 X1.4731 Y4.2591 Z-0.0468
N1585 X1.4726 Y4.2639 Z-0.047
N1590 X1.4716 Y4.2687 Z-0.0472
N1595 X1.4704 Y4.2734 Z-0.0474
N1600 X1.4689 Y4.278 Z-0.0475
N1605 X1.4671 Y4.2826 Z-0.0477
N1610 X1.4649 Y4.287 Z-0.0479
N1615 X1.4626 Y4.2912 Z-0.048
N1620 X1.4599 Y4.2953 Z-0.0482
N1625 X1.457 Y4.2992 Z-0.0484
N1630 X1.4538 Y4.3029 Z-0.0485
N1635 X1.4504 Y4.3063 Z-0.0487
N1640 X1.4467 Y4.3096 Z-0.0489
N1645 X1.4429 Y4.3126 Z-0.0491
N1650 X1.4389 Y4.3153 Z-0.0492
N1655 X1.4347 Y4.3178 Z-0.0494
N1660 X1.4304 Y4.32 Z-0.0496
N1665 X1.4259 Y4.3219 Z-0.0497
N1670 X1.4213 Y4.3235 Z-0.0499
N1675 X1.4166 Y4.3248 Z-0.0501
N1680 X1.4118 Y4.3258 Z-0.0502
N1685 X1.407 Y4.3265 Z-0.0504
N1690 X1.4021 Y4.3269 Z-0.0506
N1695 X1.3973 Z-0.0508
N1700 X1.3924 Y4.3266 Z-0.0509
N1705 X1.3876 Y4.326 Z-0.0511
N1710 X1.3828 Y4.3251 Z-0.0513
N1715 X1.3781 Y4.3239 Z-0.0514
N1720 X1.3735 Y4.3224 Z-0.0516
N1725 X1.3689 Y4.3206 Z-0.0518
N1730 X1.3645 Y4.3185 Z-0.0519
N1735 X1.3603 Y4.3161 Z-0.0521
N1740 X1.3562 Y4.3134 Z-0.0523
N1745 X1.3523 Y4.3105 Z-0.0525
N1750 X1.3487 Y4.3073 Z-0.0526
N1755 X1.3452 Y4.3039 Z-0.0528
N1760 X1.3419 Y4.3002 Z-0.053
N1765 X1.3389 Y4.2964 Z-0.0531
N1770 X1.3362 Y4.2924 Z-0.0533
N1775 X1.3337 Y4.2882 Z-0.0535
N1780 X1.3315 Y4.2839 Z-0.0536
N1785 X1.3296 Y4.2794 Z-0.0538
N1790 X1.328 Y4.2748 Z-0.054
N1795 X1.3267 Y4.2701 Z-0.0542
N1800 X1.3257 Y4.2653 Z-0.0543
N1805 X1.325 Y4.2605 Z-0.0545
N1810 X1.3246 Y4.2556 Z-0.0547
N1815 Y4.2508 Z-0.0548
N1820 X1.3249 Y4.2459 Z-0.055
N1825 X1.3255 Y4.2411 Z-0.0552
N1830 X1.3264 Y4.2363 Z-0.0553
N1835 X1.3276 Y4.2316 Z-0.0555
N1840 X1.3291 Y4.227 Z-0.0557
N1845 X1.3309 Y4.2224 Z-0.0559
N1850 X1.333 Y4.2181 Z-0.056
N1855 X1.3354 Y4.2138 Z-0.0562
N1860 X1.3381 Y4.2098 Z-0.0564
N1865 X1.341 Y4.2059 Z-0.0565
N1870 X1.3442 Y4.2022 Z-0.0567
N1875 X1.3476 Y4.1987 Z-0.0569
N1880 X1.3512 Y4.1954 Z-0.057
N1885 X1.3551 Y4.1924 Z-0.0572
N1890 X1.3591 Y4.1897 Z-0.0574
N1895 X1.3633 Y4.1872 Z-0.0576
N1900 X1.3676 Y4.185 Z-0.0577
N1905 X1.3721 Y4.1831 Z-0.0579
N1910 X1.3767 Y4.1815 Z-0.0581
N1915 X1.3814 Y4.1802 Z-0.0582
N1920 X1.3862 Y4.1792 Z-0.0584
N1925 X1.391 Y4.1785 Z-0.0586
N1930 X1.3958 Y4.1782 Z-0.0587
N1935 X1.4007 Y4.1781 Z-0.0589
N1940 X1.4056 Y4.1784 Z-0.0591
N1945 X1.4104 Y4.179 Z-0.0593
N1950 X1.4152 Y4.1799 Z-0.0594
N1955 X1.4199 Y4.181 Z-0.0596
N1960 X1.4245 Y4.1826 Z-0.0598
N1965 X1.4291 Y4.1844 Z-0.0599
N1970 X1.4334 Y4.1865 Z-0.0601
N1975 X1.4377 Y4.1889 Z-0.0603
N1980 X1.4418 Y4.1916 Z-0.0604
N1985 X1.4457 Y4.1945 Z-0.0606
N1990 X1.4494 Y4.1977 Z-0.0608
N1995 X1.4528 Y4.2011 Z-0.061
N2000 X1.4561 Y4.2047 Z-0.0611
N2005 X1.4591 Y4.2086 Z-0.0613
N2010 X1.4618 Y4.2126 Z-0.0615
N2015 X1.4643 Y4.2168 Z-0.0616
N2020 X1.4665 Y4.2211 Z-0.0618
N2025 X1.4684 Y4.2256 Z-0.062
N2030 X1.47 Y4.2302 Z-0.0621
N2035 X1.4713 Y4.2349 Z-0.0623
N2040 X1.4723 Y4.2397 Z-0.0625
N2045 X1.473 Y4.2445 Z-0.0627
N2050 X1.4733 Y4.2494 Z-0.0628
N2055 X1.4734 Y4.2542 Z-0.063
N2060 X1.4731 Y4.2591 Z-0.0632
N2065 X1.4726 Y4.2639 Z-0.0633
N2070 X1.4716 Y4.2687 Z-0.0635
N2075 X1.4704 Y4.2734 Z-0.0637
N2080 X1.4689 Y4.278 Z-0.0638
N2085 X1.4671 Y4.2826 Z-0.064
N2090 X1.4649 Y4.287 Z-0.0642
N2095 X1.4626 Y4.2912 Z-0.0644
N2100 X1.4599 Y4.2953 Z-0.0645
N2105 X1.457 Y4.2992 Z-0.0647
N2110 X1.4538 Y4.3029 Z-0.0649
N2115 X1.4504 Y4.3063 Z-0.065
N2120 X1.4467 Y4.3096 Z-0.0652
N2125 X1.4429 Y4.3126 Z-0.0654
N2130 X1.4389 Y4.3153 Z-0.0655
N2135 X1.4347 Y4.3178 Z-0.0657
N2140 X1.4304 Y4.32 Z-0.0659
N2145 X1.4259 Y4.3219 Z-0.0661
N2150 X1.4213 Y4.3235 Z-0.0662
N2155 X1.4166 Y4.3248 Z-0.0664
N2160 X1.4118 Y4.3258 Z-0.0666
N2165 X1.407 Y4.3265 Z-0.0667
N2170 X1.4021 Y4.3269 Z-0.0669
N2175 X1.3973 Z-0.0671
N2180 X1.3924 Y4.3266 Z-0.0672
N2185 X1.3876 Y4.326 Z-0.0674
N2190 X1.3828 Y4.3251 Z-0.0676
N2195 X1.3781 Y4.3239 Z-0.0678
N2200 X1.3735 Y4.3224 Z-0.0679
N2205 X1.3689 Y4.3206 Z-0.0681
N2210 X1.3645 Y4.3185 Z-0.0683
N2215 X1.3603 Y4.3161 Z-0.0684
N2220 X1.3562 Y4.3134 Z-0.0686
N2225 X1.3523 Y4.3105 Z-0.0688
N2230 X1.3487 Y4.3073 Z-0.0689
N2235 X1.3452 Y4.3039 Z-0.0691
N2240 X1.3419 Y4.3002 Z-0.0693
N2245 X1.3389 Y4.2964 Z-0.0695
N2250 X1.3362 Y4.2924 Z-0.0696
N2255 X1.3337 Y4.2882 Z-0.0698
N2260 X1.3315 Y4.2839 Z-0.07
N2265 X1.3296 Y4.2794 Z-0.0701
N2270 X1.328 Y4.2748 Z-0.0703
N2275 X1.3267 Y4.2701 Z-0.0705
N2280 X1.3257 Y4.2653 Z-0.0706
N2285 X1.325 Y4.2605 Z-0.0708
N2290 X1.3246 Y4.2556 Z-0.071
N2295 Y4.2508 Z-0.0712
N2300 X1.3249 Y4.2459 Z-0.0713
N2305 X1.3255 Y4.2411 Z-0.0715
N2310 X1.3264 Y4.2363 Z-0.0717
N2315 X1.3276 Y4.2316 Z-0.0718
N2320 X1.3291 Y4.227 Z-0.072
N2325 X1.3309 Y4.2224 Z-0.0722
N2330 X1.333 Y4.2181 Z-0.0723
N2335 X1.3354 Y4.2138 Z-0.0725
N2340 X1.3381 Y4.2098 Z-0.0727
N2345 X1.341 Y4.2059 Z-0.0729
N2350 X1.3442 Y4.2022 Z-0.073
N2355 X1.3476 Y4.1987 Z-0.0732
N2360 X1.3512 Y4.1954 Z-0.0734
N2365 X1.3551 Y4.1924 Z-0.0735
N2370 X1.3591 Y4.1897 Z-0.0737
N2375 X1.3633 Y4.1872 Z-0.0739
N2380 X1.3676 Y4.185 Z-0.074
N2385 X1.3721 Y4.1831 Z-0.0742
N2390 X1.3767 Y4.1815 Z-0.0744
N2395 X1.3814 Y4.1802 Z-0.0746
N2400 X1.3862 Y4.1792 Z-0.0747
N2405 X1.391 Y4.1785 Z-0.0749
N2410 X1.3958 Y4.1782 Z-0.0751
N2415 X1.4007 Y4.1781 Z-0.0752
N2420 X1.4056 Y4.1784 Z-0.0754
N2425 X1.4104 Y4.179 Z-0.0756
N2430 X1.4152 Y4.1799 Z-0.0757
N2435 X1.4199 Y4.181 Z-0.0759
N2440 X1.4245 Y4.1826 Z-0.0761
N2445 X1.4291 Y4.1844 Z-0.0763
N2450 X1.4334 Y4.1865 Z-0.0764
N2455 X1.4377 Y4.1889 Z-0.0766
N2460 X1.4418 Y4.1916 Z-0.0768
N2465 X1.4457 Y4.1945 Z-0.0769
N2470 X1.4494 Y4.1977 Z-0.0771
N2475 X1.4528 Y4.2011 Z-0.0773
N2480 X1.4561 Y4.2047 Z-0.0774
N2485 X1.4591 Y4.2086 Z-0.0776
N2490 X1.4618 Y4.2126 Z-0.0778
N2495 X1.4643 Y4.2168 Z-0.078
N2500 X1.4665 Y4.2211 Z-0.0781
N2505 X1.4684 Y4.2256 Z-0.0783
N2510 X1.47 Y4.2302 Z-0.0785
N2515 X1.4711 Y4.2339 Z-0.0786
N2520 X1.4719 Y4.2377 Z-0.0787
N2525 X1.472 Y4.2379
N2530 X1.4724 Y4.2403 Z-0.0788
N2535 X1.4728 Y4.2427 Z-0.0789
N2540 X1.4733 Y4.2476 Z-0.0791
N2545 X1.4735 Y4.2524 Z-0.0793
N2550 X1.4733 Y4.2573 Z-0.0794
N2555 X1.4728 Y4.2622 Z-0.0796
N2560 X1.472 Y4.267 Z-0.0798
N2565 X1.4709 Y4.2717 Z-0.0799
N2570 X1.4695 Y4.2764 Z-0.0801
N2575 X1.4678 Y4.2809 Z-0.0803
N2580 X1.4658 Y4.2854 Z-0.0804
N2585 X1.4635 Y4.2897 Z-0.0806
N2590 X1.4609 Y4.2938 Z-0.0808
N2595 X1.4581 Y4.2978 Z-0.081
N2600 X1.455 Y4.3015 Z-0.0811
N2605 X1.4516 Y4.3051 Z-0.0813
N2610 X1.4481 Y4.3084 Z-0.0815
N2615 X1.4444 Y4.3115 Z-0.0816
N2620 X1.4404 Y4.3144 Z-0.0818
N2625 X1.4363 Y4.3169 Z-0.082
N2630 X1.432 Y4.3192 Z-0.0821
N2635 X1.4275 Y4.3212 Z-0.0823
N2640 X1.423 Y4.3229 Z-0.0825
N2645 X1.4183 Y4.3244 Z-0.0826
N2650 X1.4136 Y4.3255 Z-0.0828
N2655 X1.4088 Y4.3263 Z-0.083
N2660 X1.4039 Y4.3268 Z-0.0832
N2665 X1.3991 Y4.3269 Z-0.0833
N2670 X1.3942 Y4.3267 Z-0.0835
N2675 X1.3893 Y4.3263 Z-0.0837
N2680 X1.3845 Y4.3255 Z-0.0838
N2685 X1.3798 Y4.3244 Z-0.084
N2690 X1.3751 Y4.323 Z-0.0842
N2695 X1.3706 Y4.3213 Z-0.0843
N2700 X1.3661 Y4.3193 Z-0.0845
N2705 X1.3618 Y4.317 Z-0.0847
N2710 X1.3577 Y4.3144 Z-0.0849
N2715 X1.3537 Y4.3116 Z-0.085
N2720 X1.35 Y4.3085 Z-0.0852
N2725 X1.3464 Y4.3052 Z-0.0854
N2730 X1.3431 Y4.3016 Z-0.0855
N2735 X1.34 Y4.2978 Z-0.0857
N2740 X1.3372 Y4.2939 Z-0.0859
N2745 X1.3346 Y4.2897 Z-0.086
N2750 X1.3323 Y4.2854 Z-0.0862
N2755 X1.3303 Y4.281 Z-0.0864
N2760 X1.3285 Y4.2765 Z-0.0866
N2765 X1.3271 Y4.2718 Z-0.0867
N2770 X1.326 Y4.2671 Z-0.0869
N2775 X1.3252 Y4.2623 Z-0.0871
N2780 X1.3248 Y4.2574 Z-0.0872
N2785 X1.3246 Y4.2526 Z-0.0874
N2790 X1.3247 Y4.2477 Z-0.0876
N2795 X1.3252 Y4.2428 Z-0.0877
N2800 X1.326 Y4.238 Z-0.0879
N2805 X1.3271 Y4.2333 Z-0.0881
N2810 X1.3285 Y4.2286 Z-0.0883
N2815 X1.3302 Y4.2241 Z-0.0884
N2820 X1.3322 Y4.2197 Z-0.0886
N2825 X1.3345 Y4.2154 Z-0.0888
N2830 X1.3371 Y4.2112 Z-0.0889
N2835 X1.3399 Y4.2072 Z-0.0891
N2840 X1.343 Y4.2035 Z-0.0893
N2845 X1.3463 Y4.1999 Z-0.0894
N2850 X1.3499 Y4.1966 Z-0.0896
N2855 X1.3537 Y4.1935 Z-0.0898
N2860 X1.3576 Y4.1907 Z-0.09
N2865 X1.3617 Y4.1881 Z-0.0901
N2870 X1.366 Y4.1858 Z-0.0903
N2875 X1.3705 Y4.1837 Z-0.0905
N2880 X1.375 Y4.182 Z-0.0906
N2885 X1.3797 Y4.1806 Z-0.0908
N2890 X1.3844 Y4.1795 Z-0.091
N2895 X1.3892 Y4.1787 Z-0.0911
N2900 X1.3941 Y4.1783 Z-0.0913
N2905 X1.3989 Y4.1781 Z-0.0915
N2910 X1.4038 Y4.1782 Z-0.0917
N2915 X1.4087 Y4.1787 Z-0.0918
N2920 X1.4135 Y4.1795 Z-0.092
N2925 X1.4182 Y4.1806 Z-0.0922
N2930 X1.4229 Y4.182 Z-0.0923
N2935 X1.4274 Y4.1837 Z-0.0925
N2940 X1.4319 Y4.1857 Z-0.0927
N2945 X1.4362 Y4.188 Z-0.0928
N2950 X1.4403 Y4.1906 Z-0.093
N2955 X1.4443 Y4.1934 Z-0.0932
N2960 X1.448 Y4.1965 Z-0.0934
N2965 X1.4516 Y4.1998 Z-0.0935
N2970 X1.4549 Y4.2034 Z-0.0937
N2975 X1.458 Y4.2072 Z-0.0939
N2980 X1.4608 Y4.2111 Z-0.094
N2985 X1.4634 Y4.2152 Z-0.0942
N2990 X1.4657 Y4.2195 Z-0.0944
N2995 X1.4677 Y4.224 Z-0.0945
N3000 X1.4694 Y4.2285 Z-0.0947
N3005 X1.4709 Y4.2332 Z-0.0949
N3010 X1.472 Y4.2379 Z-0.0951
N3015 X1.4728 Y4.2427 Z-0.0952
N3020 X1.4733 Y4.2476 Z-0.0954
N3025 X1.4735 Y4.2524 Z-0.0956
N3030 X1.4733 Y4.2573 Z-0.0957
N3035 X1.4728 Y4.2622 Z-0.0959
N3040 X1.472 Y4.267 Z-0.0961
N3045 X1.4709 Y4.2717 Z-0.0962
N3050 X1.4695 Y4.2764 Z-0.0964
N3055 X1.4678 Y4.2809 Z-0.0966
N3060 X1.4658 Y4.2854 Z-0.0968
N3065 X1.4635 Y4.2897 Z-0.0969
N3070 X1.4609 Y4.2938 Z-0.0971
N3075 X1.4581 Y4.2978 Z-0.0973
N3080 X1.455 Y4.3015 Z-0.0974
N3085 X1.4516 Y4.3051 Z-0.0976
N3090 X1.4481 Y4.3084 Z-0.0978
N3095 X1.4444 Y4.3115 Z-0.0979
N3100 X1.4404 Y4.3144 Z-0.0981
N3105 X1.4363 Y4.3169 Z-0.0983
N3110 X1.432 Y4.3192 Z-0.0985
N3115 X1.4275 Y4.3212 Z-0.0986
N3120 X1.423 Y4.3229 Z-0.0988
N3125 X1.4183 Y4.3244 Z-0.099
N3130 X1.4136 Y4.3255 Z-0.0991
N3135 X1.4088 Y4.3263 Z-0.0993
N3140 X1.4039 Y4.3268 Z-0.0995
N3145 X1.3991 Y4.3269 Z-0.0996
N3150 X1.3942 Y4.3267 Z-0.0998
N3155 X1.3893 Y4.3263 Z-0.1
N3160 X1.3845 Y4.3255 Z-0.1002
N3165 X1.3798 Y4.3244 Z-0.1003
N3170 X1.3751 Y4.323 Z-0.1005
N3175 X1.3706 Y4.3213 Z-0.1007
N3180 X1.3661 Y4.3193 Z-0.1008
N3185 X1.3618 Y4.317 Z-0.101
N3190 X1.3577 Y4.3144 Z-0.1012
N3195 X1.3537 Y4.3116 Z-0.1013
N3200 X1.35 Y4.3085 Z-0.1015
N3205 X1.3464 Y4.3052 Z-0.1017
N3210 X1.3431 Y4.3016 Z-0.1019
N3215 X1.34 Y4.2978 Z-0.102
N3220 X1.3372 Y4.2939 Z-0.1022
N3225 X1.3346 Y4.2897 Z-0.1024
N3230 X1.3323 Y4.2854 Z-0.1025
N3235 X1.3303 Y4.281 Z-0.1027
N3240 X1.3285 Y4.2765 Z-0.1029
N3245 X1.3271 Y4.2718 Z-0.103
N3250 X1.326 Y4.2671 Z-0.1032
N3255 X1.3252 Y4.2623 Z-0.1034
N3260 X1.3248 Y4.2574 Z-0.1036
N3265 X1.3246 Y4.2526 Z-0.1037
N3270 X1.3247 Y4.2477 Z-0.1039
N3275 X1.3252 Y4.2428 Z-0.1041
N3280 X1.326 Y4.238 Z-0.1042
N3285 X1.3271 Y4.2333 Z-0.1044
N3290 X1.3285 Y4.2286 Z-0.1046
N3295 X1.3302 Y4.2241 Z-0.1047
N3300 X1.3322 Y4.2197 Z-0.1049
N3305 X1.3345 Y4.2154 Z-0.1051
N3310 X1.3371 Y4.2112 Z-0.1053
N3315 X1.3399 Y4.2072 Z-0.1054
N3320 X1.343 Y4.2035 Z-0.1056
N3325 X1.3463 Y4.1999 Z-0.1058
N3330 X1.3499 Y4.1966 Z-0.1059
N3335 X1.3537 Y4.1935 Z-0.1061
N3340 X1.3576 Y4.1907 Z-0.1063
N3345 X1.3617 Y4.1881 Z-0.1064
N3350 X1.366 Y4.1858 Z-0.1066
N3355 X1.3705 Y4.1837 Z-0.1068
N3360 X1.375 Y4.182 Z-0.107
N3365 X1.3797 Y4.1806 Z-0.1071
N3370 X1.3844 Y4.1795 Z-0.1073
N3375 X1.3892 Y4.1787 Z-0.1075
N3380 X1.3941 Y4.1783 Z-0.1076
N3385 X1.3989 Y4.1781 Z-0.1078
N3390 X1.4038 Y4.1782 Z-0.108
N3395 X1.4087 Y4.1787 Z-0.1081
N3400 X1.4135 Y4.1795 Z-0.1083
N3405 X1.4182 Y4.1806 Z-0.1085
N3410 X1.4229 Y4.182 Z-0.1087
N3415 X1.4274 Y4.1837 Z-0.1088
N3420 X1.4319 Y4.1857 Z-0.109
N3425 X1.4362 Y4.188 Z-0.1092
N3430 X1.4403 Y4.1906 Z-0.1093
N3435 X1.4443 Y4.1934 Z-0.1095
N3440 X1.448 Y4.1965 Z-0.1097
N3445 X1.4516 Y4.1998 Z-0.1098
N3450 X1.4549 Y4.2034 Z-0.11
N3455 X1.458 Y4.2072 Z-0.1102
N3460 X1.4608 Y4.2111 Z-0.1104
N3465 X1.4634 Y4.2152 Z-0.1105
N3470 X1.4657 Y4.2195 Z-0.1107
N3475 X1.4677 Y4.224 Z-0.1109
N3480 X1.4694 Y4.2285 Z-0.111
N3485 X1.4709 Y4.2332 Z-0.1112
N3490 X1.472 Y4.2379 Z-0.1114
N3495 X1.4728 Y4.2427 Z-0.1115
N3500 X1.4733 Y4.2476 Z-0.1117
N3505 X1.4735 Y4.2524 Z-0.1119
N3510 X1.4733 Y4.2573 Z-0.1121
N3515 X1.4728 Y4.2622 Z-0.1122
N3520 X1.472 Y4.267 Z-0.1124
N3525 X1.4709 Y4.2717 Z-0.1126
N3530 X1.4695 Y4.2764 Z-0.1127
N3535 X1.4678 Y4.2809 Z-0.1129
N3540 X1.4658 Y4.2854 Z-0.1131
N3545 X1.4635 Y4.2897 Z-0.1132
N3550 X1.4609 Y4.2938 Z-0.1134
N3555 X1.4581 Y4.2978 Z-0.1136
N3560 X1.455 Y4.3015 Z-0.1138
N3565 X1.4516 Y4.3051 Z-0.1139
N3570 X1.4481 Y4.3084 Z-0.1141
N3575 X1.4444 Y4.3115 Z-0.1143
N3580 X1.4404 Y4.3144 Z-0.1144
N3585 X1.4363 Y4.3169 Z-0.1146
N3590 X1.432 Y4.3192 Z-0.1148
N3595 X1.4275 Y4.3212 Z-0.1149
N3600 X1.423 Y4.3229 Z-0.1151
N3605 X1.4183 Y4.3244 Z-0.1153
N3610 X1.4136 Y4.3255 Z-0.1155
N3615 X1.4088 Y4.3263 Z-0.1156
N3620 X1.4039 Y4.3268 Z-0.1158
N3625 X1.3991 Y4.3269 Z-0.116
N3630 X1.3942 Y4.3267 Z-0.1161
N3635 X1.3893 Y4.3263 Z-0.1163
N3640 X1.3845 Y4.3255 Z-0.1165
N3645 X1.3798 Y4.3244 Z-0.1166
N3650 X1.3751 Y4.323 Z-0.1168
N3655 X1.3706 Y4.3213 Z-0.117
N3660 X1.3661 Y4.3193 Z-0.1172
N3665 X1.3618 Y4.317 Z-0.1173
N3670 X1.3577 Y4.3144 Z-0.1175
N3675 X1.3537 Y4.3116 Z-0.1177
N3680 X1.35 Y4.3085 Z-0.1178
N3685 X1.3471 Y4.3059 Z-0.118
N3690 X1.3444 Y4.303 Z-0.1181
N3695 X1.3443 Y4.3029
N3700 X1.3434 Y4.302 Z-0.1182
N3705 X1.3426 Y4.3011
N3710 X1.3411 Y4.2992 Z-0.1183
N3715 X1.3381 Y4.2953 Z-0.1185
N3720 X1.3355 Y4.2912 Z-0.1186
N3725 X1.3331 Y4.287 Z-0.1188
N3730 X1.3309 Y4.2826 Z-0.119
N3735 X1.3291 Y4.2781 Z-0.1191
N3740 X1.3276 Y4.2735 Z-0.1193
N3745 X1.3264 Y4.2688 Z-0.1195
N3750 X1.3255 Y4.264 Z-0.1196
N3755 X1.3249 Y4.2592 Z-0.1198
N3760 X1.3246 Y4.2543 Z-0.12
N3765 Y4.2494 Z-0.1201
N3770 X1.325 Y4.2446 Z-0.1203
N3775 X1.3257 Y4.2398 Z-0.1205
N3780 X1.3267 Y4.235 Z-0.1207
N3785 X1.328 Y4.2303 Z-0.1208
N3790 X1.3296 Y4.2257 Z-0.121
N3795 X1.3315 Y4.2212 Z-0.1212
N3800 X1.3336 Y4.2169 Z-0.1213
N3805 X1.3361 Y4.2127 Z-0.1215
N3810 X1.3389 Y4.2086 Z-0.1217
N3815 X1.3419 Y4.2048 Z-0.1218
N3820 X1.3451 Y4.2012 Z-0.122
N3825 X1.3486 Y4.1978 Z-0.1222
N3830 X1.3523 Y4.1946 Z-0.1224
N3835 X1.3562 Y4.1916 Z-0.1225
N3840 X1.3602 Y4.1889 Z-0.1227
N3845 X1.3645 Y4.1866 Z-0.1229
N3850 X1.3689 Y4.1845 Z-0.123
N3855 X1.3734 Y4.1826 Z-0.1232
N3860 X1.378 Y4.1811 Z-0.1234
N3865 X1.3827 Y4.1799 Z-0.1235
N3870 X1.3875 Y4.179 Z-0.1237
N3875 X1.3923 Y4.1784 Z-0.1239
N3880 X1.3972 Y4.1781 Z-0.1241
N3885 X1.4021 Z-0.1242
N3890 X1.4069 Y4.1785 Z-0.1244
N3895 X1.4117 Y4.1792 Z-0.1246
N3900 X1.4165 Y4.1802 Z-0.1247
N3905 X1.4212 Y4.1815 Z-0.1249
N3910 X1.4258 Y4.1831 Z-0.1251
N3915 X1.4303 Y4.1849 Z-0.1252
N3920 X1.4346 Y4.1872 Z-0.1254
N3925 X1.4388 Y4.1896 Z-0.1256
N3930 X1.4428 Y4.1924 Z-0.1258
N3935 X1.4467 Y4.1954 Z-0.1259
N3940 X1.4503 Y4.1986 Z-0.1261
N3945 X1.4537 Y4.2021 Z-0.1263
N3950 X1.4569 Y4.2058 Z-0.1264
N3955 X1.4599 Y4.2097 Z-0.1266
N3960 X1.4625 Y4.2137 Z-0.1268
N3965 X1.4649 Y4.218 Z-0.1269
N3970 X1.467 Y4.2224 Z-0.1271
N3975 X1.4689 Y4.2269 Z-0.1273
N3980 X1.4704 Y4.2315 Z-0.1275
N3985 X1.4716 Y4.2362 Z-0.1276
N3990 X1.4726 Y4.241 Z-0.1278
N3995 X1.4731 Y4.2458 Z-0.128
N4000 X1.4734 Y4.2507 Z-0.1281
N4005 X1.4733 Y4.2556 Z-0.1283
N4010 X1.473 Y4.2604 Z-0.1285
N4015 X1.4723 Y4.2652 Z-0.1286
N4020 X1.4713 Y4.27 Z-0.1288
N4025 X1.4701 Y4.2747 Z-0.129
N4030 X1.4684 Y4.2793 Z-0.1292
N4035 X1.4665 Y4.2838 Z-0.1293
N4040 X1.4643 Y4.2881 Z-0.1295
N4045 X1.4618 Y4.2923 Z-0.1297
N4050 X1.4591 Y4.2964 Z-0.1298
N4055 X1.4561 Y4.3002 Z-0.13
N4060 X1.4529 Y4.3039 Z-0.1302
N4065 X1.4494 Y4.3073 Z-0.1303
N4070 X1.4457 Y4.3104 Z-0.1305
N4075 X1.4418 Y4.3134 Z-0.1307
N4080 X1.4377 Y4.316 Z-0.1309
N4085 X1.4335 Y4.3184 Z-0.131
N4090 X1.4291 Y4.3205 Z-0.1312
N4095 X1.4246 Y4.3224 Z-0.1314
N4100 X1.42 Y4.3239 Z-0.1315
N4105 X1.4153 Y4.3251 Z-0.1317
N4110 X1.4105 Y4.326 Z-0.1319
N4115 X1.4057 Y4.3266 Z-0.132
N4120 X1.4008 Y4.3269 Z-0.1322
N4125 X1.3959 Y4.3268 Z-0.1324
N4130 X1.3911 Y4.3265 Z-0.1326
N4135 X1.3862 Y4.3258 Z-0.1327
N4140 X1.3815 Y4.3248 Z-0.1329
N4145 X1.3768 Y4.3235 Z-0.1331
N4150 X1.3722 Y4.3219 Z-0.1332
N4155 X1.3677 Y4.32 Z-0.1334
N4160 X1.3634 Y4.3178 Z-0.1336
N4165 X1.3592 Y4.3154 Z-0.1337
N4170 X1.3551 Y4.3126 Z-0.1339
N4175 X1.3513 Y4.3096 Z-0.1341
N4180 X1.3477 Y4.3064 Z-0.1343
N4185 X1.3443 Y4.3029 Z-0.1344
N4190 X1.3411 Y4.2992 Z-0.1346
N4195 X1.3381 Y4.2953 Z-0.1348
N4200 X1.3355 Y4.2912 Z-0.1349
N4205 X1.3331 Y4.287 Z-0.1351
N4210 X1.3309 Y4.2826 Z-0.1353
N4215 X1.3291 Y4.2781 Z-0.1354
N4220 X1.3276 Y4.2735 Z-0.1356
N4225 X1.3264 Y4.2688 Z-0.1358
N4230 X1.3255 Y4.264 Z-0.136
N4235 X1.3249 Y4.2592 Z-0.1361
N4240 X1.3246 Y4.2543 Z-0.1363
N4245 Y4.2494 Z-0.1365
N4250 X1.325 Y4.2446 Z-0.1366
N4255 X1.3257 Y4.2398 Z-0.1368
N4260 X1.3267 Y4.235 Z-0.137
N4265 X1.328 Y4.2303 Z-0.1371
N4270 X1.3296 Y4.2257 Z-0.1373
N4275 X1.3315 Y4.2212 Z-0.1375
N4280 X1.3336 Y4.2169 Z-0.1377
N4285 X1.3361 Y4.2127 Z-0.1378
N4290 X1.3389 Y4.2086 Z-0.138
N4295 X1.3419 Y4.2048 Z-0.1382
N4300 X1.3451 Y4.2012 Z-0.1383
N4305 X1.3486 Y4.1978 Z-0.1385
N4310 X1.3523 Y4.1946 Z-0.1387
N4315 X1.3562 Y4.1916 Z-0.1388
N4320 X1.3602 Y4.1889 Z-0.139
N4325 X1.3645 Y4.1866 Z-0.1392
N4330 X1.3689 Y4.1845 Z-0.1394
N4335 X1.3734 Y4.1826 Z-0.1395
N4340 X1.378 Y4.1811 Z-0.1397
N4345 X1.3827 Y4.1799 Z-0.1399
N4350 X1.3875 Y4.179 Z-0.14
N4355 X1.3923 Y4.1784 Z-0.1402
N4360 X1.3972 Y4.1781 Z-0.1404
N4365 X1.4021 Z-0.1405
N4370 X1.4069 Y4.1785 Z-0.1407
N4375 X1.4117 Y4.1792 Z-0.1409
N4380 X1.4165 Y4.1802 Z-0.1411
N4385 X1.4212 Y4.1815 Z-0.1412
N4390 X1.4258 Y4.1831 Z-0.1414
N4395 X1.4303 Y4.1849 Z-0.1416
N4400 X1.4346 Y4.1872 Z-0.1417
N4405 X1.4388 Y4.1896 Z-0.1419
N4410 X1.4428 Y4.1924 Z-0.1421
N4415 X1.4467 Y4.1954 Z-0.1422
N4420 X1.4503 Y4.1986 Z-0.1424
N4425 X1.4537 Y4.2021 Z-0.1426
N4430 X1.4569 Y4.2058 Z-0.1428
N4435 X1.4599 Y4.2097 Z-0.1429
N4440 X1.4625 Y4.2137 Z-0.1431
N4445 X1.4649 Y4.218 Z-0.1433
N4450 X1.467 Y4.2224 Z-0.1434
N4455 X1.4689 Y4.2269 Z-0.1436
N4460 X1.4704 Y4.2315 Z-0.1438
N4465 X1.4716 Y4.2362 Z-0.1439
N4470 X1.4726 Y4.241 Z-0.1441
N4475 X1.4731 Y4.2458 Z-0.1443
N4480 X1.4734 Y4.2507 Z-0.1445
N4485 X1.4733 Y4.2556 Z-0.1446
N4490 X1.473 Y4.2604 Z-0.1448
N4495 X1.4723 Y4.2652 Z-0.145
N4500 X1.4713 Y4.27 Z-0.1451
N4505 X1.4701 Y4.2747 Z-0.1453
N4510 X1.4684 Y4.2793 Z-0.1455
N4515 X1.4665 Y4.2838 Z-0.1456
N4520 X1.4643 Y4.2881 Z-0.1458
N4525 X1.4618 Y4.2923 Z-0.146
N4530 X1.4591 Y4.2964 Z-0.1462
N4535 X1.4561 Y4.3002 Z-0.1463
N4540 X1.4529 Y4.3039 Z-0.1465
N4545 X1.4494 Y4.3073 Z-0.1467
N4550 X1.4457 Y4.3104 Z-0.1468
N4555 X1.4418 Y4.3134 Z-0.147
N4560 X1.4377 Y4.316 Z-0.1472
N4565 X1.4335 Y4.3184 Z-0.1473
N4570 X1.4291 Y4.3205 Z-0.1475
N4575 X1.4246 Y4.3224 Z-0.1477
N4580 X1.42 Y4.3239 Z-0.1479
N4585 X1.4153 Y4.3251 Z-0.148
N4590 X1.4105 Y4.326 Z-0.1482
N4595 X1.4057 Y4.3266 Z-0.1484
N4600 X1.4008 Y4.3269 Z-0.1485
N4605 X1.3959 Y4.3268 Z-0.1487
N4610 X1.3911 Y4.3265 Z-0.1489
N4615 X1.3862 Y4.3258 Z-0.149
N4620 X1.3815 Y4.3248 Z-0.1492
N4625 X1.3768 Y4.3235 Z-0.1494
N4630 X1.3722 Y4.3219 Z-0.1496
N4635 X1.3677 Y4.32 Z-0.1497
N4640 X1.3634 Y4.3178 Z-0.1499
N4645 X1.3592 Y4.3154 Z-0.1501
N4650 X1.3551 Y4.3126 Z-0.1502
N4655 X1.3513 Y4.3096 Z-0.1504
N4660 X1.3477 Y4.3064 Z-0.1506
N4665 X1.3443 Y4.3029 Z-0.1507
N4670 X1.3411 Y4.2992 Z-0.1509
N4675 X1.3381 Y4.2953 Z-0.1511
N4680 X1.3355 Y4.2912 Z-0.1513
N4685 X1.3331 Y4.287 Z-0.1514
N4690 X1.3309 Y4.2826 Z-0.1516
N4695 X1.3291 Y4.2781 Z-0.1518
N4700 X1.3276 Y4.2735 Z-0.1519
N4705 X1.3264 Y4.2688 Z-0.1521
N4710 X1.3255 Y4.264 Z-0.1523
N4715 X1.3249 Y4.2592 Z-0.1524
N4720 X1.3246 Y4.2543 Z-0.1526
N4725 Y4.2494 Z-0.1528
N4730 X1.325 Y4.2446 Z-0.153
N4735 X1.3257 Y4.2398 Z-0.1531
N4740 X1.3267 Y4.235 Z-0.1533
N4745 X1.328 Y4.2303 Z-0.1535
N4750 X1.3296 Y4.2257 Z-0.1536
N4755 X1.3315 Y4.2212 Z-0.1538
N4760 X1.3336 Y4.2169 Z-0.154
N4765 X1.3361 Y4.2127 Z-0.1541
N4770 X1.3389 Y4.2086 Z-0.1543
N4775 X1.3419 Y4.2048 Z-0.1545
N4780 X1.3451 Y4.2012 Z-0.1547
N4785 X1.3486 Y4.1978 Z-0.1548
N4790 X1.3523 Y4.1946 Z-0.155
N4795 X1.3562 Y4.1916 Z-0.1552
N4800 X1.3602 Y4.1889 Z-0.1553
N4805 X1.3645 Y4.1866 Z-0.1555
N4810 X1.3689 Y4.1845 Z-0.1557
N4815 X1.3734 Y4.1826 Z-0.1558
N4820 X1.378 Y4.1811 Z-0.156
N4825 X1.3827 Y4.1799 Z-0.1562
N4830 X1.3875 Y4.179 Z-0.1564
N4835 X1.3923 Y4.1784 Z-0.1565
N4840 X1.3972 Y4.1781 Z-0.1567
N4845 X1.4021 Z-0.1569
N4850 X1.4069 Y4.1785 Z-0.157
N4855 X1.4117 Y4.1792 Z-0.1572
N4860 X1.4156 Y4.1799 Z-0.1573
N4865 X1.4194 Y4.1809 Z-0.1575
N4870 X1.4195
N4875 Y4.181
N4880 Y4.1809
N4885 X1.4198 Y4.181
N4890 X1.4207 Y4.1813
N4895 X1.4243 Y4.1825 Z-0.1577
N4900 X1.4289 Y4.1843 Z-0.1578
N4905 X1.4334 Y4.1865 Z-0.158
N4910 X1.4377 Y4.1889 Z-0.1582
N4915 X1.4418 Y4.1917 Z-0.1583
N4920 X1.4458 Y4.1947 Z-0.1585
N4925 X1.4496 Y4.1979 Z-0.1587
N4930 X1.4532 Y4.2014 Z-0.1589
N4935 X1.4564 Y4.2051 Z-0.159
N4940 X1.4594 Y4.2091 Z-0.1592
N4945 X1.4622 Y4.2132 Z-0.1594
N4950 X1.4647 Y4.2175 Z-0.1596
N4955 X1.4669 Y4.222 Z-0.1597
N4960 X1.4687 Y4.2266 Z-0.1599
N4965 X1.4703 Y4.2313 Z-0.1601
N4970 X1.4716 Y4.2361 Z-0.1603
N4975 X1.4726 Y4.241 Z-0.1604
N4980 X1.4731 Y4.2459 Z-0.1606
N4985 X1.4734 Y4.2509 Z-0.1608
N4990 X1.4733 Y4.2559 Z-0.161
N4995 X1.4729 Y4.2608 Z-0.1611
N5000 X1.4722 Y4.2657 Z-0.1613
N5005 X1.4712 Y4.2706 Z-0.1615
N5010 X1.4698 Y4.2754 Z-0.1616
N5015 X1.4681 Y4.2801 Z-0.1618
N5020 X1.4661 Y4.2847 Z-0.162
N5025 X1.4638 Y4.2891 Z-0.1622
N5030 X1.4612 Y4.2933 Z-0.1623
N5035 X1.4583 Y4.2974 Z-0.1625
N5040 X1.4552 Y4.3012 Z-0.1627
N5045 X1.4518 Y4.3049 Z-0.1629
N5050 X1.4482 Y4.3083 Z-0.163
N5055 X1.4463 Y4.3099 Z-0.1631
N5060 X1.4444 Y4.3114 Z-0.1632
N5065 X1.4403 Y4.3143 Z-0.1634
N5070 X1.4382 Y4.3157 Z-0.1635
N5075 X1.4361 Y4.317 Z-0.1636
N5080 X1.4317 Y4.3193 Z-0.1637
N5085 X1.4295 Y4.3203 Z-0.1638
N5090 X1.4272 Y4.3213 Z-0.1639
N5095 X1.4225 Y4.3231 Z-0.1641
N5100 X1.4202 Y4.3238 Z-0.1642
N5105 X1.4178 Y4.3245
N5110 X1.4129 Y4.3256 Z-0.1644
N5115 X1.4105 Y4.326 Z-0.1645
N5120 X1.408 Y4.3263 Z-0.1646
N5125 X1.4031 Y4.3267 Z-0.1648
N5130 X1.4006 Y4.3268
N5135 X1.3981 Z-0.1649
N5140 X1.3931 Y4.3266 Z-0.1651
N5145 X1.3906 Y4.3264 Z-0.1652
N5150 X1.3882 Y4.326 Z-0.1653
N5155 X1.3833 Y4.3252 Z-0.1655
N5160 X1.3809 Y4.3246
N5165 X1.3785 Y4.3239 Z-0.1656
N5170 X1.3738 Y4.3224 Z-0.1658
N5175 X1.3715 Y4.3215 Z-0.1659
N5180 X1.3692 Y4.3206 Z-0.166
N5185 X1.3647 Y4.3184 Z-0.1661
N5190 X1.3625 Y4.3172 Z-0.1662
N5195 X1.3603 Y4.316 Z-0.1663
N5200 X1.3562 Y4.3132 Z-0.1665
N5205 X1.3542 Y4.3118 Z-0.1666
N5210 X1.3522 Y4.3103 Z-0.1667
N5215 X1.3485 Y4.307 Z-0.1668
N5220 X1.3467 Y4.3053 Z-0.1669
N5225 X1.345 Y4.3035 Z-0.167
N5230 X1.3417 Y4.2998 Z-0.1672
N5235 X1.3401 Y4.2978 Z-0.1673
N5240 X1.3386 Y4.2958 Z-0.1674
N5245 X1.3359 Y4.2917 Z-0.1675
N5250 X1.3346 Y4.2896 Z-0.1676
N5255 X1.3334 Y4.2874 Z-0.1677
N5260 X1.3312 Y4.2829 Z-0.1679
N5265 X1.3303 Y4.2807 Z-0.168
N5270 X1.3294 Y4.2783 Z-0.1681
N5275 X1.3278 Y4.2736 Z-0.1682
N5280 X1.3271 Y4.2713 Z-0.1683
N5285 X1.3265 Y4.2688 Z-0.1684
N5290 X1.3256 Y4.264 Z-0.1686
N5295 X1.3253 Y4.2615 Z-0.1687
N5300 X1.325 Y4.259
N5305 X1.3248 Y4.2541 Z-0.1689
N5310 Y4.2516 Z-0.169
N5315 Y4.2491 Z-0.1691
N5320 X1.3252 Y4.2442 Z-0.1693
N5325 X1.3255 Y4.2417
N5330 X1.3259 Y4.2393 Z-0.1694
N5335 X1.327 Y4.2344 Z-0.1696
N5340 X1.3284 Y4.2296 Z-0.1698
N5345 X1.3292 Y4.2273 Z-0.1699
N5350 X1.3301 Y4.225 Z-0.17
N5355 X1.332 Y4.2204 Z-0.1701
N5360 X1.3332 Y4.2182 Z-0.1702
N5365 X1.3344 Y4.216 Z-0.1703
N5370 X1.3369 Y4.2118 Z-0.1705
N5375 X1.3383 Y4.2097 Z-0.1706
N5380 X1.3398 Y4.2077
N5385 X1.3429 Y4.2039 Z-0.1708
N5390 X1.3446 Y4.2021 Z-0.1709
N5395 X1.3463 Y4.2003 Z-0.171
N5400 X1.3499 Y4.1969 Z-0.1712
N5405 X1.3518 Y4.1953
N5410 X1.3537 Y4.1937 Z-0.1713
N5415 X1.3577 Y4.1908 Z-0.1715
N5420 X1.3598 Y4.1895 Z-0.1716
N5425 X1.362 Y4.1882 Z-0.1717
N5430 X1.3664 Y4.1859 Z-0.1719
N5435 X1.3686 Y4.1849
N5440 X1.3709 Y4.1839 Z-0.172
N5445 X1.3755 Y4.1822 Z-0.1722
N5450 X1.3779 Y4.1814 Z-0.1723
N5455 X1.3803 Y4.1808 Z-0.1724
N5460 X1.3851 Y4.1797 Z-0.1725
N5465 X1.3875 Y4.1793 Z-0.1726
N5470 X1.39 Y4.1789 Z-0.1727
N5475 X1.3949 Y4.1785 Z-0.1729
N5480 X1.3974 Y4.1784 Z-0.173
N5485 X1.3999 Z-0.1731
N5490 X1.4048 Y4.1786 Z-0.1732
N5495 X1.4073 Y4.1789 Z-0.1733
N5500 X1.4098 Y4.1792 Z-0.1734
N5505 X1.4146 Y4.1801 Z-0.1736
N5510 X1.417 Y4.1806 Z-0.1737
N5515 X1.4194 Y4.1813
N5520 X1.4241 Y4.1828 Z-0.1739
N5525 X1.4265 Y4.1837 Z-0.174
N5530 X1.4287 Y4.1847 Z-0.1741
N5535 X1.4332 Y4.1868 Z-0.1743
N5540 X1.4354 Y4.188 Z-0.1744
N5545 X1.4375 Y4.1892
N5550 X1.4416 Y4.192 Z-0.1746
N5555 X1.4436 Y4.1934 Z-0.1747
N5560 X1.4456 Y4.1949 Z-0.1748
N5565 X1.4493 Y4.1982 Z-0.175
N5570 X1.4511 Y4.1999
N5575 X1.4528 Y4.2017 Z-0.1751
N5580 X1.4561 Y4.2054 Z-0.1753
N5585 X1.4576 Y4.2073 Z-0.1754
N5590 X1.4591 Y4.2093 Z-0.1755
N5595 X1.4619 Y4.2134 Z-0.1756
N5600 X1.4631 Y4.2156 Z-0.1757
N5605 X1.4643 Y4.2177 Z-0.1758
N5610 X1.4665 Y4.2222 Z-0.176
N5615 X1.4675 Y4.2244 Z-0.1761
N5620 X1.4684 Y4.2267 Z-0.1762
N5625 X1.4699 Y4.2314 Z-0.1763
N5630 X1.4706 Y4.2338 Z-0.1764
N5635 X1.4712 Y4.2362 Z-0.1765
N5640 X1.4721 Y4.2411 Z-0.1767
N5645 X1.4724 Y4.2435 Z-0.1768
N5650 X1.4727 Y4.246 Z-0.1769
N5655 X1.473 Y4.2509 Z-0.177
N5660 X1.4729 Y4.2559 Z-0.1772
N5665 X1.4724 Y4.2608 Z-0.1774
N5670 X1.4717 Y4.2656 Z-0.1775
N5675 X1.4707 Y4.2705 Z-0.1777
N5680 X1.4693 Y4.2752 Z-0.1779
N5685 X1.4676 Y4.2799 Z-0.1781
N5690 X1.4656 Y4.2844 Z-0.1782
N5695 X1.4633 Y4.2888 Z-0.1784
N5700 X1.4608 Y4.293 Z-0.1786
N5705 X1.4594 Y4.2951 Z-0.1787
N5710 X1.4579 Y4.2971
N5715 X1.4548 Y4.3009 Z-0.1789
N5720 X1.4532 Y4.3027 Z-0.179
N5725 X1.4515 Y4.3045 Z-0.1791
N5730 X1.4479 Y4.3079 Z-0.1793
N5735 X1.446 Y4.3095
N5740 X1.4441 Y4.311 Z-0.1794
N5745 X1.4401 Y4.3139 Z-0.1796
N5750 X1.438 Y4.3152 Z-0.1797
N5755 X1.4358 Y4.3165 Z-0.1798
N5760 X1.4315 Y4.3188 Z-0.18
N5765 X1.4293 Y4.3198
N5770 X1.427 Y4.3208 Z-0.1801
N5775 X1.4224 Y4.3225 Z-0.1803
N5780 X1.42 Y4.3233 Z-0.1804
N5785 X1.4176 Y4.3239 Z-0.1805
N5790 X1.4128 Y4.325 Z-0.1806
N5795 X1.4104 Y4.3254 Z-0.1807
N5800 X1.4079 Y4.3258 Z-0.1808
N5805 X1.403 Y4.3262 Z-0.181
N5810 X1.4006 Y4.3263 Z-0.1811
N5815 X1.3981 Z-0.1812
N5820 X1.3932 Y4.3261 Z-0.1813
N5825 X1.3907 Y4.3258 Z-0.1814
N5830 X1.3883 Y4.3255 Z-0.1815
N5835 X1.3834 Y4.3246 Z-0.1817
N5840 X1.381 Y4.324 Z-0.1818
N5845 X1.3786 Y4.3234
N5850 X1.374 Y4.3219 Z-0.182
N5855 X1.3717 Y4.321 Z-0.1821
N5860 X1.3694 Y4.32 Z-0.1822
N5865 X1.3649 Y4.3179 Z-0.1824
N5870 X1.3628 Y4.3167
N5875 X1.3606 Y4.3155 Z-0.1825
N5880 X1.3565 Y4.3128 Z-0.1827
N5885 X1.3545 Y4.3113 Z-0.1828
N5890 X1.3526 Y4.3098 Z-0.1829
N5895 X1.3489 Y4.3066 Z-0.183
N5900 X1.3471 Y4.3049 Z-0.1831
N5905 X1.3454 Y4.3031 Z-0.1832
N5910 X1.3421 Y4.2994 Z-0.1834
N5915 X1.3406 Y4.2975 Z-0.1835
N5920 X1.3391 Y4.2955 Z-0.1836
N5925 X1.3364 Y4.2914 Z-0.1837
N5930 X1.3351 Y4.2893 Z-0.1838
N5935 X1.3339 Y4.2871 Z-0.1839
N5940 X1.3318 Y4.2827 Z-0.1841
N5945 X1.3308 Y4.2804 Z-0.1842
N5950 X1.3299 Y4.2781
N5955 X1.3284 Y4.2735 Z-0.1844
N5960 X1.3277 Y4.2711 Z-0.1845
N5965 X1.3271 Y4.2687 Z-0.1846
N5970 X1.3262 Y4.2639 Z-0.1848
N5975 X1.3259 Y4.2614
N5980 X1.3256 Y4.259 Z-0.1849
N5985 X1.3254 Y4.2541 Z-0.1851
N5990 Y4.2516 Z-0.1852
N5995 Y4.2491 Z-0.1853
N6000 X1.3258 Y4.2442 Z-0.1854
N6005 X1.3262 Y4.2418 Z-0.1855
N6010 X1.3266 Y4.2394 Z-0.1856
N6015 X1.3276 Y4.2346 Z-0.1858
N6020 X1.329 Y4.2298 Z-0.186
N6025 X1.3298 Y4.2275 Z-0.1861
N6030 X1.3307 Y4.2252
N6035 X1.3326 Y4.2207 Z-0.1863
N6040 X1.3337 Y4.2185 Z-0.1864
N6045 X1.3349 Y4.2164 Z-0.1865
N6050 X1.3375 Y4.2122 Z-0.1867
N6055 X1.3389 Y4.2101
N6060 X1.3403 Y4.2081 Z-0.1868
N6065 X1.3434 Y4.2043 Z-0.187
N6070 X1.3451 Y4.2025 Z-0.1871
N6075 X1.3468 Y4.2007 Z-0.1872
N6080 X1.3503 Y4.1974 Z-0.1873
N6085 X1.3522 Y4.1958 Z-0.1874
N6090 X1.3541 Y4.1942 Z-0.1875
N6095 X1.3581 Y4.1914 Z-0.1877
N6100 X1.3602 Y4.1901 Z-0.1878
N6105 X1.3623 Y4.1888 Z-0.1879
N6110 X1.3666 Y4.1865 Z-0.188
N6115 X1.3689 Y4.1854 Z-0.1881
N6120 X1.3711 Y4.1845 Z-0.1882
N6125 X1.3757 Y4.1828 Z-0.1884
N6130 X1.3781 Y4.182 Z-0.1885
N6135 X1.3804 Y4.1814
N6140 X1.3852 Y4.1803 Z-0.1887
N6145 X1.3877 Y4.1799 Z-0.1888
N6150 X1.3901 Y4.1796 Z-0.1889
N6155 X1.395 Y4.1791 Z-0.1891
N6160 X1.3974 Y4.179
N6165 X1.3999 Z-0.1892
N6170 X1.4048 Y4.1793 Z-0.1894
N6175 X1.4072 Y4.1795 Z-0.1895
N6180 X1.4097 Y4.1798 Z-0.1896
N6185 X1.4145 Y4.1807 Z-0.1897
N6190 X1.4169 Y4.1813 Z-0.1898
N6195 X1.4193 Y4.1819 Z-0.1899
N6200 X1.4239 Y4.1834 Z-0.1901
N6205 X1.4262 Y4.1843 Z-0.1902
N6210 X1.4285 Y4.1852
N6215 X1.4329 Y4.1874 Z-0.1904
N6220 X1.4351 Y4.1885 Z-0.1905
N6225 X1.4372 Y4.1898 Z-0.1906
N6230 X1.4413 Y4.1925 Z-0.1908
N6235 X1.4433 Y4.1939
N6240 X1.4452 Y4.1954 Z-0.1909
N6245 X1.4489 Y4.1987 Z-0.1911
N6250 X1.4507 Y4.2004 Z-0.1912
N6255 X1.4524 Y4.2021 Z-0.1913
N6260 X1.4556 Y4.2058 Z-0.1914
N6265 X1.4571 Y4.2077 Z-0.1915
N6270 X1.4586 Y4.2097 Z-0.1916
N6275 X1.4613 Y4.2138 Z-0.1918
N6280 X1.4626 Y4.2159 Z-0.1919
N6285 X1.4638 Y4.218 Z-0.192
N6290 X1.4659 Y4.2224 Z-0.1921
N6295 X1.4669 Y4.2247 Z-0.1922
N6300 X1.4678 Y4.227 Z-0.1923
N6305 X1.4693 Y4.2316 Z-0.1925
N6310 X1.47 Y4.234 Z-0.1926
N6315 X1.4706 Y4.2364
N6320 X1.4714 Y4.2412 Z-0.1928
N6325 X1.4718 Y4.2436 Z-0.1929
N6330 X1.4721 Y4.246 Z-0.193
N6335 X1.4723 Y4.2509 Z-0.1932
N6340 X1.4722 Y4.2558 Z-0.1933
N6345 X1.4718 Y4.2607 Z-0.1935
N6350 X1.4711 Y4.2656 Z-0.1937
N6355 X1.47 Y4.2703 Z-0.1938
N6360 X1.4687 Y4.275 Z-0.194
N6365 X1.467 Y4.2797 Z-0.1942
N6370 X1.465 Y4.2841 Z-0.1944
N6375 X1.4628 Y4.2885 Z-0.1945
N6380 X1.4603 Y4.2927 Z-0.1947
N6385 X1.4589 Y4.2947 Z-0.1948
N6390 X1.4574 Y4.2967 Z-0.1949
N6395 X1.4544 Y4.3005 Z-0.195
N6400 X1.4527 Y4.3023 Z-0.1951
N6405 X1.451 Y4.3041 Z-0.1952
N6410 X1.4475 Y4.3074 Z-0.1954
N6415 X1.4456 Y4.309 Z-0.1955
N6420 X1.4437 Y4.3105 Z-0.1956
N6425 X1.4397 Y4.3134 Z-0.1957
N6430 X1.4376 Y4.3147 Z-0.1958
N6435 X1.4355 Y4.3159 Z-0.1959
N6440 X1.4312 Y4.3182 Z-0.1961
N6445 X1.429 Y4.3193 Z-0.1962
N6450 X1.4267 Y4.3202
N6455 X1.4222 Y4.3219 Z-0.1964
N6460 X1.4198 Y4.3227 Z-0.1965
N6465 X1.4175 Y4.3233 Z-0.1966
N6470 X1.4127 Y4.3244 Z-0.1967
N6475 X1.4098 Y4.3249 Z-0.1968
N6480 X1.4096 Z-0.1969
N6485 X1.409 Y4.325
N6490 X1.4084 Y4.3251
N6495 X1.4072 Y4.3252
N6500 X1.4047 Y4.3254 Z-0.197
N6505 X1.3997 Y4.3257 Z-0.1972
N6510 X1.3972 Y4.3256 Z-0.1973
N6515 X1.3947 Y4.3255 Z-0.1974
N6520 X1.3897 Y4.3251 Z-0.1975
N6525 X1.3873 Y4.3247 Z-0.1976
N6530 X1.3848 Y4.3242 Z-0.1977
N6535 X1.38 Y4.3231 Z-0.1979
N6540 X1.3776 Y4.3224 Z-0.198
N6545 X1.3752 Y4.3216 Z-0.1981
N6550 X1.3705 Y4.3198 Z-0.1982
N6555 X1.3682 Y4.3188 Z-0.1983
N6560 X1.366 Y4.3177 Z-0.1984
N6565 X1.3638 Y4.3166 Z-0.1985
N6570 X1.3616 Y4.3153 Z-0.1986
N6575 X1.3574 Y4.3126 Z-0.1988
N6580 X1.3554 Y4.3112 Z-0.1989
N6585 X1.3534 Y4.3097
N6590 X1.3496 Y4.3064 Z-0.1991
N6595 X1.3478 Y4.3047 Z-0.1992
N6600 X1.3461 Y4.3029 Z-0.1993
N6605 X1.3428 Y4.2991 Z-0.1995
N6610 X1.3412 Y4.2972 Z-0.1996
N6615 X1.3397 Y4.2952
N6620 X1.3369 Y4.291 Z-0.1998
N6625 X1.3357 Y4.2889 Z-0.1999
N6630 X1.3344 Y4.2867 Z-0.2
N6635 X1.3323 Y4.2822 Z-0.2002
N6640 X1.3313 Y4.2799
N6645 X1.3304 Y4.2776 Z-0.2003
N6650 X1.3289 Y4.2729 Z-0.2005
N6655 X1.3282 Y4.2705 Z-0.2006
N6660 X1.3277 Y4.268 Z-0.2007
N6665 X1.3268 Y4.2632 Z-0.2009
N6670 X1.3265 Y4.2607
N6675 X1.3262 Y4.2582 Z-0.201
N6680 X1.326 Y4.2532 Z-0.2012
N6685 Y4.2507 Z-0.2013
N6690 X1.3261 Y4.2482 Z-0.2014
N6695 X1.3266 Y4.2433 Z-0.2016
N6700 X1.327 Y4.2408
N6705 X1.3274 Y4.2383 Z-0.2017
N6710 X1.3285 Y4.2335 Z-0.2019
N6715 X1.3292 Y4.2311 Z-0.202
N6720 X1.33 Y4.2287 Z-0.2021
N6725 X1.3318 Y4.2241 Z-0.2022
N6730 X1.3328 Y4.2218 Z-0.2023
N6735 X1.3339 Y4.2196 Z-0.2024
N6740 X1.3363 Y4.2152 Z-0.2026
N6745 X1.3376 Y4.2131 Z-0.2027
N6750 X1.339 Y4.211 Z-0.2028
N6755 X1.3405 Y4.209 Z-0.2029
N6760 X1.342 Y4.207
N6765 X1.3452 Y4.2032 Z-0.2031
N6770 X1.347 Y4.2014 Z-0.2032
N6775 X1.3487 Y4.1997 Z-0.2033
N6780 X1.3524 Y4.1964 Z-0.2035
N6785 X1.3544 Y4.1948 Z-0.2036
N6790 X1.3564 Y4.1934
N6795 X1.3605 Y4.1906 Z-0.2038
N6800 X1.3627 Y4.1893 Z-0.2039
N6805 X1.3648 Y4.1881 Z-0.204
N6810 X1.3693 Y4.1859 Z-0.2042
N6815 X1.3716 Y4.185
N6820 X1.3739 Y4.1841 Z-0.2043
N6825 X1.3786 Y4.1825 Z-0.2045
N6830 X1.381 Y4.1819 Z-0.2046
N6835 X1.3835 Y4.1813 Z-0.2047
N6840 X1.3884 Y4.1804 Z-0.2049
N6845 X1.3909 Y4.1801
N6850 X1.3933 Y4.1799 Z-0.205
N6855 X1.3983 Y4.1797 Z-0.2052
N6860 X1.4008 Z-0.2053
N6865 X1.4033 Y4.1798 Z-0.2054
N6870 X1.4082 Y4.1803 Z-0.2055
N6875 X1.4107 Y4.1806 Z-0.2056
N6880 X1.4131 Y4.1811 Z-0.2057
N6885 X1.4179 Y4.1822 Z-0.2059
N6890 X1.4203 Y4.1829 Z-0.206
N6895 X1.4227 Y4.1837 Z-0.2061
N6900 X1.4274 Y4.1854 Z-0.2062
N6905 X1.4296 Y4.1865 Z-0.2063
N6910 X1.4319 Y4.1876 Z-0.2064
N6915 X1.4362 Y4.1899 Z-0.2066
N6920 X1.4383 Y4.1913 Z-0.2067
N6925 X1.4404 Y4.1926 Z-0.2068
N6930 X1.4444 Y4.1956 Z-0.2069
N6935 X1.4463 Y4.1972 Z-0.207
N6940 X1.4481 Y4.1988 Z-0.2071
N6945 X1.4499 Y4.2005 Z-0.2072
N6950 X1.4517 Y4.2023 Z-0.2073
N6955 X1.455 Y4.206 Z-0.2075
N6960 X1.4565 Y4.208
N6965 X1.458 Y4.21 Z-0.2076
N6970 X1.4608 Y4.2141 Z-0.2078
N6975 X1.462 Y4.2162 Z-0.2079
N6980 X1.4632 Y4.2184 Z-0.208
N6985 X1.4654 Y4.2229 Z-0.2081
N6990 X1.4664 Y4.2252 Z-0.2082
N6995 X1.4673 Y4.2275 Z-0.2083
N7000 X1.4688 Y4.2322 Z-0.2085
N7005 X1.4695 Y4.2346 Z-0.2086
N7010 X1.47 Y4.237 Z-0.2087
N7015 X1.4709 Y4.2419 Z-0.2088
N7020 X1.4712 Y4.2443 Z-0.2089
N7025 X1.4715 Y4.2468 Z-0.209
N7030 X1.4717 Y4.2518 Z-0.2092
N7035 X1.4715 Y4.2568 Z-0.2094
N7040 X1.4711 Y4.2617 Z-0.2095
N7045 X1.4703 Y4.2665 Z-0.2097
N7050 X1.4691 Y4.2714 Z-0.2099
N7055 X1.4677 Y4.2761 Z-0.2101
N7060 X1.4659 Y4.2808 Z-0.2102
N7065 X1.4638 Y4.2853 Z-0.2104
N7070 X1.4614 Y4.2896 Z-0.2106
N7075 X1.4601 Y4.2918 Z-0.2107
N7080 X1.4587 Y4.2938
N7085 X1.4573 Y4.2958 Z-0.2108
N7090 X1.4558 Y4.2978 Z-0.2109
N7095 X1.4525 Y4.3016 Z-0.2111
N7100 X1.4508 Y4.3034 Z-0.2112
N7105 X1.4491 Y4.3051 Z-0.2113
N7110 X1.4454 Y4.3084 Z-0.2114
N7115 X1.4434 Y4.3099 Z-0.2115
N7120 X1.4414 Y4.3114 Z-0.2116
N7125 X1.4373 Y4.3141 Z-0.2118
N7130 X1.4352 Y4.3154 Z-0.2119
N7135 X1.433 Y4.3166 Z-0.212
N7140 X1.4286 Y4.3188 Z-0.2121
N7145 X1.4263 Y4.3197 Z-0.2122
N7150 X1.424 Y4.3206 Z-0.2123
N7155 X1.4193 Y4.3222 Z-0.2125
N7160 X1.4169 Y4.3228 Z-0.2126
N7165 X1.4145 Y4.3234
N7170 X1.4096 Y4.3243 Z-0.2128
N7175 X1.4071 Y4.3246 Z-0.2129
N7180 X1.4046 Y4.3248 Z-0.213
N7185 X1.3997 Y4.325 Z-0.2132
N7190 X1.3972
N7195 X1.3947 Y4.3249 Z-0.2133
N7200 X1.3898 Y4.3244 Z-0.2135
N7205 X1.3874 Y4.3241 Z-0.2136
N7210 X1.3849 Y4.3236 Z-0.2137
N7215 X1.3801 Y4.3225 Z-0.2139
N7220 X1.3777 Y4.3218
N7225 X1.3754 Y4.321 Z-0.214
N7230 X1.3708 Y4.3192 Z-0.2142
N7235 X1.3685 Y4.3182 Z-0.2143
N7240 X1.3663 Y4.3171 Z-0.2144
N7245 X1.3641 Y4.316 Z-0.2145
N7250 X1.3619 Y4.3148
N7255 X1.3578 Y4.3121 Z-0.2147
N7260 X1.3558 Y4.3106 Z-0.2148
N7265 X1.3538 Y4.3091 Z-0.2149
N7270 X1.3501 Y4.3059 Z-0.2151
N7275 X1.3483 Y4.3042
N7280 X1.3466 Y4.3024 Z-0.2152
N7285 X1.3433 Y4.2987 Z-0.2154
N7290 X1.3417 Y4.2968 Z-0.2155
N7295 X1.3403 Y4.2948 Z-0.2156
N7300 X1.3375 Y4.2907 Z-0.2158
N7305 X1.3363 Y4.2886
N7310 X1.3351 Y4.2864 Z-0.2159
N7315 X1.3329 Y4.2819 Z-0.2161
N7320 X1.3319 Y4.2797 Z-0.2162
N7325 X1.3311 Y4.2774 Z-0.2163
N7330 X1.3295 Y4.2727 Z-0.2164
N7335 X1.3289 Y4.2703 Z-0.2165
N7340 X1.3283 Y4.2679 Z-0.2166
N7345 X1.3275 Y4.2631 Z-0.2168
N7350 X1.3271 Y4.2606 Z-0.2169
N7355 X1.3269 Y4.2582 Z-0.217
N7360 X1.3267 Y4.2532 Z-0.2171
N7365 Y4.2507 Z-0.2172
N7370 X1.3268 Y4.2483 Z-0.2173
N7375 X1.3273 Y4.2433 Z-0.2175
N7380 X1.3277 Y4.2409 Z-0.2176
N7385 X1.3281 Y4.2385
N7390 X1.3292 Y4.2337 Z-0.2178
N7395 X1.3299 Y4.2313 Z-0.2179
N7400 X1.3307 Y4.229 Z-0.218
N7405 X1.3325 Y4.2244 Z-0.2182
N7410 X1.3335 Y4.2221
N7415 X1.3345 Y4.2199 Z-0.2183
N7420 X1.3369 Y4.2156 Z-0.2185
N7425 X1.3382 Y4.2135 Z-0.2186
N7430 X1.3396 Y4.2114 Z-0.2187
N7435 X1.341 Y4.2094 Z-0.2188
N7440 X1.3425 Y4.2075
N7445 X1.3458 Y4.2037 Z-0.219
N7450 X1.3475 Y4.2019 Z-0.2191
N7455 X1.3492 Y4.2002 Z-0.2192
N7460 X1.3529 Y4.197 Z-0.2194
N7465 X1.3548 Y4.1954 Z-0.2195
N7470 X1.3568 Y4.1939
N7475 X1.3609 Y4.1912 Z-0.2197
N7480 X1.363 Y4.19 Z-0.2198
N7485 X1.3652 Y4.1888 Z-0.2199
N7490 X1.3696 Y4.1866 Z-0.2201
N7495 X1.3719 Y4.1857
N7500 X1.3742 Y4.1848 Z-0.2202
N7505 X1.3789 Y4.1832 Z-0.2204
N7510 X1.3812 Y4.1826 Z-0.2205
N7515 X1.3836 Y4.182 Z-0.2206
N7520 X1.3885 Y4.1812 Z-0.2207
N7525 X1.3909 Y4.1809 Z-0.2208
N7530 X1.3934 Y4.1806 Z-0.2209
N7535 X1.3983 Y4.1804 Z-0.2211
N7540 X1.4008 Z-0.2212
N7545 X1.4032 Y4.1805 Z-0.2213
N7550 X1.4081 Y4.181 Z-0.2214
N7555 X1.4106 Y4.1814 Z-0.2215
N7560 X1.413 Y4.1818 Z-0.2216
N7565 X1.4178 Y4.1829 Z-0.2218
N7570 X1.4201 Y4.1836 Z-0.2219
N7575 X1.4225 Y4.1844
N7580 X1.4271 Y4.1861 Z-0.2221
N7585 X1.4293 Y4.1872 Z-0.2222
N7590 X1.4315 Y4.1882 Z-0.2223
N7595 X1.4358 Y4.1906 Z-0.2225
N7600 X1.4379 Y4.1919
N7605 X1.4399 Y4.1933 Z-0.2226
N7610 X1.4419 Y4.1947 Z-0.2227
N7615 X1.4439 Y4.1962 Z-0.2228
N7620 X1.4476 Y4.1994 Z-0.223
N7625 X1.4494 Y4.2011 Z-0.2231
N7630 X1.4511 Y4.2029
N7635 X1.4544 Y4.2065 Z-0.2233
N7640 X1.4559 Y4.2085 Z-0.2234
N7645 X1.4574 Y4.2104 Z-0.2235
N7650 X1.4601 Y4.2145 Z-0.2237
N7655 X1.4614 Y4.2166
N7660 X1.4625 Y4.2188 Z-0.2238
N7665 X1.4647 Y4.2232 Z-0.224
N7670 X1.4656 Y4.2255 Z-0.2241
N7675 X1.4665 Y4.2278 Z-0.2242
N7680 X1.468 Y4.2324 Z-0.2243
N7685 X1.4687 Y4.2348 Z-0.2244
N7690 X1.4692 Y4.2372 Z-0.2245
N7695 X1.4701 Y4.242 Z-0.2247
N7700 X1.4704 Y4.2444 Z-0.2248
N7705 X1.4707 Y4.2469 Z-0.2249
N7710 X1.4709 Y4.2518 Z-0.225
N7715 X1.4707 Y4.2567 Z-0.2252
N7720 X1.4703 Y4.2616 Z-0.2254
N7725 X1.4695 Y4.2664 Z-0.2255
N7730 X1.4683 Y4.2712 Z-0.2257
N7735 X1.4669 Y4.2759 Z-0.2259
N7740 X1.4651 Y4.2805 Z-0.2261
N7745 X1.4631 Y4.2849 Z-0.2262
N7750 X1.4607 Y4.2892 Z-0.2264
N7755 X1.4594 Y4.2913 Z-0.2265
N7760 X1.458 Y4.2933 Z-0.2266
N7765 X1.4566 Y4.2953 Z-0.2267
N7770 X1.4551 Y4.2973
N7775 X1.4519 Y4.301 Z-0.2269
N7780 X1.4502 Y4.3028 Z-0.227
N7785 X1.4485 Y4.3045 Z-0.2271
N7790 X1.4448 Y4.3077 Z-0.2273
N7795 X1.4429 Y4.3092
N7800 X1.4409 Y4.3107 Z-0.2274
N7805 X1.4369 Y4.3134 Z-0.2276
N7810 X1.4348 Y4.3147 Z-0.2277
N7815 X1.4326 Y4.3159 Z-0.2278
N7820 X1.4282 Y4.318 Z-0.2279
N7825 X1.426 Y4.3189 Z-0.228
N7830 X1.4237 Y4.3198 Z-0.2281
N7835 X1.419 Y4.3213 Z-0.2283
N7840 X1.4167 Y4.322 Z-0.2284
N7845 X1.4143 Y4.3225
N7850 X1.4094 Y4.3234 Z-0.2286
N7855 X1.407 Y4.3237 Z-0.2287
N7860 X1.4046 Y4.3239 Z-0.2288
N7865 X1.3997 Y4.3242 Z-0.229
N7870 X1.3972 Y4.3241
N7875 X1.3948 Y4.324 Z-0.2291
N7880 X1.3899 Y4.3236 Z-0.2293
N7885 X1.3875 Y4.3232 Z-0.2294
N7890 X1.3851 Y4.3228 Z-0.2295
N7895 X1.3803 Y4.3217 Z-0.2296
N7900 X1.378 Y4.321 Z-0.2297
N7905 X1.3757 Y4.3202 Z-0.2298
N7910 X1.3711 Y4.3185 Z-0.23
N7915 X1.3689 Y4.3174 Z-0.2301
N7920 X1.3667 Y4.3164 Z-0.2302
N7925 X1.3624 Y4.314 Z-0.2303
N7930 X1.3603 Y4.3127 Z-0.2304
N7935 X1.3583 Y4.3114 Z-0.2305
N7940 X1.3563 Y4.3099 Z-0.2306
N7945 X1.3544 Y4.3085 Z-0.2307
N7950 X1.3507 Y4.3053 Z-0.2308
N7955 X1.3489 Y4.3036 Z-0.2309
N7960 X1.3472 Y4.3018 Z-0.231
N7965 X1.3439 Y4.2982 Z-0.2312
N7970 X1.3424 Y4.2963 Z-0.2313
N7975 X1.341 Y4.2943
N7980 X1.3383 Y4.2902 Z-0.2315
N7985 X1.337 Y4.2881 Z-0.2316
N7990 X1.3358 Y4.286 Z-0.2317
N7995 X1.3337 Y4.2816 Z-0.2319
N8000 X1.3328 Y4.2794
N8005 X1.3319 Y4.2771 Z-0.232
N8010 X1.3304 Y4.2724 Z-0.2322
N8015 X1.3297 Y4.2701 Z-0.2323
N8020 X1.3292 Y4.2677 Z-0.2324
N8025 X1.3283 Y4.2629 Z-0.2325
N8030 X1.328 Y4.2605 Z-0.2326
N8035 X1.3278 Y4.2581 Z-0.2327
N8040 X1.3276 Y4.2532 Z-0.2329
N8045 Y4.2508 Z-0.233
N8050 X1.3277 Y4.2483 Z-0.2331
N8055 X1.3281 Y4.2435 Z-0.2332
N8060 X1.3285 Y4.241 Z-0.2333
N8065 X1.3289 Y4.2386 Z-0.2334
N8070 X1.3301 Y4.2339 Z-0.2336
N8075 X1.3307 Y4.2316
N8080 X1.3315 Y4.2292 Z-0.2337
N8085 X1.3332 Y4.2247 Z-0.2339
N8090 X1.3342 Y4.2225 Z-0.234
N8095 X1.3353 Y4.2203 Z-0.2341
N8100 X1.3377 Y4.216 Z-0.2342
N8105 X1.339 Y4.2139 Z-0.2343
N8110 X1.3403 Y4.2119 Z-0.2344
N8115 X1.3417 Y4.2099 Z-0.2345
N8120 X1.3432 Y4.208 Z-0.2346
N8125 X1.3464 Y4.2043 Z-0.2348
N8130 X1.3481 Y4.2026
N8135 X1.3498 Y4.2008 Z-0.2349
N8140 X1.3535 Y4.1976 Z-0.2351
N8145 X1.3554 Y4.1961 Z-0.2352
N8150 X1.3573 Y4.1946 Z-0.2353
N8155 X1.3614 Y4.1919 Z-0.2354
N8160 X1.3635 Y4.1907 Z-0.2355
N8165 X1.3656 Y4.1895 Z-0.2356
N8170 X1.37 Y4.1874 Z-0.2358
N8175 X1.3722 Y4.1865 Z-0.2359
N8180 X1.3745 Y4.1856
N8185 X1.3791 Y4.1841 Z-0.2361
N8190 X1.3821 Y4.1833 Z-0.2362
N8195 X1.3823 Y4.1832
N8200 X1.3829 Y4.1831
N8205 X1.3835 Y4.1829 Z-0.2363
N8210 X1.3847 Y4.1827
N8215 X1.3872 Y4.1822 Z-0.2364
N8220 X1.3922 Y4.1816 Z-0.2366
N8225 X1.3948 Y4.1814 Z-0.2367
N8230 X1.3973 Y4.1813 Z-0.2368
N8235 X1.3999
N8240 X1.4024 Y4.1814 Z-0.2369
N8245 X1.4075 Y4.1818 Z-0.2371
N8250 X1.41 Y4.1822 Z-0.2372
N8255 X1.4125 Y4.1826 Z-0.2373
N8260 X1.4174 Y4.1837 Z-0.2375
N8265 X1.4199 Y4.1845 Z-0.2376
N8270 X1.4223 Y4.1853
N8275 X1.4247 Y4.1861 Z-0.2377
N8280 X1.4271 Y4.1871 Z-0.2378
N8285 X1.4316 Y4.1893 Z-0.238
N8290 X1.4339 Y4.1905 Z-0.2381
N8295 X1.4361 Y4.1918 Z-0.2382
N8300 X1.4403 Y4.1946 Z-0.2383
N8305 X1.4423 Y4.1961 Z-0.2384
N8310 X1.4443 Y4.1977 Z-0.2385
N8315 X1.4481 Y4.2011 Z-0.2387
N8320 X1.4499 Y4.2029 Z-0.2388
N8325 X1.4516 Y4.2047 Z-0.2389
N8330 X1.4533 Y4.2066 Z-0.239
N8335 X1.4549 Y4.2085 Z-0.2391
N8340 X1.4579 Y4.2127 Z-0.2392
N8345 X1.4593 Y4.2148 Z-0.2393
N8350 X1.4606 Y4.217 Z-0.2394
N8355 X1.4629 Y4.2214 Z-0.2396
N8360 X1.464 Y4.2237 Z-0.2397
N8365 X1.465 Y4.2261 Z-0.2398
N8370 X1.4659 Y4.2285 Z-0.2399
N8375 X1.4667 Y4.2309
N8380 X1.468 Y4.2358 Z-0.2401
N8385 X1.4686 Y4.2383 Z-0.2402
N8390 X1.4691 Y4.2408 Z-0.2403
N8395 X1.4697 Y4.2458 Z-0.2405
N8400 X1.47 Y4.2509 Z-0.2407
N8405 X1.4699 Y4.256 Z-0.2408
N8410 X1.4695 Y4.261 Z-0.241
N8415 X1.4687 Y4.2659 Z-0.2412
N8420 X1.4675 Y4.2709 Z-0.2414
N8425 X1.466 Y4.2757 Z-0.2415
N8430 X1.4651 Y4.2781 Z-0.2416
N8435 X1.4642 Y4.2805 Z-0.2417
N8440 X1.462 Y4.2851 Z-0.2419
N8445 X1.4595 Y4.2895 Z-0.2421
N8450 X1.4567 Y4.2937 Z-0.2422
N8455 X1.4552 Y4.2957 Z-0.2423
N8460 X1.4536 Y4.2977 Z-0.2424
N8465 X1.452 Y4.2996 Z-0.2425
N8470 X1.4503 Y4.3015 Z-0.2426
N8475 X1.4467 Y4.305 Z-0.2428
N8480 X1.4448 Y4.3066 Z-0.2429
N8485 X1.4428 Y4.3082
N8490 X1.4387 Y4.3112 Z-0.2431
N8495 X1.4366 Y4.3126 Z-0.2432
N8500 X1.4344 Y4.3139 Z-0.2433
N8505 X1.43 Y4.3163 Z-0.2435
N8510 X1.4277 Y4.3173 Z-0.2436
N8515 X1.4253 Y4.3183 Z-0.2437
N8520 X1.4229 Y4.3192
N8525 X1.4205 Y4.32 Z-0.2438
N8530 X1.4156 Y4.3213 Z-0.244
N8535 X1.4132 Y4.3219 Z-0.2441
N8540 X1.4107 Y4.3223 Z-0.2442
N8545 X1.4057 Y4.323 Z-0.2444
N8550 X1.4032 Y4.3232
N8555 X1.4006 Y4.3233 Z-0.2445
N8560 X1.3981 Z-0.2446
N8565 X1.3956 Y4.3232 Z-0.2447
N8570 X1.3906 Y4.3228 Z-0.2449
N8575 X1.3881 Y4.3224 Z-0.245
N8580 X1.3856 Y4.322 Z-0.2451
N8585 X1.3806 Y4.3208 Z-0.2452
N8590 X1.3782 Y4.3201 Z-0.2453
N8595 X1.3758 Y4.3193 Z-0.2454
N8600 X1.3734 Y4.3185 Z-0.2455
N8605 X1.3711 Y4.3175 Z-0.2456
N8610 X1.3665 Y4.3153 Z-0.2458
N8615 X1.3643 Y4.3141 Z-0.2459
N8620 X1.3621 Y4.3129
N8625 X1.3579 Y4.3101 Z-0.2461
N8630 X1.3559 Y4.3086 Z-0.2462
N8635 X1.354 Y4.307 Z-0.2463
N8640 X1.3502 Y4.3037 Z-0.2465
N8645 X1.3484 Y4.3019 Z-0.2466
N8650 X1.3467 Y4.3 Z-0.2467
N8655 X1.345 Y4.2981
N8660 X1.3434 Y4.2962 Z-0.2468
N8665 X1.3405 Y4.2921 Z-0.247
N8670 X1.3391 Y4.29 Z-0.2471
N8675 X1.3378 Y4.2878 Z-0.2472
N8680 X1.3354 Y4.2834 Z-0.2474
N8685 X1.3344 Y4.2811
N8690 X1.3334 Y4.2787 Z-0.2475
N8695 X1.3325 Y4.2764 Z-0.2476
N8700 X1.3317 Y4.274 Z-0.2477
N8705 X1.3304 Y4.2691 Z-0.2479
N8710 X1.3298 Y4.2666 Z-0.248
N8715 X1.3294 Y4.2642 Z-0.2481
N8720 X1.3287 Y4.2592 Z-0.2482
N8725 X1.3285 Y4.2567 Z-0.2483
N8730 X1.3284 Y4.2541 Z-0.2484
N8735 Y4.2516 Z-0.2485
N8740 X1.3285 Y4.2491 Z-0.2486
N8745 X1.3289 Y4.2441 Z-0.2488
N8750 X1.3293 Y4.2416
N8755 X1.3297 Y4.2391 Z-0.2489
N8760 X1.3309 Y4.2342 Z-0.2491
N8765 X1.3316 Y4.2318 Z-0.2492
N8770 X1.3324 Y4.2294 Z-0.2493
N8775 X1.3332 Y4.227 Z-0.2494
N8780 X1.3342 Y4.2247 Z-0.2495
N8785 X1.3363 Y4.2202 Z-0.2496
N8790 X1.3375 Y4.2179 Z-0.2497
N8795 X1.3388 Y4.2158 Z-0.2498
N8800 X1.3416 Y4.2116 Z-0.25
N8805 X1.3431 Y4.2096 Z-0.2501
N8810 X1.3447 Y4.2076 Z-0.2502
N8815 X1.348 Y4.2039 Z-0.2503
N8820 X1.3498 Y4.2021 Z-0.2504
N8825 X1.3516 Y4.2004 Z-0.2505
N8830 X1.3535 Y4.1987 Z-0.2506
N8835 X1.3555 Y4.1971 Z-0.2507
N8840 X1.3595 Y4.1941 Z-0.2509
N8845 X1.3616 Y4.1928 Z-0.251
N8850 X1.3638 Y4.1915
N8855 X1.3682 Y4.1891 Z-0.2512
N8860 X1.3705 Y4.1881 Z-0.2513
N8865 X1.3728 Y4.1871 Z-0.2514
N8870 X1.3752 Y4.1862 Z-0.2515
N8875 X1.3776 Y4.1854 Z-0.2516
N8880 X1.3824 Y4.1841 Z-0.2517
N8885 X1.3849 Y4.1835 Z-0.2518
N8890 X1.3874 Y4.1831 Z-0.2519
N8895 X1.3923 Y4.1824 Z-0.2521
N8900 X1.3948 Y4.1822 Z-0.2522
N8905 X1.3974 Y4.1821 Z-0.2523
N8910 X1.3999 Z-0.2524
N8915 X1.4024 Y4.1822
N8920 X1.4074 Y4.1826 Z-0.2526
N8925 X1.4099 Y4.183 Z-0.2527
N8930 X1.4123 Y4.1834 Z-0.2528
N8935 X1.4172 Y4.1846 Z-0.253
N8940 X1.4196 Y4.1853 Z-0.2531
N8945 X1.422 Y4.1861
N8950 X1.4244 Y4.1869 Z-0.2532
N8955 X1.4267 Y4.1879 Z-0.2533
N8960 X1.4312 Y4.19 Z-0.2535
N8965 X1.4335 Y4.1912 Z-0.2536
N8970 X1.4356 Y4.1925 Z-0.2537
N8975 X1.4398 Y4.1953 Z-0.2538
N8980 X1.4418 Y4.1968 Z-0.2539
N8985 X1.4438 Y4.1983 Z-0.254
N8990 X1.4475 Y4.2017 Z-0.2542
N8995 X1.4493 Y4.2034 Z-0.2543
N9000 X1.451 Y4.2053 Z-0.2544
N9005 X1.4526 Y4.2071 Z-0.2545
N9010 X1.4542 Y4.2091
N9015 X1.4572 Y4.2131 Z-0.2547
N9020 X1.4585 Y4.2152 Z-0.2548
N9025 X1.4598 Y4.2174 Z-0.2549
N9030 X1.4622 Y4.2218 Z-0.2551
N9035 X1.4632 Y4.2241 Z-0.2552
N9040 X1.4642 Y4.2264
N9045 X1.4651 Y4.2288 Z-0.2553
N9050 X1.4659 Y4.2311 Z-0.2554
N9055 X1.4672 Y4.236 Z-0.2556
N9060 X1.4678 Y4.2384 Z-0.2557
N9065 X1.4682 Y4.2409 Z-0.2558
N9070 X1.4689 Y4.2459 Z-0.2559
N9075 X1.469 Y4.2484 Z-0.256
N9080 X1.4691 Y4.2509 Z-0.2561
N9085 X1.469 Y4.2559 Z-0.2563
N9090 X1.4686 Y4.2608 Z-0.2565
N9095 X1.4678 Y4.2658 Z-0.2566
N9100 X1.4667 Y4.2706 Z-0.2568
N9105 X1.4652 Y4.2754 Z-0.257
N9110 X1.4643 Y4.2778 Z-0.2571
N9115 X1.4634 Y4.2801 Z-0.2572
N9120 X1.4612 Y4.2846 Z-0.2573
N9125 X1.4588 Y4.289 Z-0.2575
N9130 X1.456 Y4.2932 Z-0.2577
N9135 X1.4545 Y4.2952 Z-0.2578
N9140 X1.453 Y4.2971 Z-0.2579
N9145 X1.4513 Y4.299 Z-0.258
N9150 X1.4496 Y4.3009
N9155 X1.4461 Y4.3043 Z-0.2582
N9160 X1.4442 Y4.306 Z-0.2583
N9165 X1.4423 Y4.3075 Z-0.2584
N9170 X1.4382 Y4.3105 Z-0.2586
N9175 X1.4361 Y4.3118
N9180 X1.434 Y4.3131 Z-0.2587
N9185 X1.4296 Y4.3154 Z-0.2589
N9190 X1.4273 Y4.3165 Z-0.259
N9195 X1.425 Y4.3174 Z-0.2591
N9200 X1.4226 Y4.3183 Z-0.2592
N9205 X1.4203 Y4.3191 Z-0.2593
N9210 X1.4154 Y4.3205 Z-0.2594
N9215 X1.413 Y4.321 Z-0.2595
N9220 X1.4106 Y4.3214 Z-0.2596
N9225 X1.4056 Y4.3221 Z-0.2598
N9230 X1.4031 Y4.3223 Z-0.2599
N9235 X1.4006 Y4.3224 Z-0.26
N9240 X1.3981
N9245 X1.3956 Y4.3223 Z-0.2601
N9250 X1.3907 Y4.3219 Z-0.2603
N9255 X1.3882 Y4.3215 Z-0.2604
N9260 X1.3858 Y4.3211 Z-0.2605
N9265 X1.3809 Y4.32 Z-0.2606
N9270 X1.3785 Y4.3193 Z-0.2607
N9275 X1.3761 Y4.3185 Z-0.2608
N9280 X1.3738 Y4.3176 Z-0.2609
N9285 X1.3715 Y4.3167 Z-0.261
N9290 X1.367 Y4.3145 Z-0.2612
N9295 X1.3648 Y4.3133 Z-0.2613
N9300 X1.3626 Y4.3121
N9305 X1.3585 Y4.3093 Z-0.2615
N9310 X1.3565 Y4.3078 Z-0.2616
N9315 X1.3546 Y4.3063 Z-0.2617
N9320 X1.3527 Y4.3047 Z-0.2618
N9325 X1.3508 Y4.303 Z-0.2619
N9330 X1.3474 Y4.2994 Z-0.262
N9335 X1.3457 Y4.2975 Z-0.2621
N9340 X1.3442 Y4.2956 Z-0.2622
N9345 X1.3412 Y4.2916 Z-0.2624
N9350 X1.3399 Y4.2895 Z-0.2625
N9355 X1.3386 Y4.2873 Z-0.2626
N9360 X1.3363 Y4.2829 Z-0.2627
N9365 X1.3353 Y4.2807 Z-0.2628
N9370 X1.3343 Y4.2784 Z-0.2629
N9375 X1.3334 Y4.2761 Z-0.263
N9380 X1.3326 Y4.2737 Z-0.2631
N9385 X1.3313 Y4.2689 Z-0.2633
N9390 X1.3308 Y4.2665
N9395 X1.3303 Y4.264 Z-0.2634
N9400 X1.3297 Y4.2591 Z-0.2636
N9405 X1.3295 Y4.2566 Z-0.2637
N9410 X1.3294 Y4.2541 Z-0.2638
N9415 Y4.2516 Z-0.2639
N9420 X1.3295 Y4.2491
N9425 X1.3299 Y4.2442 Z-0.2641
N9430 X1.3302 Y4.2418 Z-0.2642
N9435 X1.3307 Y4.2393 Z-0.2643
N9440 X1.3318 Y4.2345 Z-0.2645
N9445 X1.3325 Y4.2321 Z-0.2646
N9450 X1.3333 Y4.2297
N9455 X1.3341 Y4.2274 Z-0.2647
N9460 X1.3351 Y4.2251 Z-0.2648
N9465 X1.3372 Y4.2206 Z-0.265
N9470 X1.3384 Y4.2184 Z-0.2651
N9475 X1.3396 Y4.2163 Z-0.2652
N9480 X1.3424 Y4.2121 Z-0.2653
N9485 X1.3439 Y4.2102 Z-0.2654
N9490 X1.3454 Y4.2082 Z-0.2655
N9495 X1.3487 Y4.2045 Z-0.2657
N9500 X1.3505 Y4.2028 Z-0.2658
N9505 X1.3523 Y4.2011 Z-0.2659
N9510 X1.3541 Y4.1994
N9515 X1.3561 Y4.1979 Z-0.266
N9520 X1.3601 Y4.195 Z-0.2662
N9525 X1.3622 Y4.1936 Z-0.2663
N9530 X1.3643 Y4.1924 Z-0.2664
N9535 X1.3687 Y4.19 Z-0.2665
N9540 X1.3709 Y4.189 Z-0.2666
N9545 X1.3732 Y4.1881 Z-0.2667
N9550 X1.3755 Y4.1872 Z-0.2668
N9555 X1.3779 Y4.1864 Z-0.2669
N9560 X1.3827 Y4.1851 Z-0.2671
N9565 X1.3851 Y4.1845 Z-0.2672
N9570 X1.3875 Y4.1841
N9575 X1.3924 Y4.1834 Z-0.2674
N9580 X1.3949 Y4.1833 Z-0.2675
N9585 X1.3974 Y4.1832 Z-0.2676
N9590 X1.3999 Z-0.2677
N9595 X1.4023 Z-0.2678
N9600 X1.4073 Y4.1837 Z-0.2679
N9605 X1.4097 Y4.184 Z-0.268
N9610 X1.4121 Y4.1844 Z-0.2681
N9615 X1.417 Y4.1856 Z-0.2683
N9620 X1.4193 Y4.1862 Z-0.2684
N9625 X1.4217 Y4.187
N9630 X1.424 Y4.1879 Z-0.2685
N9635 X1.4263 Y4.1888 Z-0.2686
N9640 X1.4308 Y4.1909 Z-0.2688
N9645 X1.4329 Y4.1921 Z-0.2689
N9650 X1.4351 Y4.1934 Z-0.269
N9655 X1.4392 Y4.1961 Z-0.2691
N9660 X1.4412 Y4.1976 Z-0.2692
N9665 X1.4431 Y4.1991 Z-0.2693
N9670 X1.4468 Y4.2024 Z-0.2695
N9675 X1.4485 Y4.2042 Z-0.2696
N9680 X1.4502 Y4.206 Z-0.2697
N9685 X1.4519 Y4.2078
N9690 X1.4534 Y4.2097 Z-0.2698
N9695 X1.4563 Y4.2137 Z-0.27
N9700 X1.4576 Y4.2158 Z-0.2701
N9705 X1.4589 Y4.2179 Z-0.2702
N9710 X1.4612 Y4.2223 Z-0.2703
N9715 X1.4623 Y4.2245 Z-0.2704
N9720 X1.4632 Y4.2268 Z-0.2705
N9725 X1.4641 Y4.2291 Z-0.2706
N9730 X1.4649 Y4.2315 Z-0.2707
N9735 X1.4662 Y4.2362 Z-0.2709
N9740 X1.4667 Y4.2386
N9745 X1.4672 Y4.2411 Z-0.271
N9750 X1.4678 Y4.246 Z-0.2712
N9755 X1.4681 Y4.2509 Z-0.2714
N9760 X1.468 Y4.2558 Z-0.2715
N9765 X1.4676 Y4.2607 Z-0.2717
N9770 X1.4668 Y4.2656 Z-0.2719
N9775 X1.4657 Y4.2704 Z-0.2721
N9780 X1.4642 Y4.2751 Z-0.2722
N9785 X1.4633 Y4.2774 Z-0.2723
N9790 X1.4624 Y4.2797 Z-0.2724
N9795 X1.4603 Y4.2841 Z-0.2726
N9800 X1.4579 Y4.2884 Z-0.2728
N9805 X1.4552 Y4.2925 Z-0.2729
N9810 X1.4537 Y4.2945 Z-0.273
N9815 X1.4522 Y4.2964 Z-0.2731
N9820 X1.4506 Y4.2983 Z-0.2732
N9825 X1.4489 Y4.3001 Z-0.2733
N9830 X1.4454 Y4.3035 Z-0.2734
N9835 X1.4435 Y4.3052 Z-0.2735
N9840 X1.4416 Y4.3067 Z-0.2736
N9845 X1.4376 Y4.3096 Z-0.2738
N9850 X1.4355 Y4.3109 Z-0.2739
N9855 X1.4334 Y4.3122 Z-0.274
N9860 X1.4291 Y4.3145 Z-0.2741
N9865 X1.4268 Y4.3155 Z-0.2742
N9870 X1.4246 Y4.3165 Z-0.2743
N9875 X1.4223 Y4.3173 Z-0.2744
N9880 X1.4199 Y4.3181 Z-0.2745
N9885 X1.4152 Y4.3194 Z-0.2746
N9890 X1.4128 Y4.32 Z-0.2747
N9895 X1.4104 Y4.3204 Z-0.2748
N9900 X1.4055 Y4.321 Z-0.275
N9905 X1.4031 Y4.3212 Z-0.2751
N9910 X1.4006 Y4.3213 Z-0.2752
N9915 X1.3981
N9920 X1.3957 Z-0.2753
N9925 X1.392 Y4.321 Z-0.2755
N9930 X1.3883 Y4.3205 Z-0.2756
N9935 X1.3881 Y4.3204
N9940 X1.3868 Y4.3202
N9945 X1.3855 Y4.32 Z-0.2757
N9950 X1.383 Y4.3194 Z-0.2758
N9955 X1.378 Y4.318 Z-0.276
N9960 X1.3756 Y4.3172
N9965 X1.3732 Y4.3163 Z-0.2761
N9970 X1.3709 Y4.3152 Z-0.2762
N9975 X1.3686 Y4.3142 Z-0.2763
N9980 X1.364 Y4.3117 Z-0.2765
N9985 X1.3618 Y4.3103 Z-0.2766
N9990 X1.3597 Y4.3089 Z-0.2767
N9995 X1.3576 Y4.3074 Z-0.2768
N10000 X1.3556 Y4.3058
N10005 X1.3518 Y4.3024 Z-0.277
N10010 X1.35 Y4.3006 Z-0.2771
N10015 X1.3482 Y4.2987 Z-0.2772
N10020 X1.3465 Y4.2968 Z-0.2773
N10025 X1.3449 Y4.2948 Z-0.2774
N10030 X1.3419 Y4.2906 Z-0.2776
N10035 X1.3405 Y4.2884 Z-0.2777
N10040 X1.3392 Y4.2862
N10045 X1.338 Y4.284 Z-0.2778
N10050 X1.3369 Y4.2817 Z-0.2779
N10055 X1.3349 Y4.2769 Z-0.2781
N10060 X1.334 Y4.2745 Z-0.2782
N10065 X1.3332 Y4.2721 Z-0.2783
N10070 X1.3325 Y4.2696 Z-0.2784
N10075 X1.332 Y4.2671 Z-0.2785
N10080 X1.3311 Y4.262 Z-0.2786
N10085 X1.3308 Y4.2595 Z-0.2787
N10090 X1.3306 Y4.2569 Z-0.2788
N10095 X1.3305 Y4.2544 Z-0.2789
N10100 X1.3304 Y4.2518 Z-0.279
N10105 X1.3307 Y4.2467 Z-0.2792
N10110 X1.331 Y4.2441 Z-0.2793
N10115 X1.3313 Y4.2416 Z-0.2794
N10120 X1.3318 Y4.2391
N10125 X1.3323 Y4.2366 Z-0.2795
N10130 X1.3337 Y4.2317 Z-0.2797
N10135 X1.3346 Y4.2293 Z-0.2798
N10140 X1.3355 Y4.2269 Z-0.2799
N10145 X1.3365 Y4.2245 Z-0.28
N10150 X1.3376 Y4.2222 Z-0.2801
N10155 X1.34 Y4.2177 Z-0.2802
N10160 X1.3414 Y4.2155 Z-0.2803
N10165 X1.3428 Y4.2134 Z-0.2804
N10170 X1.3443 Y4.2113 Z-0.2805
N10175 X1.3459 Y4.2093 Z-0.2806
N10180 X1.3493 Y4.2054 Z-0.2808
N10185 X1.3511 Y4.2036 Z-0.2809
N10190 X1.353 Y4.2019 Z-0.281
N10195 X1.3549 Y4.2002 Z-0.2811
N10200 X1.3569 Y4.1986
N10205 X1.361 Y4.1956 Z-0.2813
N10210 X1.3631 Y4.1942 Z-0.2814
N10215 X1.3654 Y4.193 Z-0.2815
N10220 X1.3676 Y4.1917 Z-0.2816
N10225 X1.3699 Y4.1906 Z-0.2817
N10230 X1.3746 Y4.1886 Z-0.2819
N10235 X1.3771 Y4.1877
N10240 X1.3795 Y4.187 Z-0.282
N10245 X1.382 Y4.1863 Z-0.2821
N10250 X1.3844 Y4.1857 Z-0.2822
N10255 X1.3895 Y4.1848 Z-0.2824
N10260 X1.392 Y4.1845 Z-0.2825
N10265 X1.3945 Y4.1843 Z-0.2826
N10270 X1.3971 Y4.1842 Z-0.2827
N10275 X1.3996
N10280 X1.4048 Y4.1844 Z-0.2829
N10285 X1.4073 Y4.1847 Z-0.283
N10290 X1.4098 Y4.1851 Z-0.2831
N10295 X1.4123 Y4.1855 Z-0.2832
N10300 X1.4149 Y4.1861 Z-0.2833
N10305 X1.4198 Y4.1875 Z-0.2835
N10310 X1.4222 Y4.1883 Z-0.2836
N10315 X1.4246 Y4.1892
N10320 X1.4269 Y4.1902 Z-0.2837
N10325 X1.4292 Y4.1913 Z-0.2838
N10330 X1.4337 Y4.1937 Z-0.284
N10335 X1.4359 Y4.1951 Z-0.2841
N10340 X1.438 Y4.1965 Z-0.2842
N10345 X1.44 Y4.198 Z-0.2843
N10350 X1.442 Y4.1996 Z-0.2844
N10355 X1.4458 Y4.2029 Z-0.2845
N10360 X1.4477 Y4.2047 Z-0.2846
N10365 X1.4494 Y4.2066 Z-0.2847
N10370 X1.4511 Y4.2085 Z-0.2848
N10375 X1.4527 Y4.2105 Z-0.2849
N10380 X1.4557 Y4.2147 Z-0.2851
N10385 X1.4571 Y4.2168 Z-0.2852
N10390 X1.4583 Y4.219
N10395 X1.4595 Y4.2213 Z-0.2853
N10400 X1.4607 Y4.2235 Z-0.2854
N10405 X1.4626 Y4.2282 Z-0.2856
N10410 X1.4635 Y4.2306 Z-0.2857
N10415 X1.4643 Y4.2331 Z-0.2858
N10420 X1.4649 Y4.2356 Z-0.2859
N10425 X1.4655 Y4.238 Z-0.286
N10430 X1.4664 Y4.243 Z-0.2861
N10435 X1.4667 Y4.2455 Z-0.2862
N10440 X1.4669 Y4.248 Z-0.2863
N10445 X1.467 Y4.2506 Z-0.2864
N10450 X1.4671 Y4.2531 Z-0.2865
N10455 X1.4668 Y4.2582 Z-0.2867
N10460 X1.4661 Y4.2633 Z-0.2868
N10465 X1.4651 Y4.2683 Z-0.287
N10470 X1.4637 Y4.2732 Z-0.2872
N10475 X1.462 Y4.2779 Z-0.2874
N10480 X1.4599 Y4.2826 Z-0.2875
N10485 X1.4575 Y4.2871 Z-0.2877
N10490 X1.4562 Y4.2892 Z-0.2878
N10495 X1.4548 Y4.2913 Z-0.2879
N10500 X1.4533 Y4.2934 Z-0.288
N10505 X1.4517 Y4.2954 Z-0.2881
N10510 X1.4484 Y4.2992 Z-0.2883
N10515 X1.4466 Y4.301
N10520 X1.4447 Y4.3027 Z-0.2884
N10525 X1.4428 Y4.3044 Z-0.2885
N10530 X1.4408 Y4.306 Z-0.2886
N10535 X1.4367 Y4.309 Z-0.2888
N10540 X1.4346 Y4.3103 Z-0.2889
N10545 X1.4324 Y4.3116 Z-0.289
N10550 X1.4301 Y4.3128 Z-0.2891
N10555 X1.4279 Y4.3139
N10560 X1.4232 Y4.3159 Z-0.2893
N10565 X1.4207 Y4.3168 Z-0.2894
N10570 X1.4183 Y4.3175 Z-0.2895
N10575 X1.4159 Y4.3182 Z-0.2896
N10580 X1.4134 Y4.3188 Z-0.2897
N10585 X1.4085 Y4.3197 Z-0.2899
N10590 X1.4059 Y4.32
N10595 X1.4034 Y4.3202 Z-0.29
N10600 X1.4008 Y4.3203 Z-0.2901
N10605 X1.3983 Z-0.2902
N10610 X1.3933 Y4.32 Z-0.2904
N10615 X1.3907 Y4.3198 Z-0.2905
N10620 X1.3882 Y4.3194 Z-0.2906
N10625 X1.3857 Y4.319
N10630 X1.3833 Y4.3184 Z-0.2907
N10635 X1.3784 Y4.317 Z-0.2909
N10640 X1.376 Y4.3162 Z-0.291
N10645 X1.3736 Y4.3153 Z-0.2911
N10650 X1.3713 Y4.3143 Z-0.2912
N10655 X1.369 Y4.3132 Z-0.2913
N10660 X1.3646 Y4.3108 Z-0.2914
N10665 X1.3624 Y4.3095 Z-0.2915
N10670 X1.3603 Y4.308 Z-0.2916
N10675 X1.3583 Y4.3066 Z-0.2917
N10680 X1.3563 Y4.305 Z-0.2918
N10685 X1.3525 Y4.3017 Z-0.292
N10690 X1.3507 Y4.2999 Z-0.2921
N10695 X1.349 Y4.298
N10700 X1.3473 Y4.2961 Z-0.2922
N10705 X1.3457 Y4.2941 Z-0.2923
N10710 X1.3427 Y4.29 Z-0.2925
N10715 X1.3414 Y4.2879 Z-0.2926
N10720 X1.3401 Y4.2857 Z-0.2927
N10725 X1.3389 Y4.2835 Z-0.2928
N10730 X1.3378 Y4.2812 Z-0.2929
N10735 X1.3358 Y4.2766 Z-0.293
N10740 X1.335 Y4.2742 Z-0.2931
N10745 X1.3342 Y4.2718 Z-0.2932
N10750 X1.3336 Y4.2693 Z-0.2933
N10755 X1.333 Y4.2669 Z-0.2934
N10760 X1.3321 Y4.2619 Z-0.2936
N10765 X1.3318 Y4.2594
N10770 X1.3316 Y4.2569 Z-0.2937
N10775 X1.3315 Y4.2543 Z-0.2938
N10780 Y4.2518 Z-0.2939
N10785 X1.3317 Y4.2468 Z-0.2941
N10790 X1.332 Y4.2443 Z-0.2942
N10795 X1.3323 Y4.2418 Z-0.2943
N10800 X1.3328 Y4.2393 Z-0.2944
N10805 X1.3333 Y4.2368
N10810 X1.3347 Y4.232 Z-0.2946
N10815 X1.3355 Y4.2296 Z-0.2947
N10820 X1.3364 Y4.2272 Z-0.2948
N10825 X1.3374 Y4.2249 Z-0.2949
N10830 X1.3385 Y4.2227 Z-0.295
N10835 X1.3409 Y4.2182 Z-0.2951
N10840 X1.3422 Y4.2161 Z-0.2952
N10845 X1.3436 Y4.214 Z-0.2953
N10850 X1.3451 Y4.2119 Z-0.2954
N10855 X1.3467 Y4.21 Z-0.2955
N10860 X1.35 Y4.2062 Z-0.2957
N10865 X1.3518 Y4.2044 Z-0.2958
N10870 X1.3537 Y4.2026
N10875 X1.3556 Y4.201 Z-0.2959
N10880 X1.3575 Y4.1994 Z-0.296
N10885 X1.3616 Y4.1965 Z-0.2962
N10890 X1.3637 Y4.1951 Z-0.2963
N10895 X1.3659 Y4.1938 Z-0.2964
N10900 X1.3681 Y4.1926 Z-0.2965
N10905 X1.3704 Y4.1915 Z-0.2966
N10910 X1.375 Y4.1896 Z-0.2967
N10915 X1.3774 Y4.1887 Z-0.2968
N10920 X1.3798 Y4.188 Z-0.2969
N10925 X1.3822 Y4.1873 Z-0.297
N10930 X1.3847 Y4.1867 Z-0.2971
N10935 X1.3896 Y4.1858 Z-0.2973
N10940 X1.3921 Y4.1856
N10945 X1.3946 Y4.1854 Z-0.2974
N10950 X1.3971 Y4.1852 Z-0.2975
N10955 X1.3996 Z-0.2976
N10960 X1.4047 Y4.1855 Z-0.2978
N10965 X1.4072 Y4.1857 Z-0.2979
N10970 X1.4097 Y4.1861 Z-0.298
N10975 X1.4121 Y4.1866
N10980 X1.4146 Y4.1871 Z-0.2981
N10985 X1.4195 Y4.1885 Z-0.2983
N10990 X1.4218 Y4.1893 Z-0.2984
N10995 X1.4242 Y4.1902 Z-0.2985
N11000 X1.4265 Y4.1912 Z-0.2986
N11005 X1.4287 Y4.1922 Z-0.2987
N11010 X1.4332 Y4.1946 Z-0.2988
N11015 X1.4353 Y4.196 Z-0.2989
N11020 X1.4374 Y4.1974 Z-0.299
N11025 X1.4394 Y4.1989 Z-0.2991
N11030 X1.4414 Y4.2004 Z-0.2992
N11035 X1.4451 Y4.2037 Z-0.2994
N11040 X1.4469 Y4.2055
N11045 X1.4486 Y4.2073 Z-0.2995
N11050 X1.4503 Y4.2092 Z-0.2996
N11055 X1.4519 Y4.2112 Z-0.2997
N11060 X1.4548 Y4.2152 Z-0.2999
N11065 X1.4562 Y4.2174 Z-0.3
N11070 X1.4574 Y4.2195 Z-0.3001
N11075 X1.4586 Y4.2217
N11080 X1.4597 Y4.224 Z-0.3002
N11085 X1.4617 Y4.2286 Z-0.3004
N11090 X1.4625 Y4.231 Z-0.3005
N11095 X1.4632 Y4.2334 Z-0.3006
N11100 X1.4639 Y4.2358 Z-0.3007
N11105 X1.4645 Y4.2383 Z-0.3008
N11110 X1.4654 Y4.2432 Z-0.3009
N11115 X1.4656 Y4.2456 Z-0.301
N11120 X1.4658 Y4.2481 Z-0.3011
N11125 X1.466 Y4.2506 Z-0.3012
N11130 Y4.2531 Z-0.3013
N11135 X1.4657 Y4.2582 Z-0.3015
N11140 X1.4651 Y4.2631 Z-0.3016
N11145 X1.4641 Y4.2681 Z-0.3018
N11150 X1.4627 Y4.2728 Z-0.302
N11155 X1.461 Y4.2775 Z-0.3022
N11160 X1.459 Y4.2821 Z-0.3023
N11165 X1.4566 Y4.2865 Z-0.3025
N11170 X1.4553 Y4.2886 Z-0.3026
N11175 X1.4539 Y4.2907 Z-0.3027
N11180 X1.4524 Y4.2927 Z-0.3028
N11185 X1.4509 Y4.2947 Z-0.3029
N11190 X1.4476 Y4.2984 Z-0.303
N11195 X1.4458 Y4.3002 Z-0.3031
N11200 X1.444 Y4.3019 Z-0.3032
N11205 X1.4421 Y4.3036 Z-0.3033
N11210 X1.4401 Y4.3051 Z-0.3034
N11215 X1.4361 Y4.3081 Z-0.3035
N11220 X1.434 Y4.3094 Z-0.3036
N11225 X1.4318 Y4.3107 Z-0.3037
N11230 X1.4296 Y4.3118 Z-0.3038
N11235 X1.4274 Y4.3129 Z-0.3039
N11240 X1.4228 Y4.3149 Z-0.3041
N11245 X1.4204 Y4.3157 Z-0.3042
N11250 X1.418 Y4.3165
N11255 X1.4156 Y4.3171 Z-0.3043
N11260 X1.4132 Y4.3177 Z-0.3044
N11265 X1.4083 Y4.3186 Z-0.3046
N11270 X1.4058 Y4.3189 Z-0.3047
N11275 X1.4033 Y4.319 Z-0.3048
N11280 X1.4008 Y4.3192 Z-0.3049
N11285 X1.3983
N11290 X1.3934 Y4.3189 Z-0.3051
N11295 X1.3909 Y4.3187 Z-0.3052
N11300 X1.3884 Y4.3183 Z-0.3053
N11305 X1.386 Y4.3178 Z-0.3054
N11310 X1.3835 Y4.3173 Z-0.3055
N11315 X1.3787 Y4.316 Z-0.3056
N11320 X1.3764 Y4.3151 Z-0.3057
N11325 X1.374 Y4.3142 Z-0.3058
N11330 X1.3718 Y4.3133 Z-0.3059
N11335 X1.3695 Y4.3122 Z-0.306
N11340 X1.3651 Y4.3098 Z-0.3062
N11345 X1.363 Y4.3085
N11350 X1.361 Y4.3071 Z-0.3063
N11355 X1.3589 Y4.3056 Z-0.3064
N11360 X1.357 Y4.3041 Z-0.3065
N11365 X1.3533 Y4.3008 Z-0.3067
N11370 X1.3515 Y4.2991 Z-0.3068
N11375 X1.3498 Y4.2973 Z-0.3069
N11380 X1.3482 Y4.2954
N11385 X1.3466 Y4.2934 Z-0.307
N11390 X1.3437 Y4.2894 Z-0.3072
N11395 X1.3424 Y4.2873 Z-0.3073
N11400 X1.3411 Y4.2852 Z-0.3074
N11405 X1.3399 Y4.283 Z-0.3075
N11410 X1.3388 Y4.2807
N11415 X1.3369 Y4.2762 Z-0.3077
N11420 X1.3361 Y4.2738 Z-0.3078
N11425 X1.3353 Y4.2714 Z-0.3079
N11430 X1.3347 Y4.269 Z-0.308
N11435 X1.3341 Y4.2666 Z-0.3081
N11440 X1.3332 Y4.2617 Z-0.3082
N11445 X1.3329 Y4.2593 Z-0.3083
N11450 X1.3328 Y4.2568 Z-0.3084
N11455 X1.3326 Y4.2543 Z-0.3085
N11460 Y4.2518 Z-0.3086
N11465 X1.3329 Y4.2469 Z-0.3088
N11470 X1.3331 Y4.2444
N11475 X1.3335 Y4.242 Z-0.3089
N11480 X1.3339 Y4.2395 Z-0.309
N11485 X1.3345 Y4.2371 Z-0.3091
N11490 X1.3358 Y4.2323 Z-0.3093
N11495 X1.3366 Y4.23 Z-0.3094
N11500 X1.3375 Y4.2277 Z-0.3095
N11505 X1.3385 Y4.2254
N11510 X1.3396 Y4.2232 Z-0.3096
N11515 X1.3419 Y4.2188 Z-0.3098
N11520 X1.3432 Y4.2167 Z-0.3099
N11525 X1.3446 Y4.2146 Z-0.31
N11530 X1.3461 Y4.2126 Z-0.3101
N11535 X1.3476 Y4.2107
N11540 X1.3509 Y4.207 Z-0.3103
N11545 X1.3526 Y4.2052 Z-0.3104
N11550 X1.3545 Y4.2035 Z-0.3105
N11555 X1.3563 Y4.2019 Z-0.3106
N11560 X1.3582 Y4.2003 Z-0.3107
N11565 X1.3622 Y4.1974 Z-0.3108
N11570 X1.3643 Y4.1961 Z-0.3109
N11575 X1.3665 Y4.1949 Z-0.311
N11580 X1.3687 Y4.1937 Z-0.3111
N11585 X1.3709 Y4.1926 Z-0.3112
N11590 X1.3754 Y4.1907 Z-0.3114
N11595 X1.3778 Y4.1899
N11600 X1.3801 Y4.1891 Z-0.3115
N11605 X1.3825 Y4.1885 Z-0.3116
N11610 X1.3849 Y4.1879 Z-0.3117
N11615 X1.3898 Y4.187 Z-0.3119
N11620 X1.3922 Y4.1868 Z-0.312
N11625 X1.3947 Y4.1866
N11630 X1.3972 Y4.1864 Z-0.3121
N11635 X1.3997 Z-0.3122
N11640 X1.4046 Y4.1867 Z-0.3124
N11645 X1.407 Y4.1869 Z-0.3125
N11650 X1.4095 Y4.1873 Z-0.3126
N11655 X1.4119 Y4.1877
N11660 X1.4143 Y4.1883 Z-0.3127
N11665 X1.4191 Y4.1896 Z-0.3129
N11670 X1.4214 Y4.1904 Z-0.313
N11675 X1.4237 Y4.1913 Z-0.3131
N11680 X1.426 Y4.1923 Z-0.3132
N11685 X1.4282 Y4.1933 Z-0.3133
N11690 X1.4326 Y4.1957 Z-0.3134
N11695 X1.4346 Y4.197 Z-0.3135
N11700 X1.4367 Y4.1984 Z-0.3136
N11705 X1.4387 Y4.1998 Z-0.3137
N11710 X1.4406 Y4.2013 Z-0.3138
N11715 X1.4443 Y4.2046 Z-0.3139
N11720 X1.4461 Y4.2063 Z-0.314
N11725 X1.4478 Y4.2081 Z-0.3141
N11730 X1.4494 Y4.21 Z-0.3142
N11735 X1.4509 Y4.2119 Z-0.3143
N11740 X1.4538 Y4.2159 Z-0.3145
N11745 X1.4551 Y4.218
N11750 X1.4564 Y4.2201 Z-0.3146
N11755 X1.4575 Y4.2222 Z-0.3147
N11760 X1.4585 Y4.2244 Z-0.3148
N11765 X1.4604 Y4.2287 Z-0.315
N11770 X1.4605 Y4.2289
N11775 X1.4606 Y4.2292
N11780 X1.4607 Y4.2295
N11785 X1.4614 Y4.2314 Z-0.3151
N11790 X1.4621 Y4.2338
N11795 X1.4628 Y4.2363 Z-0.3152
N11800 X1.4634 Y4.2389 Z-0.3153
N11805 X1.4639 Y4.2414 Z-0.3154
N11810 X1.4642 Y4.2439 Z-0.3155
N11815 X1.4647 Y4.249 Z-0.3157
N11820 X1.4648 Y4.2516 Z-0.3158
N11825 X1.4647 Y4.2542 Z-0.3159
N11830 X1.4644 Y4.2593 Z-0.316
N11835 X1.4636 Y4.2645 Z-0.3162
N11840 X1.4625 Y4.2696 Z-0.3164
N11845 X1.4617 Y4.2721 Z-0.3165
N11850 X1.4609 Y4.2746 Z-0.3166
N11855 X1.4589 Y4.2794 Z-0.3168
N11860 X1.4566 Y4.2839 Z-0.3169
N11865 X1.454 Y4.2883 Z-0.3171
N11870 X1.4526 Y4.2905 Z-0.3172
N11875 X1.451 Y4.2926 Z-0.3173
N11880 X1.4494 Y4.2946 Z-0.3174
N11885 X1.4477 Y4.2965 Z-0.3175
N11890 X1.4459 Y4.2984 Z-0.3176
N11895 X1.4441 Y4.3002 Z-0.3177
N11900 X1.4403 Y4.3035 Z-0.3178
N11905 X1.4382 Y4.3051 Z-0.3179
N11910 X1.4361 Y4.3066 Z-0.318
N11915 X1.434 Y4.308 Z-0.3181
N11920 X1.4318 Y4.3093 Z-0.3182
N11925 X1.4295 Y4.3105 Z-0.3183
N11930 X1.4272 Y4.3117 Z-0.3184
N11935 X1.4225 Y4.3137 Z-0.3186
N11940 X1.42 Y4.3146 Z-0.3187
N11945 X1.4176 Y4.3153
N11950 X1.4151 Y4.316 Z-0.3188
N11955 X1.4125 Y4.3166 Z-0.3189
N11960 X1.41 Y4.3171 Z-0.319
N11965 X1.4075 Y4.3175 Z-0.3191
N11970 X1.4024 Y4.3179 Z-0.3193
N11975 X1.3998 Y4.318 Z-0.3194
N11980 X1.3972 Y4.3179 Z-0.3195
N11985 X1.3947 Y4.3178
N11990 X1.3921 Y4.3176 Z-0.3196
N11995 X1.3896 Y4.3173 Z-0.3197
N12000 X1.387 Y4.3168 Z-0.3198
N12005 X1.3821 Y4.3157 Z-0.32
N12010 X1.3796 Y4.315 Z-0.3201
N12015 X1.3771 Y4.3141 Z-0.3202
N12020 X1.3747 Y4.3132 Z-0.3203
N12025 X1.3723 Y4.3122 Z-0.3204
N12030 X1.37 Y4.3111
N12035 X1.3677 Y4.3099 Z-0.3205
N12040 X1.3633 Y4.3073 Z-0.3207
N12045 X1.3612 Y4.3058 Z-0.3208
N12050 X1.3592 Y4.3043 Z-0.3209
N12055 X1.3572 Y4.3027 Z-0.321
N12060 X1.3553 Y4.301 Z-0.3211
N12065 X1.3534 Y4.2993 Z-0.3212
N12070 X1.3516 Y4.2974
N12075 X1.3482 Y4.2936 Z-0.3214
N12080 X1.3467 Y4.2915 Z-0.3215
N12085 X1.3452 Y4.2895 Z-0.3216
N12090 X1.3438 Y4.2873 Z-0.3217
N12095 X1.3425 Y4.2851 Z-0.3218
N12100 X1.3412 Y4.2829 Z-0.3219
N12105 X1.3401 Y4.2806 Z-0.322
N12110 X1.3381 Y4.2758 Z-0.3221
N12115 X1.3372 Y4.2734 Z-0.3222
N12120 X1.3364 Y4.271 Z-0.3223
N12125 X1.3358 Y4.2685 Z-0.3224
N12130 X1.3352 Y4.266 Z-0.3225
N12135 X1.3347 Y4.2635 Z-0.3226
N12140 X1.3343 Y4.261 Z-0.3227
N12145 X1.3339 Y4.2559 Z-0.3229
N12150 X1.3338 Y4.2533
N12155 Y4.2508 Z-0.323
N12160 X1.334 Y4.2482 Z-0.3231
N12165 X1.3342 Y4.2456 Z-0.3232
N12170 X1.3345 Y4.2431 Z-0.3233
N12175 X1.3349 Y4.2406 Z-0.3234
N12180 X1.3361 Y4.2356 Z-0.3236
N12185 X1.3368 Y4.2332 Z-0.3237
N12190 X1.3376 Y4.2307 Z-0.3238
N12195 X1.3386 Y4.2283
N12200 X1.3396 Y4.2259 Z-0.3239
N12205 X1.3407 Y4.2236 Z-0.324
N12210 X1.3418 Y4.2214 Z-0.3241
N12215 X1.3445 Y4.217 Z-0.3243
N12220 X1.3459 Y4.2149 Z-0.3244
N12225 X1.3474 Y4.2129 Z-0.3245
N12230 X1.349 Y4.2109 Z-0.3246
N12235 X1.3507 Y4.209
N12240 X1.3524 Y4.2071 Z-0.3247
N12245 X1.3542 Y4.2053 Z-0.3248
N12250 X1.3581 Y4.2019 Z-0.325
N12255 X1.3601 Y4.2004 Z-0.3251
N12260 X1.3622 Y4.1989 Z-0.3252
N12265 X1.3643 Y4.1975 Z-0.3253
N12270 X1.3665 Y4.1962 Z-0.3254
N12275 X1.3688 Y4.195
N12280 X1.3711 Y4.1938 Z-0.3255
N12285 X1.3758 Y4.1918 Z-0.3257
N12290 X1.3782 Y4.191 Z-0.3258
N12295 X1.3806 Y4.1902 Z-0.3259
N12300 X1.3831 Y4.1896 Z-0.326
N12305 X1.3856 Y4.189 Z-0.3261
N12310 X1.388 Y4.1885 Z-0.3262
N12315 X1.3906 Y4.1881
N12320 X1.3956 Y4.1877 Z-0.3264
N12325 X1.3982 Y4.1876 Z-0.3265
N12330 X1.4007 Z-0.3266
N12335 X1.4033 Y4.1878 Z-0.3267
N12340 X1.4058 Y4.188 Z-0.3268
N12345 X1.4083 Y4.1883 Z-0.3269
N12350 X1.4108 Y4.1887 Z-0.327
N12355 X1.4158 Y4.1899 Z-0.3271
N12360 X1.4182 Y4.1906 Z-0.3272
N12365 X1.4207 Y4.1914 Z-0.3273
N12370 X1.4231 Y4.1923 Z-0.3274
N12375 X1.4254 Y4.1933 Z-0.3275
N12380 X1.4277 Y4.1944 Z-0.3276
N12385 X1.43 Y4.1956 Z-0.3277
N12390 X1.4343 Y4.1982 Z-0.3278
N12395 X1.4364 Y4.1996 Z-0.3279
N12400 X1.4384 Y4.2011 Z-0.328
N12405 X1.4404 Y4.2027 Z-0.3281
N12410 X1.4423 Y4.2044 Z-0.3282
N12415 X1.4442 Y4.2061 Z-0.3283
N12420 X1.446 Y4.2079 Z-0.3284
N12425 X1.4493 Y4.2118 Z-0.3286
N12430 X1.4509 Y4.2138
N12435 X1.4523 Y4.2159 Z-0.3287
N12440 X1.4537 Y4.218 Z-0.3288
N12445 X1.455 Y4.2202 Z-0.3289
N12450 X1.4563 Y4.2224 Z-0.329
N12455 X1.4574 Y4.2247 Z-0.3291
N12460 X1.4594 Y4.2293 Z-0.3293
N12465 X1.4602 Y4.2317 Z-0.3294
N12470 X1.461 Y4.2342
N12475 X1.4617 Y4.2366 Z-0.3295
N12480 X1.4622 Y4.2391 Z-0.3296
N12485 X1.4627 Y4.2416 Z-0.3297
N12490 X1.4631 Y4.2441 Z-0.3298
N12495 X1.4635 Y4.2491 Z-0.33
N12500 X1.4636 Y4.2516 Z-0.3301
N12505 Y4.2542
N12510 X1.4632 Y4.2592 Z-0.3303
N12515 X1.4624 Y4.2643 Z-0.3305
N12520 X1.4613 Y4.2693 Z-0.3307
N12525 X1.4606 Y4.2717 Z-0.3308
N12530 X1.4598 Y4.2741 Z-0.3309
N12535 X1.4578 Y4.2789 Z-0.331
N12540 X1.4556 Y4.2834 Z-0.3312
N12545 X1.4531 Y4.2877 Z-0.3314
N12550 X1.4516 Y4.2898 Z-0.3315
N12555 X1.4501 Y4.2918 Z-0.3316
N12560 X1.4485 Y4.2938 Z-0.3317
N12565 X1.4468 Y4.2957
N12570 X1.4451 Y4.2975 Z-0.3318
N12575 X1.4433 Y4.2993 Z-0.3319
N12580 X1.4395 Y4.3026 Z-0.3321
N12585 X1.4375 Y4.3041 Z-0.3322
N12590 X1.4355 Y4.3056 Z-0.3323
N12595 X1.4333 Y4.307 Z-0.3324
N12600 X1.4312 Y4.3083
N12605 X1.429 Y4.3095 Z-0.3325
N12610 X1.4267 Y4.3106 Z-0.3326
N12615 X1.422 Y4.3126 Z-0.3328
N12620 X1.4196 Y4.3135 Z-0.3329
N12625 X1.4172 Y4.3142 Z-0.333
N12630 X1.4148 Y4.3149 Z-0.3331
N12635 X1.4123 Y4.3154 Z-0.3332
N12640 X1.4098 Y4.3159
N12645 X1.4074 Y4.3163 Z-0.3333
N12650 X1.4023 Y4.3167 Z-0.3335
N12655 X1.3998 Y4.3168 Z-0.3336
N12660 X1.3973 Z-0.3337
N12665 X1.3947 Y4.3166 Z-0.3338
N12670 X1.3922 Y4.3164 Z-0.3339
N12675 X1.3897 Y4.3161
N12680 X1.3872 Y4.3157 Z-0.334
N12685 X1.3823 Y4.3146 Z-0.3342
N12690 X1.3799 Y4.3138 Z-0.3343
N12695 X1.3775 Y4.313 Z-0.3344
N12700 X1.3751 Y4.3121 Z-0.3345
N12705 X1.3728 Y4.3111 Z-0.3346
N12710 X1.3705 Y4.3101
N12715 X1.3683 Y4.3089 Z-0.3347
N12720 X1.364 Y4.3063 Z-0.3349
N12725 X1.3619 Y4.3049 Z-0.335
N12730 X1.3599 Y4.3034 Z-0.3351
N12735 X1.3579 Y4.3018 Z-0.3352
N12740 X1.356 Y4.3002 Z-0.3353
N12745 X1.3542 Y4.2984 Z-0.3354
N12750 X1.3524 Y4.2966
N12755 X1.3491 Y4.2928 Z-0.3356
N12760 X1.3476 Y4.2908 Z-0.3357
N12765 X1.3461 Y4.2888 Z-0.3358
N12770 X1.3448 Y4.2867 Z-0.3359
N12775 X1.3435 Y4.2845 Z-0.336
N12780 X1.3423 Y4.2823 Z-0.3361
N12785 X1.3411 Y4.2801
N12790 X1.3392 Y4.2754 Z-0.3363
N12795 X1.3383 Y4.273 Z-0.3364
N12800 X1.3376 Y4.2706 Z-0.3365
N12805 X1.3369 Y4.2682 Z-0.3366
N12810 X1.3363 Y4.2658 Z-0.3367
N12815 X1.3359 Y4.2633 Z-0.3368
N12820 X1.3355 Y4.2608
N12825 X1.3351 Y4.2558 Z-0.337
N12830 X1.335 Y4.2533 Z-0.3371
N12835 Y4.2508 Z-0.3372
N12840 X1.3351 Y4.2483 Z-0.3373
N12845 X1.3354 Y4.2458 Z-0.3374
N12850 X1.3357 Y4.2433 Z-0.3375
N12855 X1.3361 Y4.2408
N12860 X1.3372 Y4.2359 Z-0.3377
N12865 X1.3379 Y4.2335 Z-0.3378
N12870 X1.3387 Y4.2311 Z-0.3379
N12875 X1.3396 Y4.2288 Z-0.338
N12880 X1.3406 Y4.2264 Z-0.3381
N12885 X1.3417 Y4.2242 Z-0.3382
N12890 X1.3428 Y4.2219
N12895 X1.3454 Y4.2176 Z-0.3384
N12900 X1.3468 Y4.2156 Z-0.3385
N12905 X1.3483 Y4.2136 Z-0.3386
N12910 X1.3499 Y4.2116 Z-0.3387
N12915 X1.3515 Y4.2097 Z-0.3388
N12920 X1.3533 Y4.2079 Z-0.3389
N12925 X1.3551 Y4.2062
N12930 X1.3588 Y4.2029 Z-0.3391
N12935 X1.3608 Y4.2013 Z-0.3392
N12940 X1.3629 Y4.1999 Z-0.3393
N12945 X1.365 Y4.1985 Z-0.3394
N12950 X1.3671 Y4.1972 Z-0.3395
N12955 X1.3693 Y4.196 Z-0.3396
N12960 X1.3716 Y4.1949
N12965 X1.3762 Y4.1929 Z-0.3398
N12970 X1.3785 Y4.1921 Z-0.3399
N12975 X1.3809 Y4.1913 Z-0.34
N12980 X1.3833 Y4.1907 Z-0.3401
N12985 X1.3858 Y4.1901 Z-0.3402
N12990 X1.3882 Y4.1897 Z-0.3403
N12995 X1.3907 Y4.1893
N13000 X1.3957 Y4.1889 Z-0.3405
N13005 X1.3982 Y4.1888 Z-0.3406
N13010 X1.4007 Z-0.3407
N13015 X1.4032 Y4.1889 Z-0.3408
N13020 X1.4057 Y4.1892 Z-0.3409
N13025 X1.4082 Y4.1895 Z-0.341
N13030 X1.4106 Y4.1899
N13035 X1.4155 Y4.191 Z-0.3412
N13040 X1.4179 Y4.1917 Z-0.3413
N13045 X1.4203 Y4.1925 Z-0.3414
N13050 X1.4226 Y4.1934 Z-0.3415
N13055 X1.4249 Y4.1944 Z-0.3416
N13060 X1.4272 Y4.1955 Z-0.3417
N13065 X1.4294 Y4.1966
N13070 X1.4337 Y4.1992 Z-0.3419
N13075 X1.4357 Y4.2006 Z-0.342
N13080 X1.4377 Y4.2021 Z-0.3421
N13085 X1.4397 Y4.2036 Z-0.3422
N13090 X1.4415 Y4.2053 Z-0.3423
N13095 X1.4434 Y4.207 Z-0.3424
N13100 X1.4451 Y4.2088
N13105 X1.4484 Y4.2125 Z-0.3426
N13110 X1.4499 Y4.2145 Z-0.3427
N13115 X1.4514 Y4.2165 Z-0.3428
N13120 X1.4527 Y4.2186 Z-0.3429
N13125 X1.454 Y4.2208 Z-0.343
N13130 X1.4552 Y4.223
N13135 X1.4563 Y4.2252 Z-0.3431
N13140 X1.4583 Y4.2298 Z-0.3433
N13145 X1.4591 Y4.2321 Z-0.3434
N13150 X1.4598 Y4.2345 Z-0.3435
N13155 X1.4605 Y4.2369 Z-0.3436
N13160 X1.4611 Y4.2393 Z-0.3437
N13165 X1.4615 Y4.2418
N13170 X1.4619 Y4.2442 Z-0.3438
N13175 X1.4623 Y4.2492 Z-0.344
N13180 X1.4624 Y4.2517 Z-0.3441
N13185 X1.4623 Y4.2542 Z-0.3442
N13190 X1.462 Y4.2591 Z-0.3444
N13195 X1.4613 Y4.2641 Z-0.3445
N13200 X1.4602 Y4.2689 Z-0.3447
N13205 X1.4594 Y4.2713 Z-0.3448
N13210 X1.4587 Y4.2737 Z-0.3449
N13215 X1.4568 Y4.2783 Z-0.345
N13220 X1.4546 Y4.2827 Z-0.3452
N13225 X1.452 Y4.287 Z-0.3454
N13230 X1.4506 Y4.2891 Z-0.3455
N13235 X1.4491 Y4.2911 Z-0.3456
N13240 X1.4476 Y4.293 Z-0.3457
N13245 X1.446 Y4.2949
N13250 X1.4443 Y4.2967 Z-0.3458
N13255 X1.4425 Y4.2984 Z-0.3459
N13260 X1.4388 Y4.3017 Z-0.3461
N13265 X1.4368 Y4.3032 Z-0.3462
N13270 X1.4348 Y4.3046 Z-0.3463
N13275 X1.4327 Y4.306
N13280 X1.4306 Y4.3072 Z-0.3464
N13285 X1.4284 Y4.3084 Z-0.3465
N13290 X1.4262 Y4.3095 Z-0.3466
N13295 X1.4216 Y4.3115 Z-0.3468
N13300 X1.4193 Y4.3123 Z-0.3469
N13305 X1.4169 Y4.313 Z-0.347
N13310 X1.4145 Y4.3137
N13315 X1.4121 Y4.3142 Z-0.3471
N13320 X1.4096 Y4.3147 Z-0.3472
N13325 X1.4072 Y4.3151 Z-0.3473
N13330 X1.4023 Y4.3155 Z-0.3475
N13335 X1.3998 Y4.3156 Z-0.3476
N13340 X1.3973 Y4.3155
N13345 X1.3948 Y4.3154 Z-0.3477
N13350 X1.3924 Y4.3152 Z-0.3478
N13355 X1.3899 Y4.3149 Z-0.3479
N13360 X1.3875 Y4.3145 Z-0.348
N13365 X1.3826 Y4.3134 Z-0.3482
N13370 X1.3803 Y4.3127
N13375 X1.3779 Y4.3119 Z-0.3483
N13380 X1.3756 Y4.311 Z-0.3484
N13385 X1.3733 Y4.31 Z-0.3485
N13390 X1.3711 Y4.309 Z-0.3486
N13395 X1.3689 Y4.3078 Z-0.3487
N13400 X1.3647 Y4.3053 Z-0.3489
N13405 X1.3626 Y4.3039
N13410 X1.3606 Y4.3024 Z-0.349
N13415 X1.3587 Y4.3009 Z-0.3491
N13420 X1.3569 Y4.2992 Z-0.3492
N13425 X1.3551 Y4.2975 Z-0.3493
N13430 X1.3533 Y4.2958 Z-0.3494
N13435 X1.3501 Y4.2921 Z-0.3495
N13440 X1.3486 Y4.2901 Z-0.3496
N13445 X1.3472 Y4.2881 Z-0.3497
N13450 X1.3458 Y4.286 Z-0.3498
N13455 X1.3445 Y4.2839 Z-0.3499
N13460 X1.3434 Y4.2817 Z-0.35
N13465 X1.3423 Y4.2795 Z-0.3501
N13470 X1.3403 Y4.275 Z-0.3502
N13475 X1.3395 Y4.2727 Z-0.3503
N13480 X1.3388 Y4.2703 Z-0.3504
N13485 X1.3381 Y4.2679 Z-0.3505
N13490 X1.3376 Y4.2655 Z-0.3506
N13495 X1.3371 Y4.2631 Z-0.3507
N13500 X1.3367 Y4.2607
N13505 X1.3363 Y4.2557 Z-0.3509
N13510 X1.3362 Y4.2533 Z-0.351
N13515 X1.3363 Y4.2508 Z-0.3511
N13520 X1.3364 Y4.2484 Z-0.3512
N13525 X1.3366 Y4.2459 Z-0.3513
N13530 X1.3369 Y4.2435
N13535 X1.3373 Y4.241 Z-0.3514
N13540 X1.3384 Y4.2362 Z-0.3516
N13545 X1.3391 Y4.2339 Z-0.3517
N13550 X1.3399 Y4.2315 Z-0.3518
N13555 X1.3408 Y4.2292 Z-0.3519
N13560 X1.3418 Y4.227
N13565 X1.3428 Y4.2247 Z-0.352
N13570 X1.344 Y4.2226 Z-0.3521
N13575 X1.3465 Y4.2183 Z-0.3523
N13580 X1.3479 Y4.2163 Z-0.3524
N13585 X1.3493 Y4.2143 Z-0.3525
N13590 X1.3509 Y4.2124
N13595 X1.3525 Y4.2106 Z-0.3526
N13600 X1.3542 Y4.2088 Z-0.3527
N13605 X1.3559 Y4.2071 Z-0.3528
N13610 X1.3596 Y4.2038 Z-0.353
N13615 X1.3616 Y4.2023 Z-0.3531
N13620 X1.3636 Y4.2009
N13625 X1.3657 Y4.1996 Z-0.3532
N13630 X1.3678 Y4.1983 Z-0.3533
N13635 X1.3699 Y4.1971 Z-0.3534
N13640 X1.3721 Y4.196 Z-0.3535
N13645 X1.3766 Y4.1941 Z-0.3537
N13650 X1.3789 Y4.1933
N13655 X1.3813 Y4.1926 Z-0.3538
N13660 X1.3837 Y4.1919 Z-0.3539
N13665 X1.386 Y4.1914 Z-0.354
N13670 X1.3883 Y4.1909 Z-0.3541
N13675 X1.3906 Y4.1906 Z-0.3542
N13680 X1.3952 Y4.1902 Z-0.3543
N13685 X1.3954
N13690 X1.396 Y4.1901 Z-0.3544
N13695 X1.3967
N13700 X1.398
N13705 X1.4006 Z-0.3545
N13710 X1.4032 Y4.1902 Z-0.3546
N13715 X1.4058 Y4.1905 Z-0.3547
N13720 X1.4083 Y4.1908 Z-0.3548
N13725 X1.4109 Y4.1912 Z-0.3549
N13730 X1.4134 Y4.1918 Z-0.355
N13735 X1.4158 Y4.1924 Z-0.3551
N13740 X1.4207 Y4.194 Z-0.3552
N13745 X1.4231 Y4.195 Z-0.3553
N13750 X1.4255 Y4.196 Z-0.3554
N13755 X1.4278 Y4.1972 Z-0.3555
N13760 X1.43 Y4.1984 Z-0.3556
N13765 X1.4322 Y4.1998 Z-0.3557
N13770 X1.4344 Y4.2012 Z-0.3558
N13775 X1.4364 Y4.2027 Z-0.3559
N13780 X1.4385 Y4.2043
N13785 X1.4404 Y4.206 Z-0.356
N13790 X1.4423 Y4.2077 Z-0.3561
N13795 X1.4459 Y4.2115 Z-0.3563
N13800 X1.4475 Y4.2135 Z-0.3564
N13805 X1.4491 Y4.2155 Z-0.3565
N13810 X1.4506 Y4.2176 Z-0.3566
N13815 X1.452 Y4.2198 Z-0.3567
N13820 X1.4533 Y4.222 Z-0.3568
N13825 X1.4545 Y4.2243
N13830 X1.4556 Y4.2266 Z-0.3569
N13835 X1.4566 Y4.229 Z-0.357
N13840 X1.4575 Y4.2314 Z-0.3571
N13845 X1.4583 Y4.2338 Z-0.3572
N13850 X1.459 Y4.2363 Z-0.3573
N13855 X1.4597 Y4.2388 Z-0.3574
N13860 X1.4606 Y4.2439 Z-0.3576
N13865 X1.4609 Y4.2465 Z-0.3577
N13870 X1.461 Y4.249
N13875 X1.4611 Y4.2516 Z-0.3578
N13880 Y4.2541 Z-0.3579
N13885 X1.4607 Y4.2592 Z-0.3581
N13890 X1.4599 Y4.2643 Z-0.3583
N13895 X1.4594 Y4.2668 Z-0.3584
N13900 X1.4587 Y4.2694 Z-0.3585
N13905 X1.4571 Y4.2743 Z-0.3586
N13910 X1.4551 Y4.2789 Z-0.3588
N13915 X1.4527 Y4.2834 Z-0.359
N13920 X1.4514 Y4.2856 Z-0.3591
N13925 X1.45 Y4.2877 Z-0.3592
N13930 X1.4485 Y4.2898 Z-0.3593
N13935 X1.4469 Y4.2918 Z-0.3594
N13940 X1.4452 Y4.2938
N13945 X1.4435 Y4.2957 Z-0.3595
N13950 X1.4416 Y4.2975 Z-0.3596
N13955 X1.4397 Y4.2992 Z-0.3597
N13960 X1.4358 Y4.3023 Z-0.3599
N13965 X1.4337 Y4.3038 Z-0.36
N13970 X1.4316 Y4.3051 Z-0.3601
N13975 X1.4294 Y4.3065 Z-0.3602
N13980 X1.427 Y4.3077
N13985 X1.4247 Y4.3088 Z-0.3603
N13990 X1.4223 Y4.3098 Z-0.3604
N13995 X1.4199 Y4.3107 Z-0.3605
N14000 X1.4175 Y4.3115 Z-0.3606
N14005 X1.4151 Y4.3122 Z-0.3607
N14010 X1.4126 Y4.3128 Z-0.3608
N14015 X1.4076 Y4.3137 Z-0.361
N14020 X1.4051 Y4.314 Z-0.3611
N14025 X1.4025 Y4.3142
N14030 X1.4 Y4.3143 Z-0.3612
N14035 X1.3974 Z-0.3613
N14040 X1.3948 Y4.3142 Z-0.3614
N14045 X1.3923 Y4.3139 Z-0.3615
N14050 X1.3897 Y4.3136 Z-0.3616
N14055 X1.3872 Y4.3131 Z-0.3617
N14060 X1.3848 Y4.3126 Z-0.3618
N14065 X1.3823 Y4.312 Z-0.3619
N14070 X1.3775 Y4.3104 Z-0.362
N14075 X1.3751 Y4.3094 Z-0.3621
N14080 X1.3728 Y4.3084 Z-0.3622
N14085 X1.3705 Y4.3072 Z-0.3623
N14090 X1.3682 Y4.306 Z-0.3624
N14095 X1.3661 Y4.3047 Z-0.3625
N14100 X1.3639 Y4.3032 Z-0.3626
N14105 X1.3619 Y4.3018 Z-0.3627
N14110 X1.3599 Y4.3002
N14115 X1.358 Y4.2985 Z-0.3628
N14120 X1.3561 Y4.2968 Z-0.3629
N14125 X1.3543 Y4.295 Z-0.363
N14130 X1.3526 Y4.2931 Z-0.3631
N14135 X1.3494 Y4.2891 Z-0.3633
N14140 X1.348 Y4.287 Z-0.3634
N14145 X1.3466 Y4.2849 Z-0.3635
N14150 X1.3453 Y4.2827
N14155 X1.3441 Y4.2804 Z-0.3636
N14160 X1.343 Y4.2781 Z-0.3637
N14165 X1.342 Y4.2758 Z-0.3638
N14170 X1.3411 Y4.2734 Z-0.3639
N14175 X1.3403 Y4.271 Z-0.364
N14180 X1.3396 Y4.2685 Z-0.3641
N14185 X1.339 Y4.266 Z-0.3642
N14190 X1.3381 Y4.261 Z-0.3643
N14195 X1.3378 Y4.2585 Z-0.3644
N14200 X1.3376 Y4.256 Z-0.3645
N14205 X1.3375 Y4.2534 Z-0.3646
N14210 Y4.2509 Z-0.3647
N14215 X1.3377 Y4.2484 Z-0.3648
N14220 X1.3379 Y4.2459 Z-0.3649
N14225 X1.3382 Y4.2434 Z-0.365
N14230 X1.3387 Y4.2409
N14235 X1.3392 Y4.2384 Z-0.3651
N14240 X1.3399 Y4.2359 Z-0.3652
N14245 X1.3415 Y4.231 Z-0.3654
N14250 X1.3424 Y4.2287 Z-0.3655
N14255 X1.3434 Y4.2264 Z-0.3656
N14260 X1.3446 Y4.2241 Z-0.3657
N14265 X1.3458 Y4.2219 Z-0.3658
N14270 X1.3471 Y4.2197
N14275 X1.3485 Y4.2176 Z-0.3659
N14280 X1.35 Y4.2156 Z-0.366
N14285 X1.3516 Y4.2136 Z-0.3661
N14290 X1.3533 Y4.2116 Z-0.3662
N14295 X1.355 Y4.2098 Z-0.3663
N14300 X1.3568 Y4.208 Z-0.3664
N14305 X1.3587 Y4.2063 Z-0.3665
N14310 X1.3627 Y4.2031 Z-0.3666
N14315 X1.3647 Y4.2017 Z-0.3667
N14320 X1.3669 Y4.2003 Z-0.3668
N14325 X1.369 Y4.1991 Z-0.3669
N14330 X1.3713 Y4.1979 Z-0.367
N14335 X1.3735 Y4.1968 Z-0.3671
N14340 X1.3758 Y4.1958 Z-0.3672
N14345 X1.3782 Y4.1949 Z-0.3673
N14350 X1.3806 Y4.1941 Z-0.3674
N14355 X1.3831 Y4.1934
N14360 X1.3855 Y4.1928 Z-0.3675
N14365 X1.3905 Y4.1919 Z-0.3677
N14370 X1.393 Y4.1916 Z-0.3678
N14375 X1.3955 Y4.1914 Z-0.3679
N14380 X1.398 Z-0.368
N14385 X1.4006 Z-0.3681
N14390 X1.4031 Y4.1915
N14395 X1.4057 Y4.1917 Z-0.3682
N14400 X1.4081 Y4.1921 Z-0.3683
N14405 X1.4106 Y4.1925 Z-0.3684
N14410 X1.4131 Y4.193 Z-0.3685
N14415 X1.4155 Y4.1937 Z-0.3686
N14420 X1.4203 Y4.1952 Z-0.3688
N14425 X1.4226 Y4.1962
N14430 X1.4249 Y4.1972 Z-0.3689
N14435 X1.4272 Y4.1983 Z-0.369
N14440 X1.4294 Y4.1996 Z-0.3691
N14445 X1.4316 Y4.2009 Z-0.3692
N14450 X1.4336 Y4.2023 Z-0.3693
N14455 X1.4357 Y4.2037 Z-0.3694
N14460 X1.4377 Y4.2053 Z-0.3695
N14465 X1.4396 Y4.207 Z-0.3696
N14470 X1.4414 Y4.2087
N14475 X1.4449 Y4.2123 Z-0.3698
N14480 X1.4465 Y4.2143 Z-0.3699
N14485 X1.448 Y4.2163 Z-0.37
N14490 X1.4495 Y4.2184 Z-0.3701
N14495 X1.4509 Y4.2205 Z-0.3702
N14500 X1.4521 Y4.2227 Z-0.3703
N14505 X1.4533 Y4.2249
N14510 X1.4544 Y4.2272 Z-0.3704
N14515 X1.4554 Y4.2295 Z-0.3705
N14520 X1.4563 Y4.2318 Z-0.3706
N14525 X1.4571 Y4.2342 Z-0.3707
N14530 X1.4578 Y4.2366 Z-0.3708
N14535 X1.4584 Y4.2391 Z-0.3709
N14540 X1.4593 Y4.2441 Z-0.371
N14545 X1.4596 Y4.2466 Z-0.3711
N14550 X1.4597 Y4.2491 Z-0.3712
N14555 X1.4598 Y4.2516 Z-0.3713
N14560 Y4.2541 Z-0.3714
N14565 X1.4594 Y4.2591 Z-0.3716
N14570 X1.4586 Y4.2641 Z-0.3717
N14575 X1.4581 Y4.2665 Z-0.3718
N14580 X1.4575 Y4.269 Z-0.3719
N14585 X1.4559 Y4.2738 Z-0.3721
N14590 X1.4539 Y4.2783 Z-0.3723
N14595 X1.4516 Y4.2827 Z-0.3724
N14600 X1.4503 Y4.2849 Z-0.3725
N14605 X1.4489 Y4.287 Z-0.3726
N14610 X1.4475 Y4.289 Z-0.3727
N14615 X1.4459 Y4.291 Z-0.3728
N14620 X1.4442 Y4.2929 Z-0.3729
N14625 X1.4425 Y4.2948 Z-0.373
N14630 X1.4407 Y4.2965 Z-0.3731
N14635 X1.4389 Y4.2982 Z-0.3732
N14640 X1.435 Y4.3013 Z-0.3733
N14645 X1.433 Y4.3027 Z-0.3734
N14650 X1.4309 Y4.304 Z-0.3735
N14655 X1.4287 Y4.3053 Z-0.3736
N14660 X1.4264 Y4.3065 Z-0.3737
N14665 X1.4242 Y4.3076 Z-0.3738
N14670 X1.4218 Y4.3086 Z-0.3739
N14675 X1.4195 Y4.3095
N14680 X1.4171 Y4.3103 Z-0.374
N14685 X1.4147 Y4.311 Z-0.3741
N14690 X1.4123 Y4.3116 Z-0.3742
N14695 X1.4074 Y4.3124 Z-0.3744
N14700 X1.4049 Y4.3127 Z-0.3745
N14705 X1.4024 Y4.3129
N14710 X1.3999 Y4.313 Z-0.3746
N14715 X1.3974 Z-0.3747
N14720 X1.3949 Y4.3128 Z-0.3748
N14725 X1.3924 Y4.3126 Z-0.3749
N14730 X1.3899 Y4.3123 Z-0.375
N14735 X1.3875 Y4.3118 Z-0.3751
N14740 X1.3851 Y4.3113 Z-0.3752
N14745 X1.3827 Y4.3107
N14750 X1.3779 Y4.3091 Z-0.3754
N14755 X1.3756 Y4.3082 Z-0.3755
N14760 X1.3733 Y4.3072 Z-0.3756
N14765 X1.3711 Y4.3061 Z-0.3757
N14770 X1.3689 Y4.3048 Z-0.3758
N14775 X1.3668 Y4.3035 Z-0.3759
N14780 X1.3647 Y4.3022
N14785 X1.3627 Y4.3007 Z-0.376
N14790 X1.3607 Y4.2992 Z-0.3761
N14795 X1.3588 Y4.2975 Z-0.3762
N14800 X1.357 Y4.2958 Z-0.3763
N14805 X1.3553 Y4.2941 Z-0.3764
N14810 X1.3536 Y4.2922 Z-0.3765
N14815 X1.3505 Y4.2883 Z-0.3766
N14820 X1.349 Y4.2863 Z-0.3767
N14825 X1.3477 Y4.2842 Z-0.3768
N14830 X1.3464 Y4.282 Z-0.3769
N14835 X1.3453 Y4.2798 Z-0.377
N14840 X1.3442 Y4.2776 Z-0.3771
N14845 X1.3432 Y4.2753 Z-0.3772
N14850 X1.3423 Y4.2729
N14855 X1.3416 Y4.2706 Z-0.3773
N14860 X1.3409 Y4.2682 Z-0.3774
N14865 X1.3403 Y4.2657 Z-0.3775
N14870 X1.3394 Y4.2608 Z-0.3777
N14875 X1.3391 Y4.2584 Z-0.3778
N14880 X1.3389 Y4.2559 Z-0.3779
N14885 X1.3388 Y4.2534
N14890 X1.3389 Y4.2509 Z-0.378
N14895 X1.339 Y4.2485 Z-0.3781
N14900 X1.3392 Y4.246 Z-0.3782
N14905 X1.3395 Y4.2435 Z-0.3783
N14910 X1.34 Y4.2411 Z-0.3784
N14915 X1.3405 Y4.2387 Z-0.3785
N14920 X1.3411 Y4.2362
N14925 X1.3427 Y4.2315 Z-0.3787
N14930 X1.3436 Y4.2292 Z-0.3788
N14935 X1.3446 Y4.2269 Z-0.3789
N14940 X1.3457 Y4.2247 Z-0.379
N14945 X1.347 Y4.2225 Z-0.3791
N14950 X1.3482 Y4.2204 Z-0.3792
N14955 X1.3496 Y4.2184
N14960 X1.3511 Y4.2164 Z-0.3793
N14965 X1.3526 Y4.2144 Z-0.3794
N14970 X1.3542 Y4.2125 Z-0.3795
N14975 X1.3559 Y4.2107 Z-0.3796
N14980 X1.3577 Y4.209 Z-0.3797
N14985 X1.3595 Y4.2073 Z-0.3798
N14990 X1.3634 Y4.2042 Z-0.3799
N14995 X1.3655 Y4.2028 Z-0.38
N15000 X1.3676 Y4.2015 Z-0.3801
N15005 X1.3697 Y4.2002 Z-0.3802
N15010 X1.3719 Y4.1991 Z-0.3803
N15015 X1.3741 Y4.198 Z-0.3804
N15020 X1.3763 Y4.197
N15025 X1.3787 Y4.1962 Z-0.3805
N15030 X1.381 Y4.1954 Z-0.3806
N15035 X1.3834 Y4.1947 Z-0.3807
N15040 X1.3858 Y4.1941 Z-0.3808
N15045 X1.3907 Y4.1932 Z-0.381
N15050 X1.3931 Y4.1929 Z-0.3811
N15055 X1.3956 Y4.1927
N15060 X1.3981 Z-0.3812
N15065 X1.4005 Z-0.3813
N15070 X1.403 Y4.1928 Z-0.3814
N15075 X1.4055 Y4.193 Z-0.3815
N15080 X1.4079 Y4.1934 Z-0.3816
N15085 X1.4104 Y4.1938 Z-0.3817
N15090 X1.4128 Y4.1943
N15095 X1.4152 Y4.1949 Z-0.3818
N15100 X1.4199 Y4.1965 Z-0.382
N15105 X1.4221 Y4.1974 Z-0.3821
N15110 X1.4244 Y4.1984 Z-0.3822
N15115 X1.4266 Y4.1995 Z-0.3823
N15120 X1.4288 Y4.2007
N15125 X1.4309 Y4.202 Z-0.3824
N15130 X1.4329 Y4.2034 Z-0.3825
N15135 X1.4349 Y4.2048 Z-0.3826
N15140 X1.4369 Y4.2063 Z-0.3827
N15145 X1.4387 Y4.208 Z-0.3828
N15150 X1.4405 Y4.2096 Z-0.3829
N15155 X1.4439 Y4.2132 Z-0.383
N15160 X1.4455 Y4.2151 Z-0.3831
N15165 X1.447 Y4.2171 Z-0.3832
N15170 X1.4484 Y4.2191 Z-0.3833
N15175 X1.4497 Y4.2212 Z-0.3834
N15180 X1.451 Y4.2233 Z-0.3835
N15185 X1.4521 Y4.2255 Z-0.3836
N15190 X1.4532 Y4.2277
N15195 X1.4542 Y4.23 Z-0.3837
N15200 X1.455 Y4.2323 Z-0.3838
N15205 X1.4558 Y4.2346 Z-0.3839
N15210 X1.4565 Y4.237 Z-0.384
N15215 X1.4571 Y4.2394 Z-0.3841
N15220 X1.458 Y4.2442 Z-0.3842
N15225 X1.4582 Y4.2467 Z-0.3843
N15230 X1.4584 Y4.2491 Z-0.3844
N15235 X1.4585 Y4.2516 Z-0.3845
N15240 X1.4584 Y4.254 Z-0.3846
N15245 X1.4581 Y4.2589 Z-0.3848
N15250 X1.4574 Y4.2638 Z-0.3849
N15255 X1.4568 Y4.2662 Z-0.385
N15260 X1.4562 Y4.2686 Z-0.3851
N15265 X1.4546 Y4.2733 Z-0.3853
N15270 X1.4527 Y4.2778 Z-0.3854
N15275 X1.4505 Y4.2821 Z-0.3856
N15280 X1.4492 Y4.2842 Z-0.3857
N15285 X1.4478 Y4.2863 Z-0.3858
N15290 X1.4464 Y4.2883 Z-0.3859
N15295 X1.4449 Y4.2902 Z-0.386
N15300 X1.4433 Y4.292
N15305 X1.4416 Y4.2938 Z-0.3861
N15310 X1.4398 Y4.2956 Z-0.3862
N15315 X1.438 Y4.2972 Z-0.3863
N15320 X1.4342 Y4.3002 Z-0.3865
N15325 X1.4322 Y4.3016 Z-0.3866
N15330 X1.4301 Y4.303
N15335 X1.428 Y4.3042 Z-0.3867
N15340 X1.4258 Y4.3054 Z-0.3868
N15345 X1.4236 Y4.3064 Z-0.3869
N15350 X1.4214 Y4.3074 Z-0.387
N15355 X1.4191 Y4.3082 Z-0.3871
N15360 X1.4168 Y4.309 Z-0.3872
N15365 X1.4144 Y4.3097
N15370 X1.412 Y4.3103 Z-0.3873
N15375 X1.4072 Y4.3111 Z-0.3875
N15380 X1.4048 Y4.3114 Z-0.3876
N15385 X1.4024 Y4.3116 Z-0.3877
N15390 X1.3999 Y4.3117
N15395 X1.3975 Y4.3116 Z-0.3878
N15400 X1.395 Y4.3115 Z-0.3879
N15405 X1.3926 Y4.3113 Z-0.388
N15410 X1.3902 Y4.311 Z-0.3881
N15415 X1.3877 Y4.3106 Z-0.3882
N15420 X1.3854 Y4.31 Z-0.3883
N15425 X1.383 Y4.3094
N15430 X1.3784 Y4.3079 Z-0.3885
N15435 X1.3761 Y4.307 Z-0.3886
N15440 X1.3739 Y4.306 Z-0.3887
N15445 X1.3717 Y4.3049 Z-0.3888
N15450 X1.3695 Y4.3037 Z-0.3889
N15455 X1.3675 Y4.3024
N15460 X1.3654 Y4.3011 Z-0.389
N15465 X1.3635 Y4.2996 Z-0.3891
N15470 X1.3615 Y4.2981 Z-0.3892
N15475 X1.3597 Y4.2965 Z-0.3893
N15480 X1.3579 Y4.2949 Z-0.3894
N15485 X1.3562 Y4.2931 Z-0.3895
N15490 X1.3546 Y4.2913
N15495 X1.3515 Y4.2875 Z-0.3897
N15500 X1.3501 Y4.2855 Z-0.3898
N15505 X1.3488 Y4.2835 Z-0.3899
N15510 X1.3476 Y4.2813 Z-0.39
N15515 X1.3465 Y4.2792
N15520 X1.3454 Y4.277 Z-0.3901
N15525 X1.3445 Y4.2748 Z-0.3902
N15530 X1.3436 Y4.2725 Z-0.3903
N15535 X1.3428 Y4.2702 Z-0.3904
N15540 X1.3421 Y4.2678 Z-0.3905
N15545 X1.3416 Y4.2655 Z-0.3906
N15550 X1.3407 Y4.2607 Z-0.3907
N15555 X1.3404 Y4.2583 Z-0.3908
N15560 X1.3402 Y4.2558 Z-0.3909
N15565 Y4.2534 Z-0.391
N15570 Y4.251 Z-0.3911
N15575 X1.3403 Y4.2485 Z-0.3912
N15580 X1.3405 Y4.2461
N15585 X1.3409 Y4.2437 Z-0.3913
N15590 X1.3413 Y4.2413 Z-0.3914
N15595 X1.3418 Y4.2389 Z-0.3915
N15600 X1.3424 Y4.2366 Z-0.3916
N15605 X1.3439 Y4.232 Z-0.3917
N15610 X1.3448 Y4.2297 Z-0.3918
N15615 X1.3458 Y4.2275 Z-0.3919
N15620 X1.3469 Y4.2253 Z-0.392
N15625 X1.3481 Y4.2232 Z-0.3921
N15630 X1.3494 Y4.2211 Z-0.3922
N15635 X1.3507 Y4.2191 Z-0.3923
N15640 X1.3521 Y4.2172
N15645 X1.3536 Y4.2153 Z-0.3924
N15650 X1.3552 Y4.2134 Z-0.3925
N15655 X1.3569 Y4.2117 Z-0.3926
N15660 X1.3586 Y4.21 Z-0.3927
N15665 X1.3604 Y4.2083 Z-0.3928
N15670 X1.3642 Y4.2053 Z-0.3929
N15675 X1.3662 Y4.2039 Z-0.393
N15680 X1.3682 Y4.2026 Z-0.3931
N15685 X1.3703 Y4.2014 Z-0.3932
N15690 X1.3725 Y4.2003 Z-0.3933
N15695 X1.3746 Y4.1992 Z-0.3934
N15700 X1.3769 Y4.1983
N15705 X1.3803 Y4.197 Z-0.3936
N15710 X1.3821 Y4.1964
N15715 X1.3839 Y4.1959 Z-0.3937
N15720 X1.3841
N15725 X1.3853 Y4.1956
N15730 X1.3866 Y4.1953 Z-0.3938
N15735 X1.3891 Y4.1948 Z-0.3939
N15740 X1.3917 Y4.1944 Z-0.394
N15745 X1.3943 Y4.1942 Z-0.3941
N15750 X1.3969 Y4.194 Z-0.3942
N15755 X1.3995
N15760 X1.4021 Y4.1941 Z-0.3943
N15765 X1.4047 Y4.1943 Z-0.3944
N15770 X1.4073 Y4.1946 Z-0.3945
N15775 X1.4099 Y4.1951 Z-0.3946
N15780 X1.4125 Y4.1956 Z-0.3947
N15785 X1.4151 Y4.1963 Z-0.3948
N15790 X1.4176 Y4.1971 Z-0.3949
N15795 X1.42 Y4.198 Z-0.395
N15800 X1.4224 Y4.199 Z-0.3951
N15805 X1.4248 Y4.2001 Z-0.3952
N15810 X1.4271 Y4.2013
N15815 X1.4293 Y4.2026 Z-0.3953
N15820 X1.4315 Y4.204 Z-0.3954
N15825 X1.4337 Y4.2056 Z-0.3955
N15830 X1.4357 Y4.2072 Z-0.3956
N15835 X1.4377 Y4.2089 Z-0.3957
N15840 X1.4396 Y4.2107 Z-0.3958
N15845 X1.4415 Y4.2126 Z-0.3959
N15850 X1.4432 Y4.2145 Z-0.396
N15855 X1.4449 Y4.2165 Z-0.3961
N15860 X1.4464 Y4.2186 Z-0.3962
N15865 X1.4479 Y4.2208 Z-0.3963
N15870 X1.4493 Y4.223
N15875 X1.4505 Y4.2253 Z-0.3964
N15880 X1.4517 Y4.2277 Z-0.3965
N15885 X1.4527 Y4.2301 Z-0.3966
N15890 X1.4537 Y4.2325 Z-0.3967
N15895 X1.4545 Y4.235 Z-0.3968
N15900 X1.4552 Y4.2375 Z-0.3969
N15905 X1.4558 Y4.24 Z-0.397
N15910 X1.4563 Y4.2426 Z-0.3971
N15915 X1.4567 Y4.2452 Z-0.3972
N15920 X1.457 Y4.2479 Z-0.3973
N15925 X1.4571 Y4.2505 Z-0.3974
N15930 X1.457 Y4.2556 Z-0.3975
N15935 X1.4568 Y4.2582 Z-0.3976
N15940 X1.4565 Y4.2607 Z-0.3977
N15945 X1.4555 Y4.2659 Z-0.3979
N15950 X1.454 Y4.271 Z-0.3981
N15955 X1.4531 Y4.2734 Z-0.3982
N15960 X1.4521 Y4.2758 Z-0.3983
N15965 X1.4498 Y4.2805 Z-0.3984
N15970 X1.4485 Y4.2827 Z-0.3985
N15975 X1.4471 Y4.2849 Z-0.3986
N15980 X1.4456 Y4.287 Z-0.3987
N15985 X1.4441 Y4.289 Z-0.3988
N15990 X1.4424 Y4.291 Z-0.3989
N15995 X1.4406 Y4.2929 Z-0.399
N16000 X1.4387 Y4.2948 Z-0.3991
N16005 X1.4367 Y4.2965 Z-0.3992
N16010 X1.4347 Y4.2981 Z-0.3993
N16015 X1.4326 Y4.2997
N16020 X1.4305 Y4.3011 Z-0.3994
N16025 X1.4282 Y4.3025 Z-0.3995
N16030 X1.426 Y4.3037 Z-0.3996
N16035 X1.4236 Y4.3049 Z-0.3997
N16040 X1.4213 Y4.3059 Z-0.3998
N16045 X1.4188 Y4.3069 Z-0.3999
N16050 X1.4164 Y4.3077 Z-0.4
N16055 X1.4139 Y4.3084 Z-0.4001
N16060 X1.4114 Y4.309 Z-0.4002
N16065 X1.4088 Y4.3095 Z-0.4003
N16070 X1.4062 Y4.3099
N16075 X1.4036 Y4.3101 Z-0.4004
N16080 X1.401 Y4.3103 Z-0.4005
N16085 X1.3984 Z-0.4006
N16090 X1.3958 Y4.3102 Z-0.4007
N16095 X1.3933 Y4.31 Z-0.4008
N16100 X1.3907 Y4.3097 Z-0.4009
N16105 X1.3882 Y4.3092 Z-0.401
N16110 X1.3857 Y4.3087 Z-0.4011
N16115 X1.3832 Y4.308 Z-0.4012
N16120 X1.3807 Y4.3073
N16125 X1.3783 Y4.3064 Z-0.4013
N16130 X1.3759 Y4.3054 Z-0.4014
N16135 X1.3735 Y4.3043 Z-0.4015
N16140 X1.3713 Y4.3031 Z-0.4016
N16145 X1.369 Y4.3018 Z-0.4017
N16150 X1.3668 Y4.3004 Z-0.4018
N16155 X1.3647 Y4.2989 Z-0.4019
N16160 X1.3627 Y4.2973 Z-0.402
N16165 X1.3607 Y4.2956 Z-0.4021
N16170 X1.3588 Y4.2938
N16175 X1.357 Y4.292 Z-0.4022
N16180 X1.3553 Y4.29 Z-0.4023
N16185 X1.3536 Y4.288 Z-0.4024
N16190 X1.3521 Y4.2859 Z-0.4025
N16195 X1.3506 Y4.2838 Z-0.4026
N16200 X1.3493 Y4.2816 Z-0.4027
N16205 X1.348 Y4.2793 Z-0.4028
N16210 X1.3469 Y4.277 Z-0.4029
N16215 X1.3459 Y4.2746 Z-0.403
N16220 X1.3449 Y4.2722 Z-0.4031
N16225 X1.3441 Y4.2697
N16230 X1.3434 Y4.2672 Z-0.4032
N16235 X1.3428 Y4.2648 Z-0.4033
N16240 X1.3423 Y4.2622 Z-0.4034
N16245 X1.342 Y4.2597 Z-0.4035
N16250 X1.3417 Y4.2571 Z-0.4036
N16255 X1.3416 Y4.2545 Z-0.4037
N16260 X1.3415 Y4.2519 Z-0.4038
N16265 X1.3416 Y4.2493 Z-0.4039
N16270 X1.3418 Y4.2468 Z-0.404
N16275 X1.3422 Y4.2442
N16280 X1.3426 Y4.2417 Z-0.4041
N16285 X1.3431 Y4.2392 Z-0.4042
N16290 X1.3438 Y4.2367 Z-0.4043
N16295 X1.3446 Y4.2343 Z-0.4044
N16300 X1.3454 Y4.2319 Z-0.4045
N16305 X1.3464 Y4.2295 Z-0.4046
N16310 X1.3475 Y4.2272 Z-0.4047
N16315 X1.3487 Y4.2249 Z-0.4048
N16320 X1.35 Y4.2227
N16325 X1.3514 Y4.2205 Z-0.4049
N16330 X1.3529 Y4.2184 Z-0.405
N16335 X1.3545 Y4.2164 Z-0.4051
N16340 X1.3562 Y4.2144 Z-0.4052
N16345 X1.3579 Y4.2125 Z-0.4053
N16350 X1.3598 Y4.2107 Z-0.4054
N16355 X1.3617 Y4.209 Z-0.4055
N16360 X1.3637 Y4.2074 Z-0.4056
N16365 X1.3657 Y4.2059 Z-0.4057
N16370 X1.3679 Y4.2044
N16375 X1.3701 Y4.2031 Z-0.4058
N16380 X1.3723 Y4.2019 Z-0.4059
N16385 X1.3746 Y4.2007 Z-0.406
N16390 X1.377 Y4.1997 Z-0.4061
N16395 X1.3794 Y4.1987 Z-0.4062
N16400 X1.3819 Y4.1979 Z-0.4063
N16405 X1.3844 Y4.1972 Z-0.4064
N16410 X1.3869 Y4.1966 Z-0.4065
N16415 X1.3894 Y4.1961 Z-0.4066
N16420 X1.3919 Y4.1958
N16425 X1.3944 Y4.1955 Z-0.4067
N16430 X1.3969 Y4.1954 Z-0.4068
N16435 X1.3995 Z-0.4069
N16440 X1.402 Y4.1955 Z-0.407
N16445 X1.4046 Y4.1957 Z-0.4071
N16450 X1.4071 Y4.196 Z-0.4072
N16455 X1.4097 Y4.1964 Z-0.4073
N16460 X1.4122 Y4.197 Z-0.4074
N16465 X1.4147 Y4.1976
N16470 X1.4171 Y4.1984 Z-0.4075
N16475 X1.4195 Y4.1993 Z-0.4076
N16480 X1.4219 Y4.2002 Z-0.4077
N16485 X1.4242 Y4.2013 Z-0.4078
N16490 X1.4265 Y4.2025 Z-0.4079
N16495 X1.4287 Y4.2038 Z-0.408
N16500 X1.4308 Y4.2052 Z-0.4081
N16505 X1.4329 Y4.2067 Z-0.4082
N16510 X1.4349 Y4.2082
N16515 X1.4368 Y4.2099 Z-0.4083
N16520 X1.4387 Y4.2117 Z-0.4084
N16525 X1.4405 Y4.2135 Z-0.4085
N16530 X1.4422 Y4.2154 Z-0.4086
N16535 X1.4438 Y4.2174 Z-0.4087
N16540 X1.4454 Y4.2194 Z-0.4088
N16545 X1.4468 Y4.2216 Z-0.4089
N16550 X1.4481 Y4.2237 Z-0.409
N16555 X1.4493 Y4.226 Z-0.4091
N16560 X1.4505 Y4.2283
N16565 X1.4515 Y4.2306 Z-0.4092
N16570 X1.4524 Y4.233 Z-0.4093
N16575 X1.4532 Y4.2354 Z-0.4094
N16580 X1.4539 Y4.2378 Z-0.4095
N16585 X1.4545 Y4.2403 Z-0.4096
N16590 X1.455 Y4.2428 Z-0.4097
N16595 X1.4554 Y4.2454 Z-0.4098
N16600 X1.4556 Y4.2479 Z-0.4099
N16605 X1.4558 Y4.2505
N16610 X1.4557 Y4.2556 Z-0.4101
N16615 X1.4555 Y4.2581 Z-0.4102
N16620 X1.4552 Y4.2606 Z-0.4103
N16625 X1.4542 Y4.2656 Z-0.4105
N16630 X1.4527 Y4.2706 Z-0.4107
N16635 X1.4519 Y4.2729
N16640 X1.4509 Y4.2753 Z-0.4108
N16645 X1.4486 Y4.2798 Z-0.411
N16650 X1.4474 Y4.282 Z-0.4111
