%
O09717 (Thermocyler_Block_6)
(Using high feed G1 F500. instead of G0.)
(T8 D=0.125 CR=0. - ZMIN=-0.7087 - flat end mill)
N10 G90 G94 G17
N15 G20
N20 G53 G0 Z0.

(Ramp1)
N30 T8 M6
N35 S4000 M3
N40 G54
N45 M8
N60 G0 X1.4396 Y3.9906
N65 G43 Z0.5906 H8
N70 G0 Z0.0761
N75 G1 Z0. F8.
N80 G3 X1.4449 Y4.0131 I-0.002 J0.0123
N85 G1 X1.4409 Y4.016 Z-0.0002
N90 X1.4367 Y4.0187 Z-0.0003
N95 X1.4353 Y4.0195 Z-0.0004
N100 X1.4297 Y4.0223 Z-0.0006
N105 X1.425 Y4.0243 Z-0.0008
N110 X1.4241 Y4.0246
N115 X1.4185 Y4.0263 Z-0.001
N120 X1.4129 Y4.0276 Z-0.0012
N125 X1.4073 Y4.0284 Z-0.0014
N130 X1.4017 Y4.0289 Z-0.0016
N135 X1.3961 Z-0.0018
N140 X1.3906 Y4.0284 Z-0.002
N145 X1.385 Y4.0276 Z-0.0022
N150 X1.3794 Y4.0263 Z-0.0024
N155 X1.3738 Y4.0245 Z-0.0026
N160 X1.3731 Y4.0243 Z-0.0027
N165 X1.3682 Y4.0222 Z-0.0028
N170 X1.3626 Y4.0194 Z-0.0031
N175 X1.3613 Y4.0187
N180 X1.357 Y4.0159 Z-0.0033
N185 X1.3531 Y4.0131 Z-0.0035
N190 X1.3514 Y4.0118
N195 X1.3491 Y4.0097 Z-0.0036
N200 X1.3467 Y4.0075 Z-0.0038
N205 X1.3459 Y4.0066
N210 X1.3416 Y4.0019 Z-0.004
N215 X1.3403 Y4.0002 Z-0.0041
N220 X1.3375 Y3.9963 Z-0.0043
N225 X1.3347 Y3.9919 Z-0.0044
N230 X1.334 Y3.9907 Z-0.0045
N235 X1.3312 Y3.9851 Z-0.0047
N240 X1.3291 Y3.98 Z-0.0049
N245 X1.3289 Y3.9795
N250 X1.328 Y3.9768 Z-0.005
N255 X1.3271 Y3.974 Z-0.0051
N260 X1.3259 Y3.9684 Z-0.0053
N265 X1.325 Y3.9628 Z-0.0055
N270 X1.3246 Y3.9572 Z-0.0057
N275 Y3.9516 Z-0.0059
N280 X1.325 Y3.946 Z-0.0061
N285 X1.3259 Y3.9404 Z-0.0063
N290 X1.3272 Y3.9348 Z-0.0065
N295 X1.329 Y3.9293 Z-0.0067
N300 X1.3291 Y3.929
N305 X1.3313 Y3.9237 Z-0.0069
N310 X1.3341 Y3.9181 Z-0.0071
N315 X1.3347 Y3.9171 Z-0.0072
N320 X1.3376 Y3.9125 Z-0.0074
N325 X1.3403 Y3.9088 Z-0.0075
N330 X1.3418 Y3.9069 Z-0.0076
N335 X1.3459 Y3.9024 Z-0.0078
N340 X1.3469 Y3.9013 Z-0.0079
N345 X1.3514 Y3.8972 Z-0.0081
N350 X1.3534 Y3.8957 Z-0.0082
N355 X1.357 Y3.8931 Z-0.0083
N360 X1.3617 Y3.8901 Z-0.0085
N365 X1.3626 Y3.8896 Z-0.0086
N370 X1.3682 Y3.8868 Z-0.0088
N375 X1.3737 Y3.8845 Z-0.009
N380 X1.3738
N385 X1.3794 Y3.8827 Z-0.0092
N390 X1.385 Y3.8814 Z-0.0094
N395 X1.3906 Y3.8806 Z-0.0096
N400 X1.3961 Y3.8801 Z-0.0098
N405 X1.4017 Z-0.01
N410 X1.4073 Y3.8806 Z-0.0102
N415 X1.4129 Y3.8814 Z-0.0104
N420 X1.4185 Y3.8827 Z-0.0106
N425 X1.4241 Y3.8844 Z-0.0108
N430 X1.4244 Y3.8845
N435 X1.4297 Y3.8867 Z-0.011
N440 X1.4353 Y3.8895 Z-0.0112
N445 X1.4364 Y3.8901 Z-0.0113
N450 X1.4409 Y3.893 Z-0.0114
N455 X1.4447 Y3.8957 Z-0.0116
N460 X1.4464 Y3.8972 Z-0.0117
N465 X1.451 Y3.9013 Z-0.0119
N470 X1.452 Y3.9023 Z-0.012
N475 X1.4562 Y3.9069 Z-0.0122
N480 X1.4576 Y3.9087
N485 X1.4604 Y3.9125 Z-0.0124
N490 X1.4632 Y3.9168 Z-0.0126
N495 X1.4639 Y3.9181
N500 X1.4667 Y3.9237 Z-0.0129
N505 X1.4688 Y3.9287 Z-0.0131
N510 X1.469 Y3.9293
N515 X1.4708 Y3.9348 Z-0.0133
N520 X1.4721 Y3.9404 Z-0.0135
N525 X1.4729 Y3.946 Z-0.0137
N530 X1.4733 Y3.9516 Z-0.0139
N535 X1.4734 Y3.9572 Z-0.0141
N540 X1.4729 Y3.9628 Z-0.0143
N545 X1.4721 Y3.9684 Z-0.0145
N550 X1.4708 Y3.974 Z-0.0147
N555 X1.4691 Y3.9795 Z-0.0149
N560 X1.4688 Y3.9803
N565 X1.4668 Y3.9851 Z-0.0151
N570 X1.464 Y3.9907 Z-0.0153
N575 X1.4632 Y3.9922 Z-0.0154
N580 X1.4606 Y3.9963 Z-0.0155
N585 X1.4576 Y4.0003 Z-0.0157
N590 X1.4564 Y4.0019 Z-0.0158
N595 X1.452 Y4.0067 Z-0.016
N600 X1.4512 Y4.0075
N605 X1.4464 Y4.0118 Z-0.0163
N610 X1.4449 Y4.0131
N615 X1.4409 Y4.016 Z-0.0165
N620 X1.4367 Y4.0187 Z-0.0167
N625 X1.4353 Y4.0195
N630 X1.4297 Y4.0223 Z-0.0169
N635 X1.425 Y4.0243 Z-0.0171
N640 X1.4241 Y4.0246 Z-0.0172
N645 X1.4185 Y4.0263 Z-0.0174
N650 X1.4129 Y4.0276 Z-0.0176
N655 X1.4073 Y4.0284 Z-0.0178
N660 X1.4017 Y4.0289 Z-0.018
N665 X1.3961 Z-0.0182
N670 X1.3906 Y4.0284 Z-0.0183
N675 X1.385 Y4.0276 Z-0.0185
N680 X1.3794 Y4.0263 Z-0.0187
N685 X1.3738 Y4.0245 Z-0.019
N690 X1.3731 Y4.0243
N695 X1.3682 Y4.0222 Z-0.0192
N700 X1.3626 Y4.0194 Z-0.0194
N705 X1.3613 Y4.0187
N710 X1.357 Y4.0159 Z-0.0196
N715 X1.3531 Y4.0131 Z-0.0198
N720 X1.3514 Y4.0118 Z-0.0199
N725 X1.3491 Y4.0097 Z-0.02
N730 X1.3467 Y4.0075 Z-0.0201
N735 X1.3459 Y4.0066
N740 X1.3416 Y4.0019 Z-0.0203
N745 X1.3403 Y4.0002 Z-0.0204
N750 X1.3375 Y3.9963 Z-0.0206
N755 X1.3347 Y3.9919 Z-0.0208
N760 X1.334 Y3.9907
N765 X1.3312 Y3.9851 Z-0.021
N770 X1.3291 Y3.98 Z-0.0212
N775 X1.3289 Y3.9795
N780 X1.328 Y3.9768 Z-0.0213
N785 X1.3271 Y3.974 Z-0.0214
N790 X1.3259 Y3.9684 Z-0.0216
N795 X1.325 Y3.9628 Z-0.0218
N800 X1.3246 Y3.9572 Z-0.022
N805 Y3.9516 Z-0.0222
N810 X1.325 Y3.946 Z-0.0224
N815 X1.3259 Y3.9404 Z-0.0226
N820 X1.3272 Y3.9348 Z-0.0228
N825 X1.329 Y3.9293 Z-0.023
N830 X1.3291 Y3.929
N835 X1.3313 Y3.9237 Z-0.0232
N840 X1.3341 Y3.9181 Z-0.0235
N845 X1.3347 Y3.9171
N850 X1.3376 Y3.9125 Z-0.0237
N855 X1.3403 Y3.9088 Z-0.0239
N860 X1.3418 Y3.9069
N865 X1.3459 Y3.9024 Z-0.0241
N870 X1.3469 Y3.9013 Z-0.0242
N875 X1.3514 Y3.8972 Z-0.0244
N880 X1.3534 Y3.8957 Z-0.0245
N885 X1.357 Y3.8931 Z-0.0247
N890 X1.3617 Y3.8901 Z-0.0249
N895 X1.3626 Y3.8896
N900 X1.3682 Y3.8868 Z-0.0251
N905 X1.3737 Y3.8845 Z-0.0253
N910 X1.3738
N915 X1.3794 Y3.8827 Z-0.0255
N920 X1.385 Y3.8814 Z-0.0257
N925 X1.3906 Y3.8806 Z-0.0259
N930 X1.3961 Y3.8801 Z-0.0261
N935 X1.4017 Z-0.0263
N940 X1.4073 Y3.8806 Z-0.0265
N945 X1.4129 Y3.8814 Z-0.0267
N950 X1.4185 Y3.8827 Z-0.0269
N955 X1.4241 Y3.8844 Z-0.0271
N960 X1.4244 Y3.8845
N965 X1.4297 Y3.8867 Z-0.0273
N970 X1.4353 Y3.8895 Z-0.0275
N975 X1.4364 Y3.8901 Z-0.0276
N980 X1.4409 Y3.893 Z-0.0278
N985 X1.4447 Y3.8957 Z-0.0279
N990 X1.4464 Y3.8972 Z-0.028
N995 X1.451 Y3.9013 Z-0.0282
N1000 X1.452 Y3.9023 Z-0.0283
N1005 X1.4562 Y3.9069 Z-0.0285
N1010 X1.4576 Y3.9087 Z-0.0286
N1015 X1.4604 Y3.9125 Z-0.0287
N1020 X1.4632 Y3.9168 Z-0.0289
N1025 X1.4639 Y3.9181 Z-0.029
N1030 X1.4667 Y3.9237 Z-0.0292
N1035 X1.4688 Y3.9287 Z-0.0294
N1040 X1.469 Y3.9293
N1045 X1.4708 Y3.9348 Z-0.0296
N1050 X1.4721 Y3.9404 Z-0.0298
N1055 X1.4729 Y3.946 Z-0.03
N1060 X1.4733 Y3.9516 Z-0.0302
N1065 X1.4734 Y3.9572 Z-0.0304
N1070 X1.4729 Y3.9628 Z-0.0306
N1075 X1.4721 Y3.9684 Z-0.0308
N1080 X1.4708 Y3.974 Z-0.031
N1085 X1.4691 Y3.9795 Z-0.0312
N1090 X1.4688 Y3.9803
N1095 X1.4668 Y3.9851 Z-0.0314
N1100 X1.464 Y3.9907 Z-0.0316
N1105 X1.4632 Y3.9922 Z-0.0317
N1110 X1.4606 Y3.9963 Z-0.0318
N1115 X1.4576 Y4.0003 Z-0.032
N1120 X1.4564 Y4.0019 Z-0.0321
N1125 X1.452 Y4.0067 Z-0.0323
N1130 X1.4512 Y4.0075 Z-0.0324
N1135 X1.4464 Y4.0118 Z-0.0326
N1140 X1.4449 Y4.0131 Z-0.0327
N1145 X1.4409 Y4.016 Z-0.0328
N1150 X1.4367 Y4.0187 Z-0.033
N1155 X1.4353 Y4.0195 Z-0.0331
N1160 X1.4297 Y4.0223 Z-0.0333
N1165 X1.425 Y4.0243 Z-0.0335
N1170 X1.4241 Y4.0246
N1175 X1.4185 Y4.0263 Z-0.0337
N1180 X1.4129 Y4.0276 Z-0.0339
N1185 X1.4073 Y4.0284 Z-0.0341
N1190 X1.4017 Y4.0289 Z-0.0343
N1195 X1.3961 Z-0.0345
N1200 X1.3906 Y4.0284 Z-0.0347
N1205 X1.385 Y4.0276 Z-0.0349
N1210 X1.3794 Y4.0263 Z-0.0351
N1215 X1.3738 Y4.0245 Z-0.0353
N1220 X1.3731 Y4.0243
N1225 X1.3682 Y4.0222 Z-0.0355
N1230 X1.3626 Y4.0194 Z-0.0357
N1235 X1.3613 Y4.0187 Z-0.0358
N1240 X1.357 Y4.0159 Z-0.0359
N1245 X1.3531 Y4.0131 Z-0.0361
N1250 X1.3514 Y4.0118 Z-0.0362
N1255 X1.3491 Y4.0097 Z-0.0363
N1260 X1.3467 Y4.0075 Z-0.0364
N1265 X1.3459 Y4.0066
N1270 X1.3416 Y4.0019 Z-0.0367
N1275 X1.3403 Y4.0002
N1280 X1.3375 Y3.9963 Z-0.0369
N1285 X1.3347 Y3.9919 Z-0.0371
N1290 X1.334 Y3.9907
N1295 X1.3312 Y3.9851 Z-0.0374
N1300 X1.3291 Y3.98 Z-0.0375
N1305 X1.3289 Y3.9795 Z-0.0376
N1310 X1.328 Y3.9768 Z-0.0377
N1315 X1.3271 Y3.974 Z-0.0378
N1320 X1.3259 Y3.9684 Z-0.038
N1325 X1.325 Y3.9628 Z-0.0382
N1330 X1.3246 Y3.9572 Z-0.0384
N1335 Y3.9516 Z-0.0386
N1340 X1.325 Y3.946 Z-0.0388
N1345 X1.3259 Y3.9404 Z-0.039
N1350 X1.3272 Y3.9348 Z-0.0392
N1355 X1.329 Y3.9293 Z-0.0394
N1360 X1.3291 Y3.929
N1365 X1.3309 Y3.9244 Z-0.0395
N1370 X1.333 Y3.9201 Z-0.0397
N1375 X1.3354 Y3.9158 Z-0.0399
N1380 X1.3381 Y3.9118 Z-0.0401
N1385 X1.341 Y3.9079 Z-0.0402
N1390 X1.3442 Y3.9042 Z-0.0404
N1395 X1.3476 Y3.9007 Z-0.0406
N1400 X1.3512 Y3.8974 Z-0.0407
N1405 X1.3551 Y3.8944 Z-0.0409
N1410 X1.3591 Y3.8917 Z-0.0411
N1415 X1.3633 Y3.8892 Z-0.0412
N1420 X1.3676 Y3.887 Z-0.0414
N1425 X1.3721 Y3.8851 Z-0.0416
N1430 X1.3767 Y3.8835 Z-0.0417
N1435 X1.3814 Y3.8822 Z-0.0419
N1440 X1.3862 Y3.8812 Z-0.0421
N1445 X1.391 Y3.8805 Z-0.0423
N1450 X1.3958 Y3.8802 Z-0.0424
N1455 X1.4007 Y3.8801 Z-0.0426
N1460 X1.4056 Y3.8804 Z-0.0428
N1465 X1.4104 Y3.881 Z-0.0429
N1470 X1.4152 Y3.8819 Z-0.0431
N1475 X1.4199 Y3.883 Z-0.0433
N1480 X1.4245 Y3.8846 Z-0.0435
N1485 X1.4291 Y3.8864 Z-0.0436
N1490 X1.4334 Y3.8885 Z-0.0438
N1495 X1.4377 Y3.8909 Z-0.044
N1500 X1.4418 Y3.8936 Z-0.0441
N1505 X1.4457 Y3.8965 Z-0.0443
N1510 X1.4494 Y3.8997 Z-0.0445
N1515 X1.4528 Y3.9031 Z-0.0446
N1520 X1.4561 Y3.9067 Z-0.0448
N1525 X1.4591 Y3.9106 Z-0.045
N1530 X1.4618 Y3.9146 Z-0.0451
N1535 X1.4643 Y3.9188 Z-0.0453
N1540 X1.4665 Y3.9231 Z-0.0455
N1545 X1.4684 Y3.9276 Z-0.0457
N1550 X1.47 Y3.9322 Z-0.0458
N1555 X1.4713 Y3.9369 Z-0.046
N1560 X1.4723 Y3.9417 Z-0.0462
N1565 X1.473 Y3.9465 Z-0.0463
N1570 X1.4733 Y3.9514 Z-0.0465
N1575 X1.4734 Y3.9562 Z-0.0467
N1580 X1.4731 Y3.9611 Z-0.0468
N1585 X1.4726 Y3.9659 Z-0.047
N1590 X1.4716 Y3.9707 Z-0.0472
N1595 X1.4704 Y3.9754 Z-0.0474
N1600 X1.4689 Y3.98 Z-0.0475
N1605 X1.4671 Y3.9846 Z-0.0477
N1610 X1.4649 Y3.989 Z-0.0479
N1615 X1.4626 Y3.9932 Z-0.048
N1620 X1.4599 Y3.9973 Z-0.0482
N1625 X1.457 Y4.0012 Z-0.0484
N1630 X1.4538 Y4.0049 Z-0.0485
N1635 X1.4504 Y4.0083 Z-0.0487
N1640 X1.4467 Y4.0116 Z-0.0489
N1645 X1.4429 Y4.0146 Z-0.0491
N1650 X1.4389 Y4.0173 Z-0.0492
N1655 X1.4347 Y4.0198 Z-0.0494
N1660 X1.4304 Y4.022 Z-0.0496
N1665 X1.4259 Y4.0239 Z-0.0497
N1670 X1.4213 Y4.0255 Z-0.0499
N1675 X1.4166 Y4.0268 Z-0.0501
N1680 X1.4118 Y4.0278 Z-0.0502
N1685 X1.407 Y4.0285 Z-0.0504
N1690 X1.4021 Y4.0289 Z-0.0506
N1695 X1.3973 Z-0.0508
N1700 X1.3924 Y4.0286 Z-0.0509
N1705 X1.3876 Y4.028 Z-0.0511
N1710 X1.3828 Y4.0271 Z-0.0513
N1715 X1.3781 Y4.0259 Z-0.0514
N1720 X1.3735 Y4.0244 Z-0.0516
N1725 X1.3689 Y4.0226 Z-0.0518
N1730 X1.3645 Y4.0205 Z-0.0519
N1735 X1.3603 Y4.0181 Z-0.0521
N1740 X1.3562 Y4.0154 Z-0.0523
N1745 X1.3523 Y4.0125 Z-0.0525
N1750 X1.3487 Y4.0093 Z-0.0526
N1755 X1.3452 Y4.0059 Z-0.0528
N1760 X1.3419 Y4.0022 Z-0.053
N1765 X1.3389 Y3.9984 Z-0.0531
N1770 X1.3362 Y3.9944 Z-0.0533
N1775 X1.3337 Y3.9902 Z-0.0535
N1780 X1.3315 Y3.9859 Z-0.0536
N1785 X1.3296 Y3.9814 Z-0.0538
N1790 X1.328 Y3.9768 Z-0.054
N1795 X1.3267 Y3.9721 Z-0.0542
N1800 X1.3257 Y3.9673 Z-0.0543
N1805 X1.325 Y3.9625 Z-0.0545
N1810 X1.3246 Y3.9576 Z-0.0547
N1815 Y3.9528 Z-0.0548
N1820 X1.3249 Y3.9479 Z-0.055
N1825 X1.3255 Y3.9431 Z-0.0552
N1830 X1.3264 Y3.9383 Z-0.0553
N1835 X1.3276 Y3.9336 Z-0.0555
N1840 X1.3291 Y3.929 Z-0.0557
N1845 X1.3309 Y3.9244 Z-0.0559
N1850 X1.333 Y3.9201 Z-0.056
N1855 X1.3354 Y3.9158 Z-0.0562
N1860 X1.3381 Y3.9118 Z-0.0564
N1865 X1.341 Y3.9079 Z-0.0565
N1870 X1.3442 Y3.9042 Z-0.0567
N1875 X1.3476 Y3.9007 Z-0.0569
N1880 X1.3512 Y3.8974 Z-0.057
N1885 X1.3551 Y3.8944 Z-0.0572
N1890 X1.3591 Y3.8917 Z-0.0574
N1895 X1.3633 Y3.8892 Z-0.0576
N1900 X1.3676 Y3.887 Z-0.0577
N1905 X1.3721 Y3.8851 Z-0.0579
N1910 X1.3767 Y3.8835 Z-0.0581
N1915 X1.3814 Y3.8822 Z-0.0582
N1920 X1.3862 Y3.8812 Z-0.0584
N1925 X1.391 Y3.8805 Z-0.0586
N1930 X1.3958 Y3.8802 Z-0.0587
N1935 X1.4007 Y3.8801 Z-0.0589
N1940 X1.4056 Y3.8804 Z-0.0591
N1945 X1.4104 Y3.881 Z-0.0593
N1950 X1.4152 Y3.8819 Z-0.0594
N1955 X1.4199 Y3.883 Z-0.0596
N1960 X1.4245 Y3.8846 Z-0.0598
N1965 X1.4291 Y3.8864 Z-0.0599
N1970 X1.4334 Y3.8885 Z-0.0601
N1975 X1.4377 Y3.8909 Z-0.0603
N1980 X1.4418 Y3.8936 Z-0.0604
N1985 X1.4457 Y3.8965 Z-0.0606
N1990 X1.4494 Y3.8997 Z-0.0608
N1995 X1.4528 Y3.9031 Z-0.061
N2000 X1.4561 Y3.9067 Z-0.0611
N2005 X1.4591 Y3.9106 Z-0.0613
N2010 X1.4618 Y3.9146 Z-0.0615
N2015 X1.4643 Y3.9188 Z-0.0616
N2020 X1.4665 Y3.9231 Z-0.0618
N2025 X1.4684 Y3.9276 Z-0.062
N2030 X1.47 Y3.9322 Z-0.0621
N2035 X1.4713 Y3.9369 Z-0.0623
N2040 X1.4723 Y3.9417 Z-0.0625
N2045 X1.473 Y3.9465 Z-0.0627
N2050 X1.4733 Y3.9514 Z-0.0628
N2055 X1.4734 Y3.9562 Z-0.063
N2060 X1.4731 Y3.9611 Z-0.0632
N2065 X1.4726 Y3.9659 Z-0.0633
N2070 X1.4716 Y3.9707 Z-0.0635
N2075 X1.4704 Y3.9754 Z-0.0637
N2080 X1.4689 Y3.98 Z-0.0638
N2085 X1.4671 Y3.9846 Z-0.064
N2090 X1.4649 Y3.989 Z-0.0642
N2095 X1.4626 Y3.9932 Z-0.0644
N2100 X1.4599 Y3.9973 Z-0.0645
N2105 X1.457 Y4.0012 Z-0.0647
N2110 X1.4538 Y4.0049 Z-0.0649
N2115 X1.4504 Y4.0083 Z-0.065
N2120 X1.4467 Y4.0116 Z-0.0652
N2125 X1.4429 Y4.0146 Z-0.0654
N2130 X1.4389 Y4.0173 Z-0.0655
N2135 X1.4347 Y4.0198 Z-0.0657
N2140 X1.4304 Y4.022 Z-0.0659
N2145 X1.4259 Y4.0239 Z-0.0661
N2150 X1.4213 Y4.0255 Z-0.0662
N2155 X1.4166 Y4.0268 Z-0.0664
N2160 X1.4118 Y4.0278 Z-0.0666
N2165 X1.407 Y4.0285 Z-0.0667
N2170 X1.4021 Y4.0289 Z-0.0669
N2175 X1.3973 Z-0.0671
N2180 X1.3924 Y4.0286 Z-0.0672
N2185 X1.3876 Y4.028 Z-0.0674
N2190 X1.3828 Y4.0271 Z-0.0676
N2195 X1.3781 Y4.0259 Z-0.0678
N2200 X1.3735 Y4.0244 Z-0.0679
N2205 X1.3689 Y4.0226 Z-0.0681
N2210 X1.3645 Y4.0205 Z-0.0683
N2215 X1.3603 Y4.0181 Z-0.0684
N2220 X1.3562 Y4.0154 Z-0.0686
N2225 X1.3523 Y4.0125 Z-0.0688
N2230 X1.3487 Y4.0093 Z-0.0689
N2235 X1.3452 Y4.0059 Z-0.0691
N2240 X1.3419 Y4.0022 Z-0.0693
N2245 X1.3389 Y3.9984 Z-0.0695
N2250 X1.3362 Y3.9944 Z-0.0696
N2255 X1.3337 Y3.9902 Z-0.0698
N2260 X1.3315 Y3.9859 Z-0.07
N2265 X1.3296 Y3.9814 Z-0.0701
N2270 X1.328 Y3.9768 Z-0.0703
N2275 X1.3267 Y3.9721 Z-0.0705
N2280 X1.3257 Y3.9673 Z-0.0706
N2285 X1.325 Y3.9625 Z-0.0708
N2290 X1.3246 Y3.9576 Z-0.071
N2295 Y3.9528 Z-0.0712
N2300 X1.3249 Y3.9479 Z-0.0713
N2305 X1.3255 Y3.9431 Z-0.0715
N2310 X1.3264 Y3.9383 Z-0.0717
N2315 X1.3276 Y3.9336 Z-0.0718
N2320 X1.3291 Y3.929 Z-0.072
N2325 X1.3309 Y3.9244 Z-0.0722
N2330 X1.333 Y3.9201 Z-0.0723
N2335 X1.3354 Y3.9158 Z-0.0725
N2340 X1.3381 Y3.9118 Z-0.0727
N2345 X1.341 Y3.9079 Z-0.0729
N2350 X1.3442 Y3.9042 Z-0.073
N2355 X1.3476 Y3.9007 Z-0.0732
N2360 X1.3512 Y3.8974 Z-0.0734
N2365 X1.3551 Y3.8944 Z-0.0735
N2370 X1.3591 Y3.8917 Z-0.0737
N2375 X1.3633 Y3.8892 Z-0.0739
N2380 X1.3676 Y3.887 Z-0.074
N2385 X1.3721 Y3.8851 Z-0.0742
N2390 X1.3767 Y3.8835 Z-0.0744
N2395 X1.3814 Y3.8822 Z-0.0746
N2400 X1.3862 Y3.8812 Z-0.0747
N2405 X1.391 Y3.8805 Z-0.0749
N2410 X1.3958 Y3.8802 Z-0.0751
N2415 X1.4007 Y3.8801 Z-0.0752
N2420 X1.4056 Y3.8804 Z-0.0754
N2425 X1.4104 Y3.881 Z-0.0756
N2430 X1.4152 Y3.8819 Z-0.0757
N2435 X1.4199 Y3.883 Z-0.0759
N2440 X1.4245 Y3.8846 Z-0.0761
N2445 X1.4291 Y3.8864 Z-0.0763
N2450 X1.4334 Y3.8885 Z-0.0764
N2455 X1.4377 Y3.8909 Z-0.0766
N2460 X1.4418 Y3.8936 Z-0.0768
N2465 X1.4457 Y3.8965 Z-0.0769
N2470 X1.4494 Y3.8997 Z-0.0771
N2475 X1.4528 Y3.9031 Z-0.0773
N2480 X1.4561 Y3.9067 Z-0.0774
N2485 X1.4591 Y3.9106 Z-0.0776
N2490 X1.4618 Y3.9146 Z-0.0778
N2495 X1.4643 Y3.9188 Z-0.078
N2500 X1.4665 Y3.9231 Z-0.0781
N2505 X1.4684 Y3.9276 Z-0.0783
N2510 X1.47 Y3.9322 Z-0.0785
N2515 X1.4711 Y3.9359 Z-0.0786
N2520 X1.4719 Y3.9397 Z-0.0787
N2525 X1.472 Y3.9399
N2530 X1.4724 Y3.9423 Z-0.0788
N2535 X1.4728 Y3.9447 Z-0.0789
N2540 X1.4733 Y3.9496 Z-0.0791
N2545 X1.4735 Y3.9544 Z-0.0793
N2550 X1.4733 Y3.9593 Z-0.0794
N2555 X1.4728 Y3.9642 Z-0.0796
N2560 X1.472 Y3.969 Z-0.0798
N2565 X1.4709 Y3.9737 Z-0.0799
N2570 X1.4695 Y3.9784 Z-0.0801
N2575 X1.4678 Y3.9829 Z-0.0803
N2580 X1.4658 Y3.9874 Z-0.0804
N2585 X1.4635 Y3.9917 Z-0.0806
N2590 X1.4609 Y3.9958 Z-0.0808
N2595 X1.4581 Y3.9998 Z-0.081
N2600 X1.455 Y4.0035 Z-0.0811
N2605 X1.4516 Y4.0071 Z-0.0813
N2610 X1.4481 Y4.0104 Z-0.0815
N2615 X1.4444 Y4.0135 Z-0.0816
N2620 X1.4404 Y4.0164 Z-0.0818
N2625 X1.4363 Y4.0189 Z-0.082
N2630 X1.432 Y4.0212 Z-0.0821
N2635 X1.4275 Y4.0232 Z-0.0823
N2640 X1.423 Y4.0249 Z-0.0825
N2645 X1.4183 Y4.0264 Z-0.0826
N2650 X1.4136 Y4.0275 Z-0.0828
N2655 X1.4088 Y4.0283 Z-0.083
N2660 X1.4039 Y4.0288 Z-0.0832
N2665 X1.3991 Y4.0289 Z-0.0833
N2670 X1.3942 Y4.0287 Z-0.0835
N2675 X1.3893 Y4.0283 Z-0.0837
N2680 X1.3845 Y4.0275 Z-0.0838
N2685 X1.3798 Y4.0264 Z-0.084
N2690 X1.3751 Y4.025 Z-0.0842
N2695 X1.3706 Y4.0233 Z-0.0843
N2700 X1.3661 Y4.0213 Z-0.0845
N2705 X1.3618 Y4.019 Z-0.0847
N2710 X1.3577 Y4.0164 Z-0.0849
N2715 X1.3537 Y4.0136 Z-0.085
N2720 X1.35 Y4.0105 Z-0.0852
N2725 X1.3464 Y4.0072 Z-0.0854
N2730 X1.3431 Y4.0036 Z-0.0855
N2735 X1.34 Y3.9998 Z-0.0857
N2740 X1.3372 Y3.9959 Z-0.0859
N2745 X1.3346 Y3.9917 Z-0.086
N2750 X1.3323 Y3.9874 Z-0.0862
N2755 X1.3303 Y3.983 Z-0.0864
N2760 X1.3285 Y3.9785 Z-0.0866
N2765 X1.3271 Y3.9738 Z-0.0867
N2770 X1.326 Y3.9691 Z-0.0869
N2775 X1.3252 Y3.9643 Z-0.0871
N2780 X1.3248 Y3.9594 Z-0.0872
N2785 X1.3246 Y3.9546 Z-0.0874
N2790 X1.3247 Y3.9497 Z-0.0876
N2795 X1.3252 Y3.9448 Z-0.0877
N2800 X1.326 Y3.94 Z-0.0879
N2805 X1.3271 Y3.9353 Z-0.0881
N2810 X1.3285 Y3.9306 Z-0.0883
N2815 X1.3302 Y3.9261 Z-0.0884
N2820 X1.3322 Y3.9217 Z-0.0886
N2825 X1.3345 Y3.9174 Z-0.0888
N2830 X1.3371 Y3.9132 Z-0.0889
N2835 X1.3399 Y3.9092 Z-0.0891
N2840 X1.343 Y3.9055 Z-0.0893
N2845 X1.3463 Y3.9019 Z-0.0894
N2850 X1.3499 Y3.8986 Z-0.0896
N2855 X1.3537 Y3.8955 Z-0.0898
N2860 X1.3576 Y3.8927 Z-0.09
N2865 X1.3617 Y3.8901 Z-0.0901
N2870 X1.366 Y3.8878 Z-0.0903
N2875 X1.3705 Y3.8857 Z-0.0905
N2880 X1.375 Y3.884 Z-0.0906
N2885 X1.3797 Y3.8826 Z-0.0908
N2890 X1.3844 Y3.8815 Z-0.091
N2895 X1.3892 Y3.8807 Z-0.0911
N2900 X1.3941 Y3.8803 Z-0.0913
N2905 X1.3989 Y3.8801 Z-0.0915
N2910 X1.4038 Y3.8802 Z-0.0917
N2915 X1.4087 Y3.8807 Z-0.0918
N2920 X1.4135 Y3.8815 Z-0.092
N2925 X1.4182 Y3.8826 Z-0.0922
N2930 X1.4229 Y3.884 Z-0.0923
N2935 X1.4274 Y3.8857 Z-0.0925
N2940 X1.4319 Y3.8877 Z-0.0927
N2945 X1.4362 Y3.89 Z-0.0928
N2950 X1.4403 Y3.8926 Z-0.093
N2955 X1.4443 Y3.8954 Z-0.0932
N2960 X1.448 Y3.8985 Z-0.0934
N2965 X1.4516 Y3.9018 Z-0.0935
N2970 X1.4549 Y3.9054 Z-0.0937
N2975 X1.458 Y3.9092 Z-0.0939
N2980 X1.4608 Y3.9131 Z-0.094
N2985 X1.4634 Y3.9172 Z-0.0942
N2990 X1.4657 Y3.9215 Z-0.0944
N2995 X1.4677 Y3.926 Z-0.0945
N3000 X1.4694 Y3.9305 Z-0.0947
N3005 X1.4709 Y3.9352 Z-0.0949
N3010 X1.472 Y3.9399 Z-0.0951
N3015 X1.4728 Y3.9447 Z-0.0952
N3020 X1.4733 Y3.9496 Z-0.0954
N3025 X1.4735 Y3.9544 Z-0.0956
N3030 X1.4733 Y3.9593 Z-0.0957
N3035 X1.4728 Y3.9642 Z-0.0959
N3040 X1.472 Y3.969 Z-0.0961
N3045 X1.4709 Y3.9737 Z-0.0962
N3050 X1.4695 Y3.9784 Z-0.0964
N3055 X1.4678 Y3.9829 Z-0.0966
N3060 X1.4658 Y3.9874 Z-0.0968
N3065 X1.4635 Y3.9917 Z-0.0969
N3070 X1.4609 Y3.9958 Z-0.0971
N3075 X1.4581 Y3.9998 Z-0.0973
N3080 X1.455 Y4.0035 Z-0.0974
N3085 X1.4516 Y4.0071 Z-0.0976
N3090 X1.4481 Y4.0104 Z-0.0978
N3095 X1.4444 Y4.0135 Z-0.0979
N3100 X1.4404 Y4.0164 Z-0.0981
N3105 X1.4363 Y4.0189 Z-0.0983
N3110 X1.432 Y4.0212 Z-0.0985
N3115 X1.4275 Y4.0232 Z-0.0986
N3120 X1.423 Y4.0249 Z-0.0988
N3125 X1.4183 Y4.0264 Z-0.099
N3130 X1.4136 Y4.0275 Z-0.0991
N3135 X1.4088 Y4.0283 Z-0.0993
N3140 X1.4039 Y4.0288 Z-0.0995
N3145 X1.3991 Y4.0289 Z-0.0996
N3150 X1.3942 Y4.0287 Z-0.0998
N3155 X1.3893 Y4.0283 Z-0.1
N3160 X1.3845 Y4.0275 Z-0.1002
N3165 X1.3798 Y4.0264 Z-0.1003
N3170 X1.3751 Y4.025 Z-0.1005
N3175 X1.3706 Y4.0233 Z-0.1007
N3180 X1.3661 Y4.0213 Z-0.1008
N3185 X1.3618 Y4.019 Z-0.101
N3190 X1.3577 Y4.0164 Z-0.1012
N3195 X1.3537 Y4.0136 Z-0.1013
N3200 X1.35 Y4.0105 Z-0.1015
N3205 X1.3464 Y4.0072 Z-0.1017
N3210 X1.3431 Y4.0036 Z-0.1019
N3215 X1.34 Y3.9998 Z-0.102
N3220 X1.3372 Y3.9959 Z-0.1022
N3225 X1.3346 Y3.9917 Z-0.1024
N3230 X1.3323 Y3.9874 Z-0.1025
N3235 X1.3303 Y3.983 Z-0.1027
N3240 X1.3285 Y3.9785 Z-0.1029
N3245 X1.3271 Y3.9738 Z-0.103
N3250 X1.326 Y3.9691 Z-0.1032
N3255 X1.3252 Y3.9643 Z-0.1034
N3260 X1.3248 Y3.9594 Z-0.1036
N3265 X1.3246 Y3.9546 Z-0.1037
N3270 X1.3247 Y3.9497 Z-0.1039
N3275 X1.3252 Y3.9448 Z-0.1041
N3280 X1.326 Y3.94 Z-0.1042
N3285 X1.3271 Y3.9353 Z-0.1044
N3290 X1.3285 Y3.9306 Z-0.1046
N3295 X1.3302 Y3.9261 Z-0.1047
N3300 X1.3322 Y3.9217 Z-0.1049
N3305 X1.3345 Y3.9174 Z-0.1051
N3310 X1.3371 Y3.9132 Z-0.1053
N3315 X1.3399 Y3.9092 Z-0.1054
N3320 X1.343 Y3.9055 Z-0.1056
N3325 X1.3463 Y3.9019 Z-0.1058
N3330 X1.3499 Y3.8986 Z-0.1059
N3335 X1.3537 Y3.8955 Z-0.1061
N3340 X1.3576 Y3.8927 Z-0.1063
N3345 X1.3617 Y3.8901 Z-0.1064
N3350 X1.366 Y3.8878 Z-0.1066
N3355 X1.3705 Y3.8857 Z-0.1068
N3360 X1.375 Y3.884 Z-0.107
N3365 X1.3797 Y3.8826 Z-0.1071
N3370 X1.3844 Y3.8815 Z-0.1073
N3375 X1.3892 Y3.8807 Z-0.1075
N3380 X1.3941 Y3.8803 Z-0.1076
N3385 X1.3989 Y3.8801 Z-0.1078
N3390 X1.4038 Y3.8802 Z-0.108
N3395 X1.4087 Y3.8807 Z-0.1081
N3400 X1.4135 Y3.8815 Z-0.1083
N3405 X1.4182 Y3.8826 Z-0.1085
N3410 X1.4229 Y3.884 Z-0.1087
N3415 X1.4274 Y3.8857 Z-0.1088
N3420 X1.4319 Y3.8877 Z-0.109
N3425 X1.4362 Y3.89 Z-0.1092
N3430 X1.4403 Y3.8926 Z-0.1093
N3435 X1.4443 Y3.8954 Z-0.1095
N3440 X1.448 Y3.8985 Z-0.1097
N3445 X1.4516 Y3.9018 Z-0.1098
N3450 X1.4549 Y3.9054 Z-0.11
N3455 X1.458 Y3.9092 Z-0.1102
N3460 X1.4608 Y3.9131 Z-0.1104
N3465 X1.4634 Y3.9172 Z-0.1105
N3470 X1.4657 Y3.9215 Z-0.1107
N3475 X1.4677 Y3.926 Z-0.1109
N3480 X1.4694 Y3.9305 Z-0.111
N3485 X1.4709 Y3.9352 Z-0.1112
N3490 X1.472 Y3.9399 Z-0.1114
N3495 X1.4728 Y3.9447 Z-0.1115
N3500 X1.4733 Y3.9496 Z-0.1117
N3505 X1.4735 Y3.9544 Z-0.1119
N3510 X1.4733 Y3.9593 Z-0.1121
N3515 X1.4728 Y3.9642 Z-0.1122
N3520 X1.472 Y3.969 Z-0.1124
N3525 X1.4709 Y3.9737 Z-0.1126
N3530 X1.4695 Y3.9784 Z-0.1127
N3535 X1.4678 Y3.9829 Z-0.1129
N3540 X1.4658 Y3.9874 Z-0.1131
N3545 X1.4635 Y3.9917 Z-0.1132
N3550 X1.4609 Y3.9958 Z-0.1134
N3555 X1.4581 Y3.9998 Z-0.1136
N3560 X1.455 Y4.0035 Z-0.1138
N3565 X1.4516 Y4.0071 Z-0.1139
N3570 X1.4481 Y4.0104 Z-0.1141
N3575 X1.4444 Y4.0135 Z-0.1143
N3580 X1.4404 Y4.0164 Z-0.1144
N3585 X1.4363 Y4.0189 Z-0.1146
N3590 X1.432 Y4.0212 Z-0.1148
N3595 X1.4275 Y4.0232 Z-0.1149
N3600 X1.423 Y4.0249 Z-0.1151
N3605 X1.4183 Y4.0264 Z-0.1153
N3610 X1.4136 Y4.0275 Z-0.1155
N3615 X1.4088 Y4.0283 Z-0.1156
N3620 X1.4039 Y4.0288 Z-0.1158
N3625 X1.3991 Y4.0289 Z-0.116
N3630 X1.3942 Y4.0287 Z-0.1161
N3635 X1.3893 Y4.0283 Z-0.1163
N3640 X1.3845 Y4.0275 Z-0.1165
N3645 X1.3798 Y4.0264 Z-0.1166
N3650 X1.3751 Y4.025 Z-0.1168
N3655 X1.3706 Y4.0233 Z-0.117
N3660 X1.3661 Y4.0213 Z-0.1172
N3665 X1.3618 Y4.019 Z-0.1173
N3670 X1.3577 Y4.0164 Z-0.1175
N3675 X1.3537 Y4.0136 Z-0.1177
N3680 X1.35 Y4.0105 Z-0.1178
N3685 X1.3471 Y4.0079 Z-0.118
N3690 X1.3444 Y4.005 Z-0.1181
N3695 X1.3443 Y4.0049
N3700 X1.3434 Y4.004 Z-0.1182
N3705 X1.3426 Y4.0031
N3710 X1.3411 Y4.0012 Z-0.1183
N3715 X1.3381 Y3.9973 Z-0.1185
N3720 X1.3355 Y3.9932 Z-0.1186
N3725 X1.3331 Y3.989 Z-0.1188
N3730 X1.3309 Y3.9846 Z-0.119
N3735 X1.3291 Y3.9801 Z-0.1191
N3740 X1.3276 Y3.9755 Z-0.1193
N3745 X1.3264 Y3.9708 Z-0.1195
N3750 X1.3255 Y3.966 Z-0.1196
N3755 X1.3249 Y3.9612 Z-0.1198
N3760 X1.3246 Y3.9563 Z-0.12
N3765 Y3.9514 Z-0.1201
N3770 X1.325 Y3.9466 Z-0.1203
N3775 X1.3257 Y3.9418 Z-0.1205
N3780 X1.3267 Y3.937 Z-0.1207
N3785 X1.328 Y3.9323 Z-0.1208
N3790 X1.3296 Y3.9277 Z-0.121
N3795 X1.3315 Y3.9232 Z-0.1212
N3800 X1.3336 Y3.9189 Z-0.1213
N3805 X1.3361 Y3.9147 Z-0.1215
N3810 X1.3389 Y3.9106 Z-0.1217
N3815 X1.3419 Y3.9068 Z-0.1218
N3820 X1.3451 Y3.9032 Z-0.122
N3825 X1.3486 Y3.8998 Z-0.1222
N3830 X1.3523 Y3.8966 Z-0.1224
N3835 X1.3562 Y3.8936 Z-0.1225
N3840 X1.3602 Y3.8909 Z-0.1227
N3845 X1.3645 Y3.8886 Z-0.1229
N3850 X1.3689 Y3.8865 Z-0.123
N3855 X1.3734 Y3.8846 Z-0.1232
N3860 X1.378 Y3.8831 Z-0.1234
N3865 X1.3827 Y3.8819 Z-0.1235
N3870 X1.3875 Y3.881 Z-0.1237
N3875 X1.3923 Y3.8804 Z-0.1239
N3880 X1.3972 Y3.8801 Z-0.1241
N3885 X1.4021 Z-0.1242
N3890 X1.4069 Y3.8805 Z-0.1244
N3895 X1.4117 Y3.8812 Z-0.1246
N3900 X1.4165 Y3.8822 Z-0.1247
N3905 X1.4212 Y3.8835 Z-0.1249
N3910 X1.4258 Y3.8851 Z-0.1251
N3915 X1.4303 Y3.8869 Z-0.1252
N3920 X1.4346 Y3.8892 Z-0.1254
N3925 X1.4388 Y3.8916 Z-0.1256
N3930 X1.4428 Y3.8944 Z-0.1258
N3935 X1.4467 Y3.8974 Z-0.1259
N3940 X1.4503 Y3.9006 Z-0.1261
N3945 X1.4537 Y3.9041 Z-0.1263
N3950 X1.4569 Y3.9078 Z-0.1264
N3955 X1.4599 Y3.9117 Z-0.1266
N3960 X1.4625 Y3.9157 Z-0.1268
N3965 X1.4649 Y3.92 Z-0.1269
N3970 X1.467 Y3.9244 Z-0.1271
N3975 X1.4689 Y3.9289 Z-0.1273
N3980 X1.4704 Y3.9335 Z-0.1275
N3985 X1.4716 Y3.9382 Z-0.1276
N3990 X1.4726 Y3.943 Z-0.1278
N3995 X1.4731 Y3.9478 Z-0.128
N4000 X1.4734 Y3.9527 Z-0.1281
N4005 X1.4733 Y3.9576 Z-0.1283
N4010 X1.473 Y3.9624 Z-0.1285
N4015 X1.4723 Y3.9672 Z-0.1286
N4020 X1.4713 Y3.972 Z-0.1288
N4025 X1.4701 Y3.9767 Z-0.129
N4030 X1.4684 Y3.9813 Z-0.1292
N4035 X1.4665 Y3.9858 Z-0.1293
N4040 X1.4643 Y3.9901 Z-0.1295
N4045 X1.4618 Y3.9943 Z-0.1297
N4050 X1.4591 Y3.9984 Z-0.1298
N4055 X1.4561 Y4.0022 Z-0.13
N4060 X1.4529 Y4.0059 Z-0.1302
N4065 X1.4494 Y4.0093 Z-0.1303
N4070 X1.4457 Y4.0124 Z-0.1305
N4075 X1.4418 Y4.0154 Z-0.1307
N4080 X1.4377 Y4.018 Z-0.1309
N4085 X1.4335 Y4.0204 Z-0.131
N4090 X1.4291 Y4.0225 Z-0.1312
N4095 X1.4246 Y4.0244 Z-0.1314
N4100 X1.42 Y4.0259 Z-0.1315
N4105 X1.4153 Y4.0271 Z-0.1317
N4110 X1.4105 Y4.028 Z-0.1319
N4115 X1.4057 Y4.0286 Z-0.132
N4120 X1.4008 Y4.0289 Z-0.1322
N4125 X1.3959 Y4.0288 Z-0.1324
N4130 X1.3911 Y4.0285 Z-0.1326
N4135 X1.3862 Y4.0278 Z-0.1327
N4140 X1.3815 Y4.0268 Z-0.1329
N4145 X1.3768 Y4.0255 Z-0.1331
N4150 X1.3722 Y4.0239 Z-0.1332
N4155 X1.3677 Y4.022 Z-0.1334
N4160 X1.3634 Y4.0198 Z-0.1336
N4165 X1.3592 Y4.0174 Z-0.1337
N4170 X1.3551 Y4.0146 Z-0.1339
N4175 X1.3513 Y4.0116 Z-0.1341
N4180 X1.3477 Y4.0084 Z-0.1343
N4185 X1.3443 Y4.0049 Z-0.1344
N4190 X1.3411 Y4.0012 Z-0.1346
N4195 X1.3381 Y3.9973 Z-0.1348
N4200 X1.3355 Y3.9932 Z-0.1349
N4205 X1.3331 Y3.989 Z-0.1351
N4210 X1.3309 Y3.9846 Z-0.1353
N4215 X1.3291 Y3.9801 Z-0.1354
N4220 X1.3276 Y3.9755 Z-0.1356
N4225 X1.3264 Y3.9708 Z-0.1358
N4230 X1.3255 Y3.966 Z-0.136
N4235 X1.3249 Y3.9612 Z-0.1361
N4240 X1.3246 Y3.9563 Z-0.1363
N4245 Y3.9514 Z-0.1365
N4250 X1.325 Y3.9466 Z-0.1366
N4255 X1.3257 Y3.9418 Z-0.1368
N4260 X1.3267 Y3.937 Z-0.137
N4265 X1.328 Y3.9323 Z-0.1371
N4270 X1.3296 Y3.9277 Z-0.1373
N4275 X1.3315 Y3.9232 Z-0.1375
N4280 X1.3336 Y3.9189 Z-0.1377
N4285 X1.3361 Y3.9147 Z-0.1378
N4290 X1.3389 Y3.9106 Z-0.138
N4295 X1.3419 Y3.9068 Z-0.1382
N4300 X1.3451 Y3.9032 Z-0.1383
N4305 X1.3486 Y3.8998 Z-0.1385
N4310 X1.3523 Y3.8966 Z-0.1387
N4315 X1.3562 Y3.8936 Z-0.1388
N4320 X1.3602 Y3.8909 Z-0.139
N4325 X1.3645 Y3.8886 Z-0.1392
N4330 X1.3689 Y3.8865 Z-0.1394
N4335 X1.3734 Y3.8846 Z-0.1395
N4340 X1.378 Y3.8831 Z-0.1397
N4345 X1.3827 Y3.8819 Z-0.1399
N4350 X1.3875 Y3.881 Z-0.14
N4355 X1.3923 Y3.8804 Z-0.1402
N4360 X1.3972 Y3.8801 Z-0.1404
N4365 X1.4021 Z-0.1405
N4370 X1.4069 Y3.8805 Z-0.1407
N4375 X1.4117 Y3.8812 Z-0.1409
N4380 X1.4165 Y3.8822 Z-0.1411
N4385 X1.4212 Y3.8835 Z-0.1412
N4390 X1.4258 Y3.8851 Z-0.1414
N4395 X1.4303 Y3.8869 Z-0.1416
N4400 X1.4346 Y3.8892 Z-0.1417
N4405 X1.4388 Y3.8916 Z-0.1419
N4410 X1.4428 Y3.8944 Z-0.1421
N4415 X1.4467 Y3.8974 Z-0.1422
N4420 X1.4503 Y3.9006 Z-0.1424
N4425 X1.4537 Y3.9041 Z-0.1426
N4430 X1.4569 Y3.9078 Z-0.1428
N4435 X1.4599 Y3.9117 Z-0.1429
N4440 X1.4625 Y3.9157 Z-0.1431
N4445 X1.4649 Y3.92 Z-0.1433
N4450 X1.467 Y3.9244 Z-0.1434
N4455 X1.4689 Y3.9289 Z-0.1436
N4460 X1.4704 Y3.9335 Z-0.1438
N4465 X1.4716 Y3.9382 Z-0.1439
N4470 X1.4726 Y3.943 Z-0.1441
N4475 X1.4731 Y3.9478 Z-0.1443
N4480 X1.4734 Y3.9527 Z-0.1445
N4485 X1.4733 Y3.9576 Z-0.1446
N4490 X1.473 Y3.9624 Z-0.1448
N4495 X1.4723 Y3.9672 Z-0.145
N4500 X1.4713 Y3.972 Z-0.1451
N4505 X1.4701 Y3.9767 Z-0.1453
N4510 X1.4684 Y3.9813 Z-0.1455
N4515 X1.4665 Y3.9858 Z-0.1456
N4520 X1.4643 Y3.9901 Z-0.1458
N4525 X1.4618 Y3.9943 Z-0.146
N4530 X1.4591 Y3.9984 Z-0.1462
N4535 X1.4561 Y4.0022 Z-0.1463
N4540 X1.4529 Y4.0059 Z-0.1465
N4545 X1.4494 Y4.0093 Z-0.1467
N4550 X1.4457 Y4.0124 Z-0.1468
N4555 X1.4418 Y4.0154 Z-0.147
N4560 X1.4377 Y4.018 Z-0.1472
N4565 X1.4335 Y4.0204 Z-0.1473
N4570 X1.4291 Y4.0225 Z-0.1475
N4575 X1.4246 Y4.0244 Z-0.1477
N4580 X1.42 Y4.0259 Z-0.1479
N4585 X1.4153 Y4.0271 Z-0.148
N4590 X1.4105 Y4.028 Z-0.1482
N4595 X1.4057 Y4.0286 Z-0.1484
N4600 X1.4008 Y4.0289 Z-0.1485
N4605 X1.3959 Y4.0288 Z-0.1487
N4610 X1.3911 Y4.0285 Z-0.1489
N4615 X1.3862 Y4.0278 Z-0.149
N4620 X1.3815 Y4.0268 Z-0.1492
N4625 X1.3768 Y4.0255 Z-0.1494
N4630 X1.3722 Y4.0239 Z-0.1496
N4635 X1.3677 Y4.022 Z-0.1497
N4640 X1.3634 Y4.0198 Z-0.1499
N4645 X1.3592 Y4.0174 Z-0.1501
N4650 X1.3551 Y4.0146 Z-0.1502
N4655 X1.3513 Y4.0116 Z-0.1504
N4660 X1.3477 Y4.0084 Z-0.1506
N4665 X1.3443 Y4.0049 Z-0.1507
N4670 X1.3411 Y4.0012 Z-0.1509
N4675 X1.3381 Y3.9973 Z-0.1511
N4680 X1.3355 Y3.9932 Z-0.1513
N4685 X1.3331 Y3.989 Z-0.1514
N4690 X1.3309 Y3.9846 Z-0.1516
N4695 X1.3291 Y3.9801 Z-0.1518
N4700 X1.3276 Y3.9755 Z-0.1519
N4705 X1.3264 Y3.9708 Z-0.1521
N4710 X1.3255 Y3.966 Z-0.1523
N4715 X1.3249 Y3.9612 Z-0.1524
N4720 X1.3246 Y3.9563 Z-0.1526
N4725 Y3.9514 Z-0.1528
N4730 X1.325 Y3.9466 Z-0.153
N4735 X1.3257 Y3.9418 Z-0.1531
N4740 X1.3267 Y3.937 Z-0.1533
N4745 X1.328 Y3.9323 Z-0.1535
N4750 X1.3296 Y3.9277 Z-0.1536
N4755 X1.3315 Y3.9232 Z-0.1538
N4760 X1.3336 Y3.9189 Z-0.154
N4765 X1.3361 Y3.9147 Z-0.1541
N4770 X1.3389 Y3.9106 Z-0.1543
N4775 X1.3419 Y3.9068 Z-0.1545
N4780 X1.3451 Y3.9032 Z-0.1547
N4785 X1.3486 Y3.8998 Z-0.1548
N4790 X1.3523 Y3.8966 Z-0.155
N4795 X1.3562 Y3.8936 Z-0.1552
N4800 X1.3602 Y3.8909 Z-0.1553
N4805 X1.3645 Y3.8886 Z-0.1555
N4810 X1.3689 Y3.8865 Z-0.1557
N4815 X1.3734 Y3.8846 Z-0.1558
N4820 X1.378 Y3.8831 Z-0.156
N4825 X1.3827 Y3.8819 Z-0.1562
N4830 X1.3875 Y3.881 Z-0.1564
N4835 X1.3923 Y3.8804 Z-0.1565
N4840 X1.3972 Y3.8801 Z-0.1567
N4845 X1.4021 Z-0.1569
N4850 X1.4069 Y3.8805 Z-0.157
N4855 X1.4117 Y3.8812 Z-0.1572
N4860 X1.4156 Y3.8819 Z-0.1573
N4865 X1.4194 Y3.8829 Z-0.1575
N4870 X1.4195
N4875 Y3.883
N4880 Y3.8829
N4885 X1.4199 Y3.883
N4890 X1.4207 Y3.8833
N4895 X1.4243 Y3.8845 Z-0.1577
N4900 X1.4289 Y3.8863 Z-0.1578
N4905 X1.4334 Y3.8885 Z-0.158
N4910 X1.4377 Y3.8909 Z-0.1582
N4915 X1.4418 Y3.8937 Z-0.1583
N4920 X1.4458 Y3.8967 Z-0.1585
N4925 X1.4496 Y3.8999 Z-0.1587
N4930 X1.4532 Y3.9034 Z-0.1589
N4935 X1.4564 Y3.9071 Z-0.159
N4940 X1.4594 Y3.9111 Z-0.1592
N4945 X1.4622 Y3.9152 Z-0.1594
N4950 X1.4647 Y3.9195 Z-0.1596
N4955 X1.4669 Y3.924 Z-0.1597
N4960 X1.4687 Y3.9286 Z-0.1599
N4965 X1.4703 Y3.9333 Z-0.1601
N4970 X1.4716 Y3.9381 Z-0.1603
N4975 X1.4726 Y3.943 Z-0.1604
N4980 X1.4731 Y3.9479 Z-0.1606
N4985 X1.4734 Y3.9529 Z-0.1608
N4990 X1.4733 Y3.9579 Z-0.161
N4995 X1.4729 Y3.9628 Z-0.1611
N5000 X1.4722 Y3.9677 Z-0.1613
N5005 X1.4712 Y3.9726 Z-0.1615
N5010 X1.4698 Y3.9774 Z-0.1616
N5015 X1.4681 Y3.9821 Z-0.1618
N5020 X1.4661 Y3.9867 Z-0.162
N5025 X1.4638 Y3.9911 Z-0.1622
N5030 X1.4612 Y3.9953 Z-0.1623
N5035 X1.4583 Y3.9994 Z-0.1625
N5040 X1.4552 Y4.0032 Z-0.1627
N5045 X1.4518 Y4.0069 Z-0.1629
N5050 X1.4482 Y4.0103 Z-0.163
N5055 X1.4463 Y4.0119 Z-0.1631
N5060 X1.4444 Y4.0134 Z-0.1632
N5065 X1.4403 Y4.0163 Z-0.1634
N5070 X1.4382 Y4.0177 Z-0.1635
N5075 X1.4361 Y4.019 Z-0.1636
N5080 X1.4317 Y4.0213 Z-0.1637
N5085 X1.4295 Y4.0223 Z-0.1638
N5090 X1.4272 Y4.0233 Z-0.1639
N5095 X1.4225 Y4.0251 Z-0.1641
N5100 X1.4202 Y4.0258 Z-0.1642
N5105 X1.4178 Y4.0265
N5110 X1.4129 Y4.0276 Z-0.1644
N5115 X1.4105 Y4.028 Z-0.1645
N5120 X1.408 Y4.0283 Z-0.1646
N5125 X1.4031 Y4.0287 Z-0.1648
N5130 X1.4006 Y4.0288
N5135 X1.3981 Z-0.1649
N5140 X1.3931 Y4.0286 Z-0.1651
N5145 X1.3906 Y4.0284 Z-0.1652
N5150 X1.3882 Y4.028 Z-0.1653
N5155 X1.3833 Y4.0272 Z-0.1655
N5160 X1.3809 Y4.0266
N5165 X1.3785 Y4.0259 Z-0.1656
N5170 X1.3738 Y4.0244 Z-0.1658
N5175 X1.3715 Y4.0235 Z-0.1659
N5180 X1.3692 Y4.0226 Z-0.166
N5185 X1.3647 Y4.0204 Z-0.1661
N5190 X1.3625 Y4.0192 Z-0.1662
N5195 X1.3603 Y4.018 Z-0.1663
N5200 X1.3562 Y4.0152 Z-0.1665
N5205 X1.3542 Y4.0138 Z-0.1666
N5210 X1.3522 Y4.0123 Z-0.1667
N5215 X1.3485 Y4.009 Z-0.1668
N5220 X1.3467 Y4.0073 Z-0.1669
N5225 X1.345 Y4.0055 Z-0.167
N5230 X1.3417 Y4.0018 Z-0.1672
N5235 X1.3401 Y3.9998 Z-0.1673
N5240 X1.3386 Y3.9978 Z-0.1674
N5245 X1.3359 Y3.9937 Z-0.1675
N5250 X1.3346 Y3.9916 Z-0.1676
N5255 X1.3334 Y3.9894 Z-0.1677
N5260 X1.3312 Y3.9849 Z-0.1679
N5265 X1.3303 Y3.9827 Z-0.168
N5270 X1.3294 Y3.9803 Z-0.1681
N5275 X1.3278 Y3.9756 Z-0.1682
N5280 X1.3271 Y3.9733 Z-0.1683
N5285 X1.3265 Y3.9708 Z-0.1684
N5290 X1.3256 Y3.966 Z-0.1686
N5295 X1.3253 Y3.9635 Z-0.1687
N5300 X1.325 Y3.961
N5305 X1.3248 Y3.9561 Z-0.1689
N5310 Y3.9536 Z-0.169
N5315 Y3.9511 Z-0.1691
N5320 X1.3252 Y3.9462 Z-0.1693
N5325 X1.3255 Y3.9437
N5330 X1.3259 Y3.9413 Z-0.1694
N5335 X1.327 Y3.9364 Z-0.1696
N5340 X1.3284 Y3.9316 Z-0.1698
N5345 X1.3292 Y3.9293 Z-0.1699
N5350 X1.3301 Y3.927 Z-0.17
N5355 X1.332 Y3.9224 Z-0.1701
N5360 X1.3332 Y3.9202 Z-0.1702
N5365 X1.3344 Y3.918 Z-0.1703
N5370 X1.3369 Y3.9138 Z-0.1705
N5375 X1.3383 Y3.9117 Z-0.1706
N5380 X1.3398 Y3.9097
N5385 X1.3429 Y3.9059 Z-0.1708
N5390 X1.3446 Y3.9041 Z-0.1709
N5395 X1.3463 Y3.9023 Z-0.171
N5400 X1.3499 Y3.8989 Z-0.1712
N5405 X1.3518 Y3.8973
N5410 X1.3537 Y3.8957 Z-0.1713
N5415 X1.3577 Y3.8928 Z-0.1715
N5420 X1.3598 Y3.8915 Z-0.1716
N5425 X1.362 Y3.8902 Z-0.1717
N5430 X1.3664 Y3.8879 Z-0.1719
N5435 X1.3686 Y3.8869
N5440 X1.3709 Y3.8859 Z-0.172
N5445 X1.3755 Y3.8842 Z-0.1722
N5450 X1.3779 Y3.8834 Z-0.1723
N5455 X1.3803 Y3.8828 Z-0.1724
N5460 X1.3851 Y3.8817 Z-0.1725
N5465 X1.3875 Y3.8813 Z-0.1726
N5470 X1.39 Y3.8809 Z-0.1727
N5475 X1.3949 Y3.8805 Z-0.1729
N5480 X1.3974 Y3.8804 Z-0.173
N5485 X1.3999 Z-0.1731
N5490 X1.4048 Y3.8806 Z-0.1732
N5495 X1.4073 Y3.8809 Z-0.1733
N5500 X1.4098 Y3.8812 Z-0.1734
N5505 X1.4146 Y3.8821 Z-0.1736
N5510 X1.417 Y3.8826 Z-0.1737
N5515 X1.4194 Y3.8833
N5520 X1.4241 Y3.8848 Z-0.1739
N5525 X1.4265 Y3.8857 Z-0.174
N5530 X1.4287 Y3.8867 Z-0.1741
N5535 X1.4332 Y3.8888 Z-0.1743
N5540 X1.4354 Y3.89 Z-0.1744
N5545 X1.4375 Y3.8912
N5550 X1.4416 Y3.894 Z-0.1746
N5555 X1.4436 Y3.8954 Z-0.1747
N5560 X1.4456 Y3.8969 Z-0.1748
N5565 X1.4493 Y3.9002 Z-0.175
N5570 X1.4511 Y3.9019
N5575 X1.4528 Y3.9037 Z-0.1751
N5580 X1.4561 Y3.9074 Z-0.1753
N5585 X1.4576 Y3.9093 Z-0.1754
N5590 X1.4591 Y3.9113 Z-0.1755
N5595 X1.4619 Y3.9154 Z-0.1756
N5600 X1.4631 Y3.9176 Z-0.1757
N5605 X1.4643 Y3.9197 Z-0.1758
N5610 X1.4665 Y3.9242 Z-0.176
N5615 X1.4675 Y3.9264 Z-0.1761
N5620 X1.4684 Y3.9287 Z-0.1762
N5625 X1.4699 Y3.9334 Z-0.1763
N5630 X1.4706 Y3.9358 Z-0.1764
N5635 X1.4712 Y3.9382 Z-0.1765
N5640 X1.4721 Y3.9431 Z-0.1767
N5645 X1.4724 Y3.9455 Z-0.1768
N5650 X1.4727 Y3.948 Z-0.1769
N5655 X1.473 Y3.9529 Z-0.177
N5660 X1.4729 Y3.9579 Z-0.1772
N5665 X1.4724 Y3.9628 Z-0.1774
N5670 X1.4717 Y3.9676 Z-0.1775
N5675 X1.4707 Y3.9725 Z-0.1777
N5680 X1.4693 Y3.9772 Z-0.1779
N5685 X1.4676 Y3.9819 Z-0.1781
N5690 X1.4656 Y3.9864 Z-0.1782
N5695 X1.4633 Y3.9908 Z-0.1784
N5700 X1.4608 Y3.995 Z-0.1786
N5705 X1.4594 Y3.9971 Z-0.1787
N5710 X1.4579 Y3.9991
N5715 X1.4548 Y4.0029 Z-0.1789
N5720 X1.4532 Y4.0047 Z-0.179
N5725 X1.4515 Y4.0065 Z-0.1791
N5730 X1.4479 Y4.0099 Z-0.1793
N5735 X1.446 Y4.0115
N5740 X1.4441 Y4.013 Z-0.1794
N5745 X1.4401 Y4.0159 Z-0.1796
N5750 X1.438 Y4.0172 Z-0.1797
N5755 X1.4358 Y4.0185 Z-0.1798
N5760 X1.4315 Y4.0208 Z-0.18
N5765 X1.4293 Y4.0218
N5770 X1.427 Y4.0228 Z-0.1801
N5775 X1.4224 Y4.0245 Z-0.1803
N5780 X1.42 Y4.0253 Z-0.1804
N5785 X1.4176 Y4.0259 Z-0.1805
N5790 X1.4128 Y4.027 Z-0.1806
N5795 X1.4104 Y4.0274 Z-0.1807
N5800 X1.4079 Y4.0278 Z-0.1808
N5805 X1.403 Y4.0282 Z-0.181
N5810 X1.4006 Y4.0283 Z-0.1811
N5815 X1.3981 Z-0.1812
N5820 X1.3932 Y4.0281 Z-0.1813
N5825 X1.3907 Y4.0278 Z-0.1814
N5830 X1.3883 Y4.0275 Z-0.1815
N5835 X1.3834 Y4.0266 Z-0.1817
N5840 X1.381 Y4.026 Z-0.1818
N5845 X1.3786 Y4.0254
N5850 X1.374 Y4.0239 Z-0.182
N5855 X1.3717 Y4.023 Z-0.1821
N5860 X1.3694 Y4.022 Z-0.1822
N5865 X1.3649 Y4.0199 Z-0.1824
N5870 X1.3628 Y4.0187
N5875 X1.3606 Y4.0175 Z-0.1825
N5880 X1.3565 Y4.0148 Z-0.1827
N5885 X1.3545 Y4.0133 Z-0.1828
N5890 X1.3526 Y4.0118 Z-0.1829
N5895 X1.3489 Y4.0086 Z-0.183
N5900 X1.3471 Y4.0069 Z-0.1831
N5905 X1.3454 Y4.0051 Z-0.1832
N5910 X1.3421 Y4.0014 Z-0.1834
N5915 X1.3406 Y3.9995 Z-0.1835
N5920 X1.3391 Y3.9975 Z-0.1836
N5925 X1.3364 Y3.9934 Z-0.1837
N5930 X1.3351 Y3.9913 Z-0.1838
N5935 X1.3339 Y3.9891 Z-0.1839
N5940 X1.3318 Y3.9847 Z-0.1841
N5945 X1.3308 Y3.9824 Z-0.1842
N5950 X1.3299 Y3.9801
N5955 X1.3284 Y3.9755 Z-0.1844
N5960 X1.3277 Y3.9731 Z-0.1845
N5965 X1.3271 Y3.9707 Z-0.1846
N5970 X1.3262 Y3.9659 Z-0.1848
N5975 X1.3259 Y3.9634
N5980 X1.3256 Y3.961 Z-0.1849
N5985 X1.3254 Y3.9561 Z-0.1851
N5990 Y3.9536 Z-0.1852
N5995 Y3.9511 Z-0.1853
N6000 X1.3258 Y3.9462 Z-0.1854
N6005 X1.3262 Y3.9438 Z-0.1855
N6010 X1.3266 Y3.9414 Z-0.1856
N6015 X1.3276 Y3.9366 Z-0.1858
N6020 X1.329 Y3.9318 Z-0.186
N6025 X1.3298 Y3.9295 Z-0.1861
N6030 X1.3307 Y3.9272
N6035 X1.3326 Y3.9227 Z-0.1863
N6040 X1.3337 Y3.9205 Z-0.1864
N6045 X1.3349 Y3.9184 Z-0.1865
N6050 X1.3375 Y3.9142 Z-0.1867
N6055 X1.3389 Y3.9121
N6060 X1.3403 Y3.9101 Z-0.1868
N6065 X1.3434 Y3.9063 Z-0.187
N6070 X1.3451 Y3.9045 Z-0.1871
N6075 X1.3468 Y3.9027 Z-0.1872
N6080 X1.3503 Y3.8994 Z-0.1873
N6085 X1.3522 Y3.8978 Z-0.1874
N6090 X1.3541 Y3.8962 Z-0.1875
N6095 X1.3581 Y3.8934 Z-0.1877
N6100 X1.3602 Y3.8921 Z-0.1878
N6105 X1.3623 Y3.8908 Z-0.1879
N6110 X1.3666 Y3.8885 Z-0.188
N6115 X1.3689 Y3.8874 Z-0.1881
N6120 X1.3711 Y3.8865 Z-0.1882
N6125 X1.3757 Y3.8848 Z-0.1884
N6130 X1.3781 Y3.884 Z-0.1885
N6135 X1.3804 Y3.8834
N6140 X1.3852 Y3.8823 Z-0.1887
N6145 X1.3877 Y3.8819 Z-0.1888
N6150 X1.3901 Y3.8816 Z-0.1889
N6155 X1.395 Y3.8811 Z-0.1891
N6160 X1.3974 Y3.881
N6165 X1.3999 Z-0.1892
N6170 X1.4048 Y3.8813 Z-0.1894
N6175 X1.4072 Y3.8815 Z-0.1895
N6180 X1.4097 Y3.8818 Z-0.1896
N6185 X1.4145 Y3.8827 Z-0.1897
N6190 X1.4169 Y3.8833 Z-0.1898
N6195 X1.4193 Y3.8839 Z-0.1899
N6200 X1.4239 Y3.8854 Z-0.1901
N6205 X1.4262 Y3.8863 Z-0.1902
N6210 X1.4285 Y3.8872
N6215 X1.4329 Y3.8894 Z-0.1904
N6220 X1.4351 Y3.8905 Z-0.1905
N6225 X1.4372 Y3.8918 Z-0.1906
N6230 X1.4413 Y3.8945 Z-0.1908
N6235 X1.4433 Y3.8959
N6240 X1.4452 Y3.8974 Z-0.1909
N6245 X1.4489 Y3.9007 Z-0.1911
N6250 X1.4507 Y3.9024 Z-0.1912
N6255 X1.4524 Y3.9041 Z-0.1913
N6260 X1.4556 Y3.9078 Z-0.1914
N6265 X1.4571 Y3.9097 Z-0.1915
N6270 X1.4586 Y3.9117 Z-0.1916
N6275 X1.4613 Y3.9158 Z-0.1918
N6280 X1.4626 Y3.9179 Z-0.1919
N6285 X1.4638 Y3.92 Z-0.192
N6290 X1.4659 Y3.9244 Z-0.1921
N6295 X1.4669 Y3.9267 Z-0.1922
N6300 X1.4678 Y3.929 Z-0.1923
N6305 X1.4693 Y3.9336 Z-0.1925
N6310 X1.47 Y3.936 Z-0.1926
N6315 X1.4706 Y3.9384
N6320 X1.4714 Y3.9432 Z-0.1928
N6325 X1.4718 Y3.9456 Z-0.1929
N6330 X1.4721 Y3.948 Z-0.193
N6335 X1.4723 Y3.9529 Z-0.1932
N6340 X1.4722 Y3.9578 Z-0.1933
N6345 X1.4718 Y3.9627 Z-0.1935
N6350 X1.4711 Y3.9676 Z-0.1937
N6355 X1.47 Y3.9723 Z-0.1938
N6360 X1.4687 Y3.977 Z-0.194
N6365 X1.467 Y3.9817 Z-0.1942
N6370 X1.465 Y3.9861 Z-0.1944
N6375 X1.4628 Y3.9905 Z-0.1945
N6380 X1.4603 Y3.9947 Z-0.1947
N6385 X1.4589 Y3.9967 Z-0.1948
N6390 X1.4574 Y3.9987 Z-0.1949
N6395 X1.4544 Y4.0025 Z-0.195
N6400 X1.4527 Y4.0043 Z-0.1951
N6405 X1.451 Y4.0061 Z-0.1952
N6410 X1.4475 Y4.0094 Z-0.1954
N6415 X1.4456 Y4.011 Z-0.1955
N6420 X1.4437 Y4.0125 Z-0.1956
N6425 X1.4397 Y4.0154 Z-0.1957
N6430 X1.4376 Y4.0167 Z-0.1958
N6435 X1.4355 Y4.0179 Z-0.1959
N6440 X1.4312 Y4.0202 Z-0.1961
N6445 X1.429 Y4.0213 Z-0.1962
N6450 X1.4267 Y4.0222
N6455 X1.4222 Y4.0239 Z-0.1964
N6460 X1.4198 Y4.0247 Z-0.1965
N6465 X1.4175 Y4.0253 Z-0.1966
N6470 X1.4127 Y4.0264 Z-0.1967
N6475 X1.4098 Y4.0269 Z-0.1968
N6480 X1.4096 Z-0.1969
N6485 X1.409 Y4.027
N6490 X1.4084 Y4.0271
N6495 X1.4072 Y4.0272
N6500 X1.4047 Y4.0274 Z-0.197
N6505 X1.3997 Y4.0277 Z-0.1972
N6510 X1.3972 Y4.0276 Z-0.1973
N6515 X1.3947 Y4.0275 Z-0.1974
N6520 X1.3897 Y4.0271 Z-0.1975
N6525 X1.3873 Y4.0267 Z-0.1976
N6530 X1.3848 Y4.0262 Z-0.1977
N6535 X1.38 Y4.0251 Z-0.1979
N6540 X1.3776 Y4.0244 Z-0.198
N6545 X1.3752 Y4.0236 Z-0.1981
N6550 X1.3705 Y4.0218 Z-0.1982
N6555 X1.3682 Y4.0208 Z-0.1983
N6560 X1.366 Y4.0197 Z-0.1984
N6565 X1.3638 Y4.0186 Z-0.1985
N6570 X1.3616 Y4.0173 Z-0.1986
N6575 X1.3574 Y4.0146 Z-0.1988
N6580 X1.3554 Y4.0132 Z-0.1989
N6585 X1.3534 Y4.0117
N6590 X1.3496 Y4.0084 Z-0.1991
N6595 X1.3478 Y4.0067 Z-0.1992
N6600 X1.3461 Y4.0049 Z-0.1993
N6605 X1.3428 Y4.0011 Z-0.1995
N6610 X1.3412 Y3.9992 Z-0.1996
N6615 X1.3397 Y3.9972
N6620 X1.3369 Y3.993 Z-0.1998
N6625 X1.3357 Y3.9909 Z-0.1999
N6630 X1.3344 Y3.9887 Z-0.2
N6635 X1.3323 Y3.9842 Z-0.2002
N6640 X1.3313 Y3.9819
N6645 X1.3304 Y3.9796 Z-0.2003
N6650 X1.3289 Y3.9749 Z-0.2005
N6655 X1.3282 Y3.9725 Z-0.2006
N6660 X1.3277 Y3.97 Z-0.2007
N6665 X1.3268 Y3.9652 Z-0.2009
N6670 X1.3265 Y3.9627
N6675 X1.3262 Y3.9602 Z-0.201
N6680 X1.326 Y3.9552 Z-0.2012
N6685 Y3.9527 Z-0.2013
N6690 X1.3261 Y3.9502 Z-0.2014
N6695 X1.3266 Y3.9453 Z-0.2016
N6700 X1.327 Y3.9428
N6705 X1.3274 Y3.9403 Z-0.2017
N6710 X1.3285 Y3.9355 Z-0.2019
N6715 X1.3292 Y3.9331 Z-0.202
N6720 X1.33 Y3.9307 Z-0.2021
N6725 X1.3318 Y3.9261 Z-0.2022
N6730 X1.3328 Y3.9238 Z-0.2023
N6735 X1.3339 Y3.9216 Z-0.2024
N6740 X1.3363 Y3.9172 Z-0.2026
N6745 X1.3376 Y3.9151 Z-0.2027
N6750 X1.339 Y3.913 Z-0.2028
N6755 X1.3405 Y3.911 Z-0.2029
N6760 X1.342 Y3.909
N6765 X1.3452 Y3.9052 Z-0.2031
N6770 X1.347 Y3.9034 Z-0.2032
N6775 X1.3487 Y3.9017 Z-0.2033
N6780 X1.3524 Y3.8984 Z-0.2035
N6785 X1.3544 Y3.8968 Z-0.2036
N6790 X1.3564 Y3.8954
N6795 X1.3605 Y3.8926 Z-0.2038
N6800 X1.3627 Y3.8913 Z-0.2039
N6805 X1.3648 Y3.8901 Z-0.204
N6810 X1.3693 Y3.8879 Z-0.2042
N6815 X1.3716 Y3.887
N6820 X1.3739 Y3.8861 Z-0.2043
N6825 X1.3786 Y3.8845 Z-0.2045
N6830 X1.381 Y3.8839 Z-0.2046
N6835 X1.3835 Y3.8833 Z-0.2047
N6840 X1.3884 Y3.8824 Z-0.2049
N6845 X1.3909 Y3.8821
N6850 X1.3933 Y3.8819 Z-0.205
N6855 X1.3983 Y3.8817 Z-0.2052
N6860 X1.4008 Z-0.2053
N6865 X1.4033 Y3.8818 Z-0.2054
N6870 X1.4082 Y3.8823 Z-0.2055
N6875 X1.4107 Y3.8826 Z-0.2056
N6880 X1.4131 Y3.8831 Z-0.2057
N6885 X1.418 Y3.8842 Z-0.2059
N6890 X1.4203 Y3.8849 Z-0.206
N6895 X1.4227 Y3.8857 Z-0.2061
N6900 X1.4274 Y3.8874 Z-0.2062
N6905 X1.4296 Y3.8885 Z-0.2063
N6910 X1.4319 Y3.8896 Z-0.2064
N6915 X1.4362 Y3.8919 Z-0.2066
N6920 X1.4383 Y3.8933 Z-0.2067
N6925 X1.4404 Y3.8946 Z-0.2068
N6930 X1.4444 Y3.8976 Z-0.2069
N6935 X1.4463 Y3.8992 Z-0.207
N6940 X1.4481 Y3.9008 Z-0.2071
N6945 X1.4499 Y3.9025 Z-0.2072
N6950 X1.4517 Y3.9043 Z-0.2073
N6955 X1.455 Y3.908 Z-0.2075
N6960 X1.4565 Y3.91
N6965 X1.458 Y3.912 Z-0.2076
N6970 X1.4608 Y3.9161 Z-0.2078
N6975 X1.462 Y3.9182 Z-0.2079
N6980 X1.4632 Y3.9204 Z-0.208
N6985 X1.4654 Y3.9249 Z-0.2081
N6990 X1.4664 Y3.9272 Z-0.2082
N6995 X1.4673 Y3.9295 Z-0.2083
N7000 X1.4688 Y3.9342 Z-0.2085
N7005 X1.4695 Y3.9366 Z-0.2086
N7010 X1.47 Y3.939 Z-0.2087
N7015 X1.4709 Y3.9439 Z-0.2088
N7020 X1.4712 Y3.9463 Z-0.2089
N7025 X1.4715 Y3.9488 Z-0.209
N7030 X1.4717 Y3.9538 Z-0.2092
N7035 X1.4715 Y3.9588 Z-0.2094
N7040 X1.4711 Y3.9637 Z-0.2095
N7045 X1.4703 Y3.9685 Z-0.2097
N7050 X1.4691 Y3.9734 Z-0.2099
N7055 X1.4677 Y3.9781 Z-0.2101
N7060 X1.4659 Y3.9828 Z-0.2102
N7065 X1.4638 Y3.9873 Z-0.2104
N7070 X1.4614 Y3.9916 Z-0.2106
N7075 X1.4601 Y3.9938 Z-0.2107
N7080 X1.4587 Y3.9958
N7085 X1.4573 Y3.9978 Z-0.2108
N7090 X1.4558 Y3.9998 Z-0.2109
N7095 X1.4525 Y4.0036 Z-0.2111
N7100 X1.4508 Y4.0054 Z-0.2112
N7105 X1.4491 Y4.0071 Z-0.2113
N7110 X1.4454 Y4.0104 Z-0.2114
N7115 X1.4434 Y4.0119 Z-0.2115
N7120 X1.4414 Y4.0134 Z-0.2116
N7125 X1.4373 Y4.0161 Z-0.2118
N7130 X1.4352 Y4.0174 Z-0.2119
N7135 X1.433 Y4.0186 Z-0.212
N7140 X1.4286 Y4.0208 Z-0.2121
N7145 X1.4263 Y4.0217 Z-0.2122
N7150 X1.424 Y4.0226 Z-0.2123
N7155 X1.4193 Y4.0242 Z-0.2125
N7160 X1.4169 Y4.0248 Z-0.2126
N7165 X1.4145 Y4.0254
N7170 X1.4096 Y4.0263 Z-0.2128
N7175 X1.4071 Y4.0266 Z-0.2129
N7180 X1.4046 Y4.0268 Z-0.213
N7185 X1.3997 Y4.027 Z-0.2132
N7190 X1.3972
N7195 X1.3947 Y4.0269 Z-0.2133
N7200 X1.3898 Y4.0264 Z-0.2135
N7205 X1.3874 Y4.0261 Z-0.2136
N7210 X1.3849 Y4.0256 Z-0.2137
N7215 X1.3801 Y4.0245 Z-0.2139
N7220 X1.3777 Y4.0238
N7225 X1.3754 Y4.023 Z-0.214
N7230 X1.3708 Y4.0212 Z-0.2142
N7235 X1.3685 Y4.0202 Z-0.2143
N7240 X1.3663 Y4.0191 Z-0.2144
N7245 X1.3641 Y4.018 Z-0.2145
N7250 X1.3619 Y4.0168
N7255 X1.3578 Y4.0141 Z-0.2147
N7260 X1.3558 Y4.0126 Z-0.2148
N7265 X1.3538 Y4.0111 Z-0.2149
N7270 X1.3501 Y4.0079 Z-0.2151
N7275 X1.3483 Y4.0062
N7280 X1.3466 Y4.0044 Z-0.2152
N7285 X1.3433 Y4.0007 Z-0.2154
N7290 X1.3417 Y3.9988 Z-0.2155
N7295 X1.3403 Y3.9968 Z-0.2156
N7300 X1.3375 Y3.9927 Z-0.2158
N7305 X1.3363 Y3.9906
N7310 X1.3351 Y3.9884 Z-0.2159
N7315 X1.3329 Y3.9839 Z-0.2161
N7320 X1.3319 Y3.9817 Z-0.2162
N7325 X1.331 Y3.9794 Z-0.2163
N7330 X1.3295 Y3.9747 Z-0.2164
N7335 X1.3289 Y3.9723 Z-0.2165
N7340 X1.3283 Y3.9699 Z-0.2166
N7345 X1.3275 Y3.9651 Z-0.2168
N7350 X1.3271 Y3.9626 Z-0.2169
N7355 X1.3269 Y3.9602 Z-0.217
N7360 X1.3267 Y3.9552 Z-0.2171
N7365 Y3.9527 Z-0.2172
N7370 X1.3268 Y3.9503 Z-0.2173
N7375 X1.3273 Y3.9453 Z-0.2175
N7380 X1.3277 Y3.9429 Z-0.2176
N7385 X1.3281 Y3.9405
N7390 X1.3292 Y3.9357 Z-0.2178
N7395 X1.3299 Y3.9333 Z-0.2179
N7400 X1.3307 Y3.931 Z-0.218
N7405 X1.3325 Y3.9264 Z-0.2182
N7410 X1.3335 Y3.9241
N7415 X1.3345 Y3.9219 Z-0.2183
N7420 X1.3369 Y3.9176 Z-0.2185
N7425 X1.3382 Y3.9155 Z-0.2186
N7430 X1.3396 Y3.9134 Z-0.2187
N7435 X1.341 Y3.9114 Z-0.2188
N7440 X1.3425 Y3.9095
N7445 X1.3458 Y3.9057 Z-0.219
N7450 X1.3475 Y3.9039 Z-0.2191
N7455 X1.3492 Y3.9022 Z-0.2192
N7460 X1.3529 Y3.899 Z-0.2194
N7465 X1.3548 Y3.8974 Z-0.2195
N7470 X1.3568 Y3.8959
N7475 X1.3609 Y3.8932 Z-0.2197
N7480 X1.363 Y3.892 Z-0.2198
N7485 X1.3652 Y3.8908 Z-0.2199
N7490 X1.3696 Y3.8886 Z-0.2201
N7495 X1.3719 Y3.8877
N7500 X1.3742 Y3.8868 Z-0.2202
N7505 X1.3789 Y3.8852 Z-0.2204
N7510 X1.3812 Y3.8846 Z-0.2205
N7515 X1.3836 Y3.884 Z-0.2206
N7520 X1.3885 Y3.8832 Z-0.2207
N7525 X1.3909 Y3.8829 Z-0.2208
N7530 X1.3934 Y3.8826 Z-0.2209
N7535 X1.3983 Y3.8824 Z-0.2211
N7540 X1.4008 Z-0.2212
N7545 X1.4032 Y3.8825 Z-0.2213
N7550 X1.4081 Y3.883 Z-0.2214
N7555 X1.4106 Y3.8834 Z-0.2215
N7560 X1.413 Y3.8838 Z-0.2216
N7565 X1.4178 Y3.8849 Z-0.2218
N7570 X1.4201 Y3.8856 Z-0.2219
N7575 X1.4225 Y3.8864
N7580 X1.4271 Y3.8881 Z-0.2221
N7585 X1.4293 Y3.8892 Z-0.2222
N7590 X1.4315 Y3.8902 Z-0.2223
N7595 X1.4358 Y3.8926 Z-0.2225
N7600 X1.4379 Y3.8939
N7605 X1.4399 Y3.8953 Z-0.2226
N7610 X1.4419 Y3.8967 Z-0.2227
N7615 X1.4439 Y3.8982 Z-0.2228
N7620 X1.4476 Y3.9014 Z-0.223
N7625 X1.4494 Y3.9031 Z-0.2231
N7630 X1.4511 Y3.9049
N7635 X1.4544 Y3.9085 Z-0.2233
N7640 X1.4559 Y3.9105 Z-0.2234
N7645 X1.4574 Y3.9124 Z-0.2235
N7650 X1.4601 Y3.9165 Z-0.2237
N7655 X1.4614 Y3.9186
N7660 X1.4625 Y3.9208 Z-0.2238
N7665 X1.4647 Y3.9252 Z-0.224
N7670 X1.4656 Y3.9275 Z-0.2241
N7675 X1.4665 Y3.9298 Z-0.2242
N7680 X1.468 Y3.9344 Z-0.2243
N7685 X1.4687 Y3.9368 Z-0.2244
N7690 X1.4692 Y3.9392 Z-0.2245
N7695 X1.4701 Y3.944 Z-0.2247
N7700 X1.4704 Y3.9464 Z-0.2248
N7705 X1.4707 Y3.9489 Z-0.2249
N7710 X1.4709 Y3.9538 Z-0.225
N7715 X1.4707 Y3.9587 Z-0.2252
N7720 X1.4703 Y3.9636 Z-0.2254
N7725 X1.4695 Y3.9684 Z-0.2255
N7730 X1.4683 Y3.9732 Z-0.2257
N7735 X1.4669 Y3.9779 Z-0.2259
N7740 X1.4651 Y3.9825 Z-0.2261
N7745 X1.4631 Y3.9869 Z-0.2262
N7750 X1.4607 Y3.9912 Z-0.2264
N7755 X1.4594 Y3.9933 Z-0.2265
N7760 X1.458 Y3.9953 Z-0.2266
N7765 X1.4566 Y3.9973 Z-0.2267
N7770 X1.4551 Y3.9993
N7775 X1.4519 Y4.003 Z-0.2269
N7780 X1.4502 Y4.0048 Z-0.227
N7785 X1.4485 Y4.0065 Z-0.2271
N7790 X1.4448 Y4.0097 Z-0.2273
N7795 X1.4429 Y4.0112
N7800 X1.4409 Y4.0127 Z-0.2274
N7805 X1.4369 Y4.0154 Z-0.2276
N7810 X1.4348 Y4.0167 Z-0.2277
N7815 X1.4326 Y4.0179 Z-0.2278
N7820 X1.4282 Y4.02 Z-0.2279
N7825 X1.4259 Y4.0209 Z-0.228
N7830 X1.4237 Y4.0218 Z-0.2281
N7835 X1.419 Y4.0233 Z-0.2283
N7840 X1.4167 Y4.024 Z-0.2284
N7845 X1.4143 Y4.0245
N7850 X1.4094 Y4.0254 Z-0.2286
N7855 X1.407 Y4.0257 Z-0.2287
N7860 X1.4046 Y4.0259 Z-0.2288
N7865 X1.3997 Y4.0262 Z-0.229
N7870 X1.3972 Y4.0261
N7875 X1.3948 Y4.026 Z-0.2291
N7880 X1.3899 Y4.0256 Z-0.2293
N7885 X1.3875 Y4.0252 Z-0.2294
N7890 X1.3851 Y4.0248 Z-0.2295
N7895 X1.3803 Y4.0237 Z-0.2296
N7900 X1.378 Y4.023 Z-0.2297
N7905 X1.3757 Y4.0222 Z-0.2298
N7910 X1.3711 Y4.0205 Z-0.23
N7915 X1.3689 Y4.0194 Z-0.2301
N7920 X1.3667 Y4.0184 Z-0.2302
N7925 X1.3624 Y4.016 Z-0.2303
N7930 X1.3603 Y4.0147 Z-0.2304
N7935 X1.3583 Y4.0134 Z-0.2305
N7940 X1.3563 Y4.0119 Z-0.2306
N7945 X1.3544 Y4.0105 Z-0.2307
N7950 X1.3507 Y4.0073 Z-0.2308
N7955 X1.3489 Y4.0056 Z-0.2309
N7960 X1.3472 Y4.0038 Z-0.231
N7965 X1.3439 Y4.0002 Z-0.2312
N7970 X1.3424 Y3.9983 Z-0.2313
N7975 X1.341 Y3.9963
N7980 X1.3383 Y3.9922 Z-0.2315
N7985 X1.337 Y3.9901 Z-0.2316
N7990 X1.3358 Y3.988 Z-0.2317
N7995 X1.3337 Y3.9836 Z-0.2319
N8000 X1.3328 Y3.9814
N8005 X1.3319 Y3.9791 Z-0.232
N8010 X1.3304 Y3.9744 Z-0.2322
N8015 X1.3297 Y3.9721 Z-0.2323
N8020 X1.3292 Y3.9697 Z-0.2324
N8025 X1.3283 Y3.9649 Z-0.2325
N8030 X1.328 Y3.9625 Z-0.2326
N8035 X1.3278 Y3.9601 Z-0.2327
N8040 X1.3276 Y3.9552 Z-0.2329
N8045 Y3.9528 Z-0.233
N8050 X1.3277 Y3.9503 Z-0.2331
N8055 X1.3281 Y3.9455 Z-0.2332
N8060 X1.3285 Y3.943 Z-0.2333
N8065 X1.3289 Y3.9406 Z-0.2334
N8070 X1.3301 Y3.9359 Z-0.2336
N8075 X1.3307 Y3.9336
N8080 X1.3315 Y3.9312 Z-0.2337
N8085 X1.3332 Y3.9267 Z-0.2339
N8090 X1.3342 Y3.9245 Z-0.234
N8095 X1.3353 Y3.9223 Z-0.2341
N8100 X1.3377 Y3.918 Z-0.2342
N8105 X1.339 Y3.9159 Z-0.2343
N8110 X1.3403 Y3.9139 Z-0.2344
N8115 X1.3417 Y3.9119 Z-0.2345
N8120 X1.3432 Y3.91 Z-0.2346
N8125 X1.3464 Y3.9063 Z-0.2348
N8130 X1.3481 Y3.9046
N8135 X1.3498 Y3.9028 Z-0.2349
N8140 X1.3535 Y3.8996 Z-0.2351
N8145 X1.3554 Y3.8981 Z-0.2352
N8150 X1.3573 Y3.8966 Z-0.2353
N8155 X1.3614 Y3.8939 Z-0.2354
N8160 X1.3635 Y3.8927 Z-0.2355
N8165 X1.3656 Y3.8915 Z-0.2356
N8170 X1.37 Y3.8894 Z-0.2358
N8175 X1.3722 Y3.8885 Z-0.2359
N8180 X1.3745 Y3.8876
N8185 X1.3791 Y3.8861 Z-0.2361
N8190 X1.3821 Y3.8853 Z-0.2362
N8195 X1.3823 Y3.8852
N8200 X1.3829 Y3.8851
N8205 X1.3835 Y3.8849 Z-0.2363
N8210 X1.3847 Y3.8847
N8215 X1.3872 Y3.8842 Z-0.2364
N8220 X1.3922 Y3.8836 Z-0.2366
N8225 X1.3948 Y3.8834 Z-0.2367
N8230 X1.3973 Y3.8833 Z-0.2368
N8235 X1.3999
N8240 X1.4024 Y3.8834 Z-0.2369
N8245 X1.4075 Y3.8838 Z-0.2371
N8250 X1.41 Y3.8842 Z-0.2372
N8255 X1.4125 Y3.8846 Z-0.2373
N8260 X1.4174 Y3.8857 Z-0.2375
N8265 X1.4199 Y3.8865 Z-0.2376
N8270 X1.4223 Y3.8873
N8275 X1.4247 Y3.8881 Z-0.2377
N8280 X1.4271 Y3.8891 Z-0.2378
N8285 X1.4316 Y3.8913 Z-0.238
N8290 X1.4339 Y3.8925 Z-0.2381
N8295 X1.4361 Y3.8938 Z-0.2382
N8300 X1.4403 Y3.8966 Z-0.2383
N8305 X1.4423 Y3.8981 Z-0.2384
N8310 X1.4443 Y3.8997 Z-0.2385
N8315 X1.4481 Y3.9031 Z-0.2387
N8320 X1.4499 Y3.9049 Z-0.2388
N8325 X1.4516 Y3.9067 Z-0.2389
N8330 X1.4533 Y3.9086 Z-0.239
N8335 X1.4549 Y3.9105 Z-0.2391
N8340 X1.4579 Y3.9147 Z-0.2392
N8345 X1.4593 Y3.9168 Z-0.2393
N8350 X1.4606 Y3.919 Z-0.2394
N8355 X1.4629 Y3.9234 Z-0.2396
N8360 X1.464 Y3.9257 Z-0.2397
N8365 X1.465 Y3.9281 Z-0.2398
N8370 X1.4659 Y3.9305 Z-0.2399
N8375 X1.4667 Y3.9329
N8380 X1.468 Y3.9378 Z-0.2401
N8385 X1.4686 Y3.9403 Z-0.2402
N8390 X1.4691 Y3.9428 Z-0.2403
N8395 X1.4697 Y3.9478 Z-0.2405
N8400 X1.47 Y3.9529 Z-0.2407
N8405 X1.4699 Y3.958 Z-0.2408
N8410 X1.4695 Y3.963 Z-0.241
N8415 X1.4687 Y3.9679 Z-0.2412
N8420 X1.4675 Y3.9729 Z-0.2414
N8425 X1.466 Y3.9777 Z-0.2415
N8430 X1.4651 Y3.9801 Z-0.2416
N8435 X1.4642 Y3.9825 Z-0.2417
N8440 X1.462 Y3.9871 Z-0.2419
N8445 X1.4595 Y3.9915 Z-0.2421
N8450 X1.4567 Y3.9957 Z-0.2422
N8455 X1.4552 Y3.9977 Z-0.2423
N8460 X1.4536 Y3.9997 Z-0.2424
N8465 X1.452 Y4.0016 Z-0.2425
N8470 X1.4503 Y4.0035 Z-0.2426
N8475 X1.4467 Y4.007 Z-0.2428
N8480 X1.4448 Y4.0086 Z-0.2429
N8485 X1.4428 Y4.0102
N8490 X1.4387 Y4.0132 Z-0.2431
N8495 X1.4366 Y4.0146 Z-0.2432
N8500 X1.4344 Y4.0159 Z-0.2433
N8505 X1.43 Y4.0183 Z-0.2435
N8510 X1.4277 Y4.0193 Z-0.2436
N8515 X1.4253 Y4.0203 Z-0.2437
N8520 X1.4229 Y4.0212
N8525 X1.4205 Y4.022 Z-0.2438
N8530 X1.4156 Y4.0233 Z-0.244
N8535 X1.4132 Y4.0239 Z-0.2441
N8540 X1.4107 Y4.0243 Z-0.2442
N8545 X1.4057 Y4.025 Z-0.2444
N8550 X1.4032 Y4.0252
N8555 X1.4006 Y4.0253 Z-0.2445
N8560 X1.3981 Z-0.2446
N8565 X1.3956 Y4.0252 Z-0.2447
N8570 X1.3906 Y4.0248 Z-0.2449
N8575 X1.3881 Y4.0244 Z-0.245
N8580 X1.3856 Y4.024 Z-0.2451
N8585 X1.3806 Y4.0228 Z-0.2452
N8590 X1.3782 Y4.0221 Z-0.2453
N8595 X1.3758 Y4.0213 Z-0.2454
N8600 X1.3734 Y4.0205 Z-0.2455
N8605 X1.3711 Y4.0195 Z-0.2456
N8610 X1.3665 Y4.0173 Z-0.2458
N8615 X1.3643 Y4.0161 Z-0.2459
N8620 X1.3621 Y4.0149
N8625 X1.3579 Y4.0121 Z-0.2461
N8630 X1.3559 Y4.0106 Z-0.2462
N8635 X1.354 Y4.009 Z-0.2463
N8640 X1.3502 Y4.0057 Z-0.2465
N8645 X1.3484 Y4.0039 Z-0.2466
N8650 X1.3467 Y4.002 Z-0.2467
N8655 X1.345 Y4.0001
N8660 X1.3434 Y3.9982 Z-0.2468
N8665 X1.3405 Y3.9941 Z-0.247
N8670 X1.3391 Y3.992 Z-0.2471
N8675 X1.3378 Y3.9898 Z-0.2472
N8680 X1.3354 Y3.9854 Z-0.2474
N8685 X1.3344 Y3.9831
N8690 X1.3334 Y3.9807 Z-0.2475
N8695 X1.3325 Y3.9784 Z-0.2476
N8700 X1.3317 Y3.976 Z-0.2477
N8705 X1.3304 Y3.9711 Z-0.2479
N8710 X1.3298 Y3.9686 Z-0.248
N8715 X1.3294 Y3.9662 Z-0.2481
N8720 X1.3287 Y3.9612 Z-0.2482
N8725 X1.3285 Y3.9587 Z-0.2483
N8730 X1.3284 Y3.9561 Z-0.2484
N8735 Y3.9536 Z-0.2485
N8740 X1.3285 Y3.9511 Z-0.2486
N8745 X1.3289 Y3.9461 Z-0.2488
N8750 X1.3293 Y3.9436
N8755 X1.3297 Y3.9411 Z-0.2489
N8760 X1.3309 Y3.9362 Z-0.2491
N8765 X1.3316 Y3.9338 Z-0.2492
N8770 X1.3324 Y3.9314 Z-0.2493
N8775 X1.3332 Y3.929 Z-0.2494
N8780 X1.3342 Y3.9267 Z-0.2495
N8785 X1.3363 Y3.9222 Z-0.2496
N8790 X1.3375 Y3.9199 Z-0.2497
N8795 X1.3388 Y3.9178 Z-0.2498
N8800 X1.3416 Y3.9136 Z-0.25
N8805 X1.3431 Y3.9116 Z-0.2501
N8810 X1.3447 Y3.9096 Z-0.2502
N8815 X1.348 Y3.9059 Z-0.2503
N8820 X1.3498 Y3.9041 Z-0.2504
N8825 X1.3516 Y3.9024 Z-0.2505
N8830 X1.3535 Y3.9007 Z-0.2506
N8835 X1.3555 Y3.8991 Z-0.2507
N8840 X1.3595 Y3.8961 Z-0.2509
N8845 X1.3616 Y3.8948 Z-0.251
N8850 X1.3638 Y3.8935
N8855 X1.3682 Y3.8911 Z-0.2512
N8860 X1.3705 Y3.8901 Z-0.2513
N8865 X1.3728 Y3.8891 Z-0.2514
N8870 X1.3752 Y3.8882 Z-0.2515
N8875 X1.3776 Y3.8874 Z-0.2516
N8880 X1.3824 Y3.8861 Z-0.2517
N8885 X1.3849 Y3.8855 Z-0.2518
N8890 X1.3874 Y3.8851 Z-0.2519
N8895 X1.3923 Y3.8844 Z-0.2521
N8900 X1.3948 Y3.8842 Z-0.2522
N8905 X1.3974 Y3.8841 Z-0.2523
N8910 X1.3999 Z-0.2524
N8915 X1.4024 Y3.8842
N8920 X1.4074 Y3.8846 Z-0.2526
N8925 X1.4099 Y3.885 Z-0.2527
N8930 X1.4123 Y3.8854 Z-0.2528
N8935 X1.4172 Y3.8866 Z-0.253
N8940 X1.4196 Y3.8873 Z-0.2531
N8945 X1.422 Y3.8881
N8950 X1.4244 Y3.8889 Z-0.2532
N8955 X1.4267 Y3.8899 Z-0.2533
N8960 X1.4312 Y3.892 Z-0.2535
N8965 X1.4335 Y3.8932 Z-0.2536
N8970 X1.4356 Y3.8945 Z-0.2537
N8975 X1.4398 Y3.8973 Z-0.2538
N8980 X1.4418 Y3.8988 Z-0.2539
N8985 X1.4438 Y3.9003 Z-0.254
N8990 X1.4475 Y3.9037 Z-0.2542
N8995 X1.4493 Y3.9054 Z-0.2543
N9000 X1.451 Y3.9073 Z-0.2544
N9005 X1.4527 Y3.9091 Z-0.2545
N9010 X1.4542 Y3.9111
N9015 X1.4572 Y3.9151 Z-0.2547
N9020 X1.4585 Y3.9172 Z-0.2548
N9025 X1.4598 Y3.9194 Z-0.2549
N9030 X1.4622 Y3.9238 Z-0.2551
N9035 X1.4632 Y3.9261 Z-0.2552
N9040 X1.4642 Y3.9284
N9045 X1.4651 Y3.9308 Z-0.2553
N9050 X1.4659 Y3.9331 Z-0.2554
N9055 X1.4672 Y3.938 Z-0.2556
N9060 X1.4678 Y3.9404 Z-0.2557
N9065 X1.4682 Y3.9429 Z-0.2558
N9070 X1.4689 Y3.9479 Z-0.2559
N9075 X1.469 Y3.9504 Z-0.256
N9080 X1.4691 Y3.9529 Z-0.2561
N9085 X1.469 Y3.9579 Z-0.2563
N9090 X1.4686 Y3.9628 Z-0.2565
N9095 X1.4678 Y3.9678 Z-0.2566
N9100 X1.4667 Y3.9726 Z-0.2568
N9105 X1.4652 Y3.9774 Z-0.257
N9110 X1.4643 Y3.9798 Z-0.2571
N9115 X1.4634 Y3.9821 Z-0.2572
N9120 X1.4612 Y3.9866 Z-0.2573
N9125 X1.4588 Y3.991 Z-0.2575
N9130 X1.456 Y3.9952 Z-0.2577
N9135 X1.4545 Y3.9972 Z-0.2578
N9140 X1.453 Y3.9991 Z-0.2579
N9145 X1.4513 Y4.001 Z-0.258
N9150 X1.4496 Y4.0029
N9155 X1.4461 Y4.0063 Z-0.2582
N9160 X1.4442 Y4.008 Z-0.2583
N9165 X1.4422 Y4.0095 Z-0.2584
N9170 X1.4382 Y4.0125 Z-0.2586
N9175 X1.4361 Y4.0138
N9180 X1.434 Y4.0151 Z-0.2587
N9185 X1.4296 Y4.0174 Z-0.2589
N9190 X1.4273 Y4.0185 Z-0.259
N9195 X1.425 Y4.0194 Z-0.2591
N9200 X1.4226 Y4.0203 Z-0.2592
N9205 X1.4203 Y4.0211 Z-0.2593
N9210 X1.4154 Y4.0225 Z-0.2594
N9215 X1.413 Y4.023 Z-0.2595
N9220 X1.4106 Y4.0234 Z-0.2596
N9225 X1.4056 Y4.0241 Z-0.2598
N9230 X1.4031 Y4.0243 Z-0.2599
N9235 X1.4006 Y4.0244 Z-0.26
N9240 X1.3981
N9245 X1.3956 Y4.0243 Z-0.2601
N9250 X1.3907 Y4.0239 Z-0.2603
N9255 X1.3882 Y4.0235 Z-0.2604
N9260 X1.3858 Y4.0231 Z-0.2605
N9265 X1.3809 Y4.022 Z-0.2606
N9270 X1.3785 Y4.0213 Z-0.2607
N9275 X1.3761 Y4.0205 Z-0.2608
N9280 X1.3738 Y4.0196 Z-0.2609
N9285 X1.3715 Y4.0187 Z-0.261
N9290 X1.367 Y4.0165 Z-0.2612
N9295 X1.3648 Y4.0153 Z-0.2613
N9300 X1.3626 Y4.0141
N9305 X1.3585 Y4.0113 Z-0.2615
N9310 X1.3565 Y4.0098 Z-0.2616
N9315 X1.3546 Y4.0083 Z-0.2617
N9320 X1.3527 Y4.0067 Z-0.2618
N9325 X1.3508 Y4.005 Z-0.2619
N9330 X1.3474 Y4.0014 Z-0.262
N9335 X1.3457 Y3.9995 Z-0.2621
N9340 X1.3442 Y3.9976 Z-0.2622
N9345 X1.3412 Y3.9936 Z-0.2624
N9350 X1.3399 Y3.9915 Z-0.2625
N9355 X1.3386 Y3.9893 Z-0.2626
N9360 X1.3363 Y3.9849 Z-0.2627
N9365 X1.3353 Y3.9827 Z-0.2628
N9370 X1.3343 Y3.9804 Z-0.2629
N9375 X1.3334 Y3.978 Z-0.263
N9380 X1.3326 Y3.9757 Z-0.2631
N9385 X1.3313 Y3.9709 Z-0.2633
N9390 X1.3308 Y3.9685
N9395 X1.3303 Y3.966 Z-0.2634
N9400 X1.3297 Y3.9611 Z-0.2636
N9405 X1.3295 Y3.9586 Z-0.2637
N9410 X1.3294 Y3.9561 Z-0.2638
N9415 Y3.9536 Z-0.2639
N9420 X1.3295 Y3.9511
N9425 X1.3299 Y3.9462 Z-0.2641
N9430 X1.3302 Y3.9438 Z-0.2642
N9435 X1.3307 Y3.9413 Z-0.2643
N9440 X1.3318 Y3.9365 Z-0.2645
N9445 X1.3325 Y3.9341 Z-0.2646
N9450 X1.3333 Y3.9317
N9455 X1.3341 Y3.9294 Z-0.2647
N9460 X1.3351 Y3.9271 Z-0.2648
N9465 X1.3372 Y3.9226 Z-0.265
N9470 X1.3384 Y3.9204 Z-0.2651
N9475 X1.3396 Y3.9183 Z-0.2652
N9480 X1.3424 Y3.9141 Z-0.2653
N9485 X1.3439 Y3.9122 Z-0.2654
N9490 X1.3454 Y3.9102 Z-0.2655
N9495 X1.3487 Y3.9065 Z-0.2657
N9500 X1.3505 Y3.9048 Z-0.2658
N9505 X1.3523 Y3.9031 Z-0.2659
N9510 X1.3541 Y3.9014
N9515 X1.3561 Y3.8999 Z-0.266
N9520 X1.3601 Y3.897 Z-0.2662
N9525 X1.3622 Y3.8956 Z-0.2663
N9530 X1.3643 Y3.8944 Z-0.2664
N9535 X1.3687 Y3.892 Z-0.2665
N9540 X1.3709 Y3.891 Z-0.2666
N9545 X1.3732 Y3.8901 Z-0.2667
N9550 X1.3755 Y3.8892 Z-0.2668
N9555 X1.3779 Y3.8884 Z-0.2669
N9560 X1.3827 Y3.8871 Z-0.2671
N9565 X1.3851 Y3.8865 Z-0.2672
N9570 X1.3875 Y3.8861
N9575 X1.3924 Y3.8854 Z-0.2674
N9580 X1.3949 Y3.8853 Z-0.2675
N9585 X1.3974 Y3.8852 Z-0.2676
N9590 X1.3999 Z-0.2677
N9595 X1.4023 Z-0.2678
N9600 X1.4073 Y3.8857 Z-0.2679
N9605 X1.4097 Y3.886 Z-0.268
N9610 X1.4121 Y3.8864 Z-0.2681
N9615 X1.417 Y3.8876 Z-0.2683
N9620 X1.4193 Y3.8882 Z-0.2684
N9625 X1.4217 Y3.889
N9630 X1.424 Y3.8899 Z-0.2685
N9635 X1.4263 Y3.8908 Z-0.2686
N9640 X1.4308 Y3.8929 Z-0.2688
N9645 X1.4329 Y3.8941 Z-0.2689
N9650 X1.4351 Y3.8954 Z-0.269
N9655 X1.4392 Y3.8981 Z-0.2691
N9660 X1.4412 Y3.8996 Z-0.2692
N9665 X1.4431 Y3.9011 Z-0.2693
N9670 X1.4468 Y3.9044 Z-0.2695
N9675 X1.4485 Y3.9062 Z-0.2696
N9680 X1.4502 Y3.908 Z-0.2697
N9685 X1.4519 Y3.9098
N9690 X1.4534 Y3.9117 Z-0.2698
N9695 X1.4563 Y3.9157 Z-0.27
N9700 X1.4576 Y3.9178 Z-0.2701
N9705 X1.4589 Y3.9199 Z-0.2702
N9710 X1.4612 Y3.9243 Z-0.2703
N9715 X1.4623 Y3.9265 Z-0.2704
N9720 X1.4632 Y3.9288 Z-0.2705
N9725 X1.4641 Y3.9311 Z-0.2706
N9730 X1.4649 Y3.9335 Z-0.2707
N9735 X1.4662 Y3.9382 Z-0.2709
N9740 X1.4667 Y3.9406
N9745 X1.4672 Y3.9431 Z-0.271
N9750 X1.4678 Y3.948 Z-0.2712
N9755 X1.4681 Y3.9529 Z-0.2714
N9760 X1.468 Y3.9578 Z-0.2715
N9765 X1.4675 Y3.9627 Z-0.2717
N9770 X1.4668 Y3.9676 Z-0.2719
N9775 X1.4657 Y3.9724 Z-0.2721
N9780 X1.4642 Y3.9771 Z-0.2722
N9785 X1.4633 Y3.9794 Z-0.2723
N9790 X1.4624 Y3.9817 Z-0.2724
N9795 X1.4603 Y3.9861 Z-0.2726
N9800 X1.4579 Y3.9904 Z-0.2728
N9805 X1.4552 Y3.9945 Z-0.2729
N9810 X1.4537 Y3.9965 Z-0.273
N9815 X1.4522 Y3.9984 Z-0.2731
N9820 X1.4506 Y4.0003 Z-0.2732
N9825 X1.4489 Y4.0021 Z-0.2733
N9830 X1.4454 Y4.0055 Z-0.2734
N9835 X1.4435 Y4.0072 Z-0.2735
N9840 X1.4416 Y4.0087 Z-0.2736
N9845 X1.4376 Y4.0116 Z-0.2738
N9850 X1.4355 Y4.0129 Z-0.2739
N9855 X1.4334 Y4.0142 Z-0.274
N9860 X1.4291 Y4.0165 Z-0.2741
N9865 X1.4268 Y4.0175 Z-0.2742
N9870 X1.4246 Y4.0185 Z-0.2743
N9875 X1.4223 Y4.0193 Z-0.2744
N9880 X1.4199 Y4.0201 Z-0.2745
N9885 X1.4152 Y4.0214 Z-0.2746
N9890 X1.4128 Y4.022 Z-0.2747
N9895 X1.4104 Y4.0224 Z-0.2748
N9900 X1.4055 Y4.023 Z-0.275
N9905 X1.4031 Y4.0232 Z-0.2751
N9910 X1.4006 Y4.0233 Z-0.2752
N9915 X1.3981
N9920 X1.3957 Z-0.2753
N9925 X1.392 Y4.023 Z-0.2755
N9930 X1.3883 Y4.0225 Z-0.2756
N9935 X1.3881 Y4.0224
N9940 X1.3875 Y4.0223
N9945 X1.3868 Y4.0222
N9950 X1.3855 Y4.022 Z-0.2757
N9955 X1.383 Y4.0214 Z-0.2758
N9960 X1.378 Y4.02 Z-0.276
N9965 X1.3756 Y4.0192
N9970 X1.3732 Y4.0183 Z-0.2761
N9975 X1.3709 Y4.0172 Z-0.2762
N9980 X1.3686 Y4.0162 Z-0.2763
N9985 X1.364 Y4.0137 Z-0.2765
N9990 X1.3618 Y4.0123 Z-0.2766
N9995 X1.3597 Y4.0109 Z-0.2767
N10000 X1.3576 Y4.0094 Z-0.2768
N10005 X1.3556 Y4.0078
N10010 X1.3518 Y4.0044 Z-0.277
N10015 X1.35 Y4.0026 Z-0.2771
N10020 X1.3482 Y4.0007 Z-0.2772
N10025 X1.3465 Y3.9988 Z-0.2773
N10030 X1.3449 Y3.9968 Z-0.2774
N10035 X1.3419 Y3.9926 Z-0.2776
N10040 X1.3405 Y3.9904 Z-0.2777
N10045 X1.3392 Y3.9882
N10050 X1.338 Y3.986 Z-0.2778
N10055 X1.3369 Y3.9837 Z-0.2779
N10060 X1.3349 Y3.9789 Z-0.2781
N10065 X1.334 Y3.9765 Z-0.2782
N10070 X1.3332 Y3.9741 Z-0.2783
N10075 X1.3325 Y3.9716 Z-0.2784
N10080 X1.332 Y3.9691 Z-0.2785
N10085 X1.3311 Y3.964 Z-0.2786
N10090 X1.3308 Y3.9615 Z-0.2787
N10095 X1.3306 Y3.9589 Z-0.2788
N10100 X1.3305 Y3.9564 Z-0.2789
N10105 X1.3304 Y3.9538 Z-0.279
N10110 X1.3307 Y3.9487 Z-0.2792
N10115 X1.331 Y3.9461 Z-0.2793
N10120 X1.3313 Y3.9436 Z-0.2794
N10125 X1.3318 Y3.9411
N10130 X1.3323 Y3.9386 Z-0.2795
N10135 X1.3337 Y3.9337 Z-0.2797
N10140 X1.3346 Y3.9313 Z-0.2798
N10145 X1.3355 Y3.9289 Z-0.2799
N10150 X1.3365 Y3.9265 Z-0.28
N10155 X1.3376 Y3.9242 Z-0.2801
N10160 X1.34 Y3.9197 Z-0.2802
N10165 X1.3414 Y3.9175 Z-0.2803
N10170 X1.3428 Y3.9154 Z-0.2804
N10175 X1.3443 Y3.9133 Z-0.2805
N10180 X1.3459 Y3.9113 Z-0.2806
N10185 X1.3493 Y3.9074 Z-0.2808
N10190 X1.3511 Y3.9056 Z-0.2809
N10195 X1.353 Y3.9039 Z-0.281
N10200 X1.3549 Y3.9022 Z-0.2811
N10205 X1.3569 Y3.9006
N10210 X1.361 Y3.8976 Z-0.2813
N10215 X1.3631 Y3.8962 Z-0.2814
N10220 X1.3654 Y3.895 Z-0.2815
N10225 X1.3676 Y3.8937 Z-0.2816
N10230 X1.3699 Y3.8926 Z-0.2817
N10235 X1.3746 Y3.8906 Z-0.2819
N10240 X1.3771 Y3.8897
N10245 X1.3795 Y3.889 Z-0.282
N10250 X1.382 Y3.8883 Z-0.2821
N10255 X1.3844 Y3.8877 Z-0.2822
N10260 X1.3895 Y3.8868 Z-0.2824
N10265 X1.392 Y3.8865 Z-0.2825
N10270 X1.3945 Y3.8863 Z-0.2826
N10275 X1.3971 Y3.8862 Z-0.2827
N10280 X1.3996
N10285 X1.4048 Y3.8864 Z-0.2829
N10290 X1.4073 Y3.8867 Z-0.283
N10295 X1.4098 Y3.8871 Z-0.2831
N10300 X1.4123 Y3.8875 Z-0.2832
N10305 X1.4149 Y3.8881 Z-0.2833
N10310 X1.4198 Y3.8895 Z-0.2835
N10315 X1.4222 Y3.8903 Z-0.2836
N10320 X1.4246 Y3.8912
N10325 X1.4269 Y3.8922 Z-0.2837
N10330 X1.4292 Y3.8933 Z-0.2838
N10335 X1.4337 Y3.8957 Z-0.284
N10340 X1.4359 Y3.8971 Z-0.2841
N10345 X1.438 Y3.8985 Z-0.2842
N10350 X1.44 Y3.9 Z-0.2843
N10355 X1.442 Y3.9016 Z-0.2844
N10360 X1.4458 Y3.9049 Z-0.2845
N10365 X1.4477 Y3.9067 Z-0.2846
N10370 X1.4494 Y3.9086 Z-0.2847
N10375 X1.4511 Y3.9105 Z-0.2848
N10380 X1.4527 Y3.9125 Z-0.2849
N10385 X1.4557 Y3.9167 Z-0.2851
N10390 X1.4571 Y3.9188 Z-0.2852
N10395 X1.4583 Y3.921
N10400 X1.4595 Y3.9233 Z-0.2853
N10405 X1.4607 Y3.9255 Z-0.2854
N10410 X1.4626 Y3.9302 Z-0.2856
N10415 X1.4635 Y3.9326 Z-0.2857
N10420 X1.4643 Y3.9351 Z-0.2858
N10425 X1.4649 Y3.9376 Z-0.2859
N10430 X1.4655 Y3.94 Z-0.286
N10435 X1.4664 Y3.945 Z-0.2861
N10440 X1.4667 Y3.9475 Z-0.2862
N10445 X1.4669 Y3.95 Z-0.2863
N10450 X1.467 Y3.9526 Z-0.2864
N10455 X1.4671 Y3.9551 Z-0.2865
N10460 X1.4668 Y3.9602 Z-0.2867
N10465 X1.4661 Y3.9653 Z-0.2868
N10470 X1.4651 Y3.9703 Z-0.287
N10475 X1.4637 Y3.9752 Z-0.2872
N10480 X1.462 Y3.9799 Z-0.2874
N10485 X1.4599 Y3.9846 Z-0.2875
N10490 X1.4575 Y3.9891 Z-0.2877
N10495 X1.4562 Y3.9912 Z-0.2878
N10500 X1.4548 Y3.9933 Z-0.2879
N10505 X1.4533 Y3.9954 Z-0.288
N10510 X1.4517 Y3.9974 Z-0.2881
N10515 X1.4484 Y4.0012 Z-0.2883
N10520 X1.4466 Y4.003
N10525 X1.4447 Y4.0047 Z-0.2884
N10530 X1.4428 Y4.0064 Z-0.2885
N10535 X1.4408 Y4.008 Z-0.2886
N10540 X1.4367 Y4.011 Z-0.2888
N10545 X1.4346 Y4.0123 Z-0.2889
N10550 X1.4324 Y4.0136 Z-0.289
N10555 X1.4301 Y4.0148 Z-0.2891
N10560 X1.4279 Y4.0159
N10565 X1.4232 Y4.0179 Z-0.2893
N10570 X1.4207 Y4.0188 Z-0.2894
N10575 X1.4183 Y4.0195 Z-0.2895
N10580 X1.4159 Y4.0202 Z-0.2896
N10585 X1.4134 Y4.0208 Z-0.2897
N10590 X1.4085 Y4.0217 Z-0.2899
N10595 X1.4059 Y4.022
N10600 X1.4034 Y4.0222 Z-0.29
N10605 X1.4008 Y4.0223 Z-0.2901
N10610 X1.3983 Z-0.2902
N10615 X1.3933 Y4.022 Z-0.2904
N10620 X1.3907 Y4.0218 Z-0.2905
N10625 X1.3882 Y4.0214 Z-0.2906
N10630 X1.3857 Y4.0209
N10635 X1.3833 Y4.0204 Z-0.2907
N10640 X1.3784 Y4.019 Z-0.2909
N10645 X1.376 Y4.0182 Z-0.291
N10650 X1.3736 Y4.0173 Z-0.2911
N10655 X1.3713 Y4.0163 Z-0.2912
N10660 X1.369 Y4.0152 Z-0.2913
N10665 X1.3646 Y4.0128 Z-0.2914
N10670 X1.3624 Y4.0115 Z-0.2915
N10675 X1.3603 Y4.01 Z-0.2916
N10680 X1.3583 Y4.0086 Z-0.2917
N10685 X1.3563 Y4.007 Z-0.2918
N10690 X1.3525 Y4.0037 Z-0.292
N10695 X1.3507 Y4.0019 Z-0.2921
N10700 X1.349 Y4.
N10705 X1.3473 Y3.9981 Z-0.2922
N10710 X1.3457 Y3.9961 Z-0.2923
N10715 X1.3427 Y3.992 Z-0.2925
N10720 X1.3414 Y3.9899 Z-0.2926
N10725 X1.3401 Y3.9877 Z-0.2927
N10730 X1.3389 Y3.9855 Z-0.2928
N10735 X1.3378 Y3.9832 Z-0.2929
N10740 X1.3358 Y3.9786 Z-0.293
N10745 X1.335 Y3.9762 Z-0.2931
N10750 X1.3342 Y3.9738 Z-0.2932
N10755 X1.3336 Y3.9713 Z-0.2933
N10760 X1.333 Y3.9689 Z-0.2934
N10765 X1.3321 Y3.9639 Z-0.2936
N10770 X1.3318 Y3.9614
N10775 X1.3316 Y3.9589 Z-0.2937
N10780 X1.3315 Y3.9563 Z-0.2938
N10785 Y3.9538 Z-0.2939
N10790 X1.3317 Y3.9488 Z-0.2941
N10795 X1.332 Y3.9463 Z-0.2942
N10800 X1.3323 Y3.9438 Z-0.2943
N10805 X1.3328 Y3.9413 Z-0.2944
N10810 X1.3333 Y3.9388
N10815 X1.3347 Y3.934 Z-0.2946
N10820 X1.3355 Y3.9316 Z-0.2947
N10825 X1.3364 Y3.9292 Z-0.2948
N10830 X1.3374 Y3.9269 Z-0.2949
N10835 X1.3385 Y3.9247 Z-0.295
N10840 X1.3409 Y3.9202 Z-0.2951
N10845 X1.3422 Y3.9181 Z-0.2952
N10850 X1.3436 Y3.916 Z-0.2953
N10855 X1.3451 Y3.9139 Z-0.2954
N10860 X1.3467 Y3.912 Z-0.2955
N10865 X1.35 Y3.9082 Z-0.2957
N10870 X1.3518 Y3.9064 Z-0.2958
N10875 X1.3537 Y3.9046
N10880 X1.3556 Y3.903 Z-0.2959
N10885 X1.3575 Y3.9014 Z-0.296
N10890 X1.3616 Y3.8985 Z-0.2962
N10895 X1.3637 Y3.8971 Z-0.2963
N10900 X1.3659 Y3.8958 Z-0.2964
N10905 X1.3681 Y3.8946 Z-0.2965
N10910 X1.3704 Y3.8935 Z-0.2966
N10915 X1.375 Y3.8916 Z-0.2967
N10920 X1.3774 Y3.8907 Z-0.2968
N10925 X1.3798 Y3.89 Z-0.2969
N10930 X1.3822 Y3.8893 Z-0.297
N10935 X1.3847 Y3.8887 Z-0.2971
N10940 X1.3896 Y3.8878 Z-0.2973
N10945 X1.3921 Y3.8876
N10950 X1.3946 Y3.8874 Z-0.2974
N10955 X1.3971 Y3.8872 Z-0.2975
N10960 X1.3997 Z-0.2976
N10965 X1.4047 Y3.8875 Z-0.2978
N10970 X1.4072 Y3.8877 Z-0.2979
N10975 X1.4097 Y3.8881 Z-0.298
N10980 X1.4121 Y3.8886
N10985 X1.4146 Y3.8891 Z-0.2981
N10990 X1.4195 Y3.8905 Z-0.2983
N10995 X1.4218 Y3.8913 Z-0.2984
N11000 X1.4242 Y3.8922 Z-0.2985
N11005 X1.4265 Y3.8932 Z-0.2986
N11010 X1.4287 Y3.8942 Z-0.2987
N11015 X1.4332 Y3.8966 Z-0.2988
N11020 X1.4353 Y3.898 Z-0.2989
N11025 X1.4374 Y3.8994 Z-0.299
N11030 X1.4394 Y3.9009 Z-0.2991
N11035 X1.4414 Y3.9024 Z-0.2992
N11040 X1.4451 Y3.9057 Z-0.2994
N11045 X1.4469 Y3.9075
N11050 X1.4486 Y3.9093 Z-0.2995
N11055 X1.4503 Y3.9112 Z-0.2996
N11060 X1.4519 Y3.9132 Z-0.2997
N11065 X1.4548 Y3.9172 Z-0.2999
N11070 X1.4562 Y3.9194 Z-0.3
N11075 X1.4574 Y3.9215 Z-0.3001
N11080 X1.4586 Y3.9237
N11085 X1.4597 Y3.926 Z-0.3002
N11090 X1.4617 Y3.9306 Z-0.3004
N11095 X1.4625 Y3.933 Z-0.3005
N11100 X1.4632 Y3.9354 Z-0.3006
N11105 X1.4639 Y3.9378 Z-0.3007
N11110 X1.4645 Y3.9403 Z-0.3008
N11115 X1.4654 Y3.9452 Z-0.3009
N11120 X1.4656 Y3.9476 Z-0.301
N11125 X1.4658 Y3.9501 Z-0.3011
N11130 X1.466 Y3.9526 Z-0.3012
N11135 Y3.9551 Z-0.3013
N11140 X1.4657 Y3.9602 Z-0.3015
N11145 X1.4651 Y3.9651 Z-0.3016
N11150 X1.4641 Y3.9701 Z-0.3018
N11155 X1.4627 Y3.9748 Z-0.302
N11160 X1.461 Y3.9795 Z-0.3022
N11165 X1.459 Y3.9841 Z-0.3023
N11170 X1.4566 Y3.9885 Z-0.3025
N11175 X1.4553 Y3.9906 Z-0.3026
N11180 X1.4539 Y3.9927 Z-0.3027
N11185 X1.4524 Y3.9947 Z-0.3028
N11190 X1.4509 Y3.9967 Z-0.3029
N11195 X1.4476 Y4.0004 Z-0.303
N11200 X1.4458 Y4.0022 Z-0.3031
N11205 X1.444 Y4.0039 Z-0.3032
N11210 X1.4421 Y4.0056 Z-0.3033
N11215 X1.4401 Y4.0071 Z-0.3034
N11220 X1.4361 Y4.0101 Z-0.3035
N11225 X1.434 Y4.0114 Z-0.3036
N11230 X1.4318 Y4.0127 Z-0.3037
N11235 X1.4296 Y4.0138 Z-0.3038
N11240 X1.4274 Y4.0149 Z-0.3039
N11245 X1.4228 Y4.0169 Z-0.3041
N11250 X1.4204 Y4.0177 Z-0.3042
N11255 X1.418 Y4.0185
N11260 X1.4156 Y4.0191 Z-0.3043
N11265 X1.4132 Y4.0197 Z-0.3044
N11270 X1.4083 Y4.0206 Z-0.3046
N11275 X1.4058 Y4.0209 Z-0.3047
N11280 X1.4033 Y4.021 Z-0.3048
N11285 X1.4008 Y4.0212 Z-0.3049
N11290 X1.3983
N11295 X1.3934 Y4.0209 Z-0.3051
N11300 X1.3909 Y4.0207 Z-0.3052
N11305 X1.3884 Y4.0203 Z-0.3053
N11310 X1.386 Y4.0198 Z-0.3054
N11315 X1.3835 Y4.0193 Z-0.3055
N11320 X1.3787 Y4.018 Z-0.3056
N11325 X1.3764 Y4.0171 Z-0.3057
N11330 X1.374 Y4.0162 Z-0.3058
N11335 X1.3718 Y4.0153 Z-0.3059
N11340 X1.3695 Y4.0142 Z-0.306
N11345 X1.3651 Y4.0118 Z-0.3062
N11350 X1.363 Y4.0105
N11355 X1.361 Y4.0091 Z-0.3063
N11360 X1.3589 Y4.0076 Z-0.3064
N11365 X1.357 Y4.0061 Z-0.3065
N11370 X1.3533 Y4.0028 Z-0.3067
N11375 X1.3515 Y4.0011 Z-0.3068
N11380 X1.3498 Y3.9993 Z-0.3069
N11385 X1.3482 Y3.9974
N11390 X1.3466 Y3.9954 Z-0.307
N11395 X1.3437 Y3.9914 Z-0.3072
N11400 X1.3424 Y3.9893 Z-0.3073
N11405 X1.3411 Y3.9872 Z-0.3074
N11410 X1.3399 Y3.985 Z-0.3075
N11415 X1.3388 Y3.9827
N11420 X1.3369 Y3.9782 Z-0.3077
N11425 X1.3361 Y3.9758 Z-0.3078
N11430 X1.3353 Y3.9734 Z-0.3079
N11435 X1.3347 Y3.971 Z-0.308
N11440 X1.3341 Y3.9686 Z-0.3081
N11445 X1.3332 Y3.9637 Z-0.3082
N11450 X1.3329 Y3.9613 Z-0.3083
N11455 X1.3328 Y3.9588 Z-0.3084
N11460 X1.3326 Y3.9563 Z-0.3085
N11465 Y3.9538 Z-0.3086
N11470 X1.3329 Y3.9489 Z-0.3088
N11475 X1.3331 Y3.9464
N11480 X1.3335 Y3.944 Z-0.3089
N11485 X1.3339 Y3.9415 Z-0.309
N11490 X1.3345 Y3.9391 Z-0.3091
N11495 X1.3358 Y3.9343 Z-0.3093
N11500 X1.3366 Y3.932 Z-0.3094
N11505 X1.3375 Y3.9297 Z-0.3095
N11510 X1.3385 Y3.9274
N11515 X1.3396 Y3.9252 Z-0.3096
N11520 X1.3419 Y3.9208 Z-0.3098
N11525 X1.3432 Y3.9187 Z-0.3099
N11530 X1.3446 Y3.9166 Z-0.31
N11535 X1.3461 Y3.9146 Z-0.3101
N11540 X1.3476 Y3.9127
N11545 X1.3509 Y3.909 Z-0.3103
N11550 X1.3526 Y3.9072 Z-0.3104
N11555 X1.3545 Y3.9055 Z-0.3105
N11560 X1.3563 Y3.9039 Z-0.3106
N11565 X1.3582 Y3.9023 Z-0.3107
N11570 X1.3622 Y3.8994 Z-0.3108
N11575 X1.3643 Y3.8981 Z-0.3109
N11580 X1.3665 Y3.8969 Z-0.311
N11585 X1.3687 Y3.8957 Z-0.3111
N11590 X1.3709 Y3.8946 Z-0.3112
N11595 X1.3754 Y3.8927 Z-0.3114
N11600 X1.3778 Y3.8919
N11605 X1.3801 Y3.8911 Z-0.3115
N11610 X1.3825 Y3.8905 Z-0.3116
N11615 X1.3849 Y3.8899 Z-0.3117
N11620 X1.3898 Y3.889 Z-0.3119
N11625 X1.3922 Y3.8888 Z-0.312
N11630 X1.3947 Y3.8886
N11635 X1.3972 Y3.8884 Z-0.3121
N11640 X1.3997 Z-0.3122
N11645 X1.4046 Y3.8887 Z-0.3124
N11650 X1.407 Y3.8889 Z-0.3125
N11655 X1.4095 Y3.8893 Z-0.3126
N11660 X1.4119 Y3.8897
N11665 X1.4143 Y3.8903 Z-0.3127
N11670 X1.4191 Y3.8916 Z-0.3129
N11675 X1.4214 Y3.8924 Z-0.313
N11680 X1.4237 Y3.8933 Z-0.3131
N11685 X1.426 Y3.8943 Z-0.3132
N11690 X1.4282 Y3.8953 Z-0.3133
N11695 X1.4326 Y3.8977 Z-0.3134
N11700 X1.4346 Y3.899 Z-0.3135
N11705 X1.4367 Y3.9004 Z-0.3136
N11710 X1.4387 Y3.9018 Z-0.3137
N11715 X1.4406 Y3.9033 Z-0.3138
N11720 X1.4443 Y3.9066 Z-0.3139
N11725 X1.4461 Y3.9083 Z-0.314
N11730 X1.4478 Y3.9101 Z-0.3141
N11735 X1.4494 Y3.912 Z-0.3142
N11740 X1.4509 Y3.9139 Z-0.3143
N11745 X1.4538 Y3.9179 Z-0.3145
N11750 X1.4551 Y3.92
N11755 X1.4564 Y3.9221 Z-0.3146
N11760 X1.4575 Y3.9242 Z-0.3147
N11765 X1.4585 Y3.9264 Z-0.3148
N11770 X1.4604 Y3.9307 Z-0.315
N11775 X1.4605 Y3.9309
N11780 X1.4606 Y3.9312
N11785 X1.4607 Y3.9315
N11790 X1.4614 Y3.9334 Z-0.3151
N11795 X1.4621 Y3.9358
N11800 X1.4628 Y3.9383 Z-0.3152
N11805 X1.4634 Y3.9409 Z-0.3153
N11810 X1.4639 Y3.9434 Z-0.3154
N11815 X1.4642 Y3.9459 Z-0.3155
N11820 X1.4647 Y3.951 Z-0.3157
N11825 X1.4648 Y3.9536 Z-0.3158
N11830 X1.4647 Y3.9562 Z-0.3159
N11835 X1.4644 Y3.9613 Z-0.316
N11840 X1.4636 Y3.9665 Z-0.3162
N11845 X1.4625 Y3.9716 Z-0.3164
N11850 X1.4617 Y3.9741 Z-0.3165
N11855 X1.4609 Y3.9766 Z-0.3166
N11860 X1.4589 Y3.9814 Z-0.3168
N11865 X1.4566 Y3.9859 Z-0.3169
N11870 X1.454 Y3.9903 Z-0.3171
N11875 X1.4526 Y3.9925 Z-0.3172
N11880 X1.451 Y3.9946 Z-0.3173
N11885 X1.4494 Y3.9966 Z-0.3174
N11890 X1.4477 Y3.9985 Z-0.3175
N11895 X1.4459 Y4.0004 Z-0.3176
N11900 X1.4441 Y4.0022 Z-0.3177
N11905 X1.4403 Y4.0055 Z-0.3178
N11910 X1.4382 Y4.0071 Z-0.3179
N11915 X1.4361 Y4.0086 Z-0.318
N11920 X1.434 Y4.01 Z-0.3181
N11925 X1.4318 Y4.0113 Z-0.3182
N11930 X1.4295 Y4.0125 Z-0.3183
N11935 X1.4272 Y4.0137 Z-0.3184
N11940 X1.4225 Y4.0157 Z-0.3186
N11945 X1.42 Y4.0166 Z-0.3187
N11950 X1.4176 Y4.0173
N11955 X1.4151 Y4.018 Z-0.3188
N11960 X1.4125 Y4.0186 Z-0.3189
N11965 X1.41 Y4.0191 Z-0.319
N11970 X1.4075 Y4.0195 Z-0.3191
N11975 X1.4024 Y4.0199 Z-0.3193
N11980 X1.3998 Y4.02 Z-0.3194
N11985 X1.3972 Y4.0199 Z-0.3195
N11990 X1.3947 Y4.0198
N11995 X1.3921 Y4.0196 Z-0.3196
N12000 X1.3896 Y4.0193 Z-0.3197
N12005 X1.387 Y4.0188 Z-0.3198
N12010 X1.3821 Y4.0177 Z-0.32
N12015 X1.3796 Y4.017 Z-0.3201
N12020 X1.3771 Y4.0161 Z-0.3202
N12025 X1.3747 Y4.0152 Z-0.3203
N12030 X1.3723 Y4.0142 Z-0.3204
N12035 X1.37 Y4.0131
N12040 X1.3677 Y4.0119 Z-0.3205
N12045 X1.3633 Y4.0093 Z-0.3207
N12050 X1.3612 Y4.0078 Z-0.3208
N12055 X1.3592 Y4.0063 Z-0.3209
N12060 X1.3572 Y4.0047 Z-0.321
N12065 X1.3553 Y4.003 Z-0.3211
N12070 X1.3534 Y4.0013 Z-0.3212
N12075 X1.3516 Y3.9994
N12080 X1.3482 Y3.9956 Z-0.3214
N12085 X1.3467 Y3.9935 Z-0.3215
N12090 X1.3452 Y3.9915 Z-0.3216
N12095 X1.3438 Y3.9893 Z-0.3217
N12100 X1.3425 Y3.9871 Z-0.3218
N12105 X1.3412 Y3.9849 Z-0.3219
N12110 X1.3401 Y3.9826 Z-0.322
N12115 X1.3381 Y3.9778 Z-0.3221
N12120 X1.3372 Y3.9754 Z-0.3222
N12125 X1.3364 Y3.973 Z-0.3223
N12130 X1.3358 Y3.9705 Z-0.3224
N12135 X1.3352 Y3.968 Z-0.3225
N12140 X1.3347 Y3.9655 Z-0.3226
N12145 X1.3343 Y3.963 Z-0.3227
N12150 X1.3339 Y3.9579 Z-0.3229
N12155 X1.3338 Y3.9553
N12160 Y3.9528 Z-0.323
N12165 X1.334 Y3.9502 Z-0.3231
N12170 X1.3342 Y3.9476 Z-0.3232
N12175 X1.3345 Y3.9451 Z-0.3233
N12180 X1.3349 Y3.9426 Z-0.3234
N12185 X1.3361 Y3.9376 Z-0.3236
N12190 X1.3368 Y3.9352 Z-0.3237
N12195 X1.3376 Y3.9327 Z-0.3238
N12200 X1.3386 Y3.9303
N12205 X1.3396 Y3.9279 Z-0.3239
N12210 X1.3407 Y3.9256 Z-0.324
N12215 X1.3418 Y3.9234 Z-0.3241
N12220 X1.3445 Y3.919 Z-0.3243
N12225 X1.3459 Y3.9169 Z-0.3244
N12230 X1.3474 Y3.9149 Z-0.3245
N12235 X1.349 Y3.9129 Z-0.3246
N12240 X1.3507 Y3.911
N12245 X1.3524 Y3.9091 Z-0.3247
N12250 X1.3542 Y3.9073 Z-0.3248
N12255 X1.3581 Y3.9039 Z-0.325
N12260 X1.3601 Y3.9024 Z-0.3251
N12265 X1.3622 Y3.9009 Z-0.3252
N12270 X1.3643 Y3.8995 Z-0.3253
N12275 X1.3665 Y3.8982 Z-0.3254
N12280 X1.3688 Y3.897
N12285 X1.3711 Y3.8958 Z-0.3255
N12290 X1.3758 Y3.8938 Z-0.3257
N12295 X1.3782 Y3.893 Z-0.3258
N12300 X1.3806 Y3.8922 Z-0.3259
N12305 X1.3831 Y3.8916 Z-0.326
N12310 X1.3856 Y3.891 Z-0.3261
N12315 X1.388 Y3.8905 Z-0.3262
N12320 X1.3906 Y3.8901
N12325 X1.3956 Y3.8897 Z-0.3264
N12330 X1.3982 Y3.8896 Z-0.3265
N12335 X1.4007 Z-0.3266
N12340 X1.4033 Y3.8898 Z-0.3267
N12345 X1.4058 Y3.89 Z-0.3268
N12350 X1.4083 Y3.8903 Z-0.3269
N12355 X1.4108 Y3.8907 Z-0.327
N12360 X1.4158 Y3.8919 Z-0.3271
N12365 X1.4182 Y3.8926 Z-0.3272
N12370 X1.4207 Y3.8934 Z-0.3273
N12375 X1.4231 Y3.8943 Z-0.3274
N12380 X1.4254 Y3.8953 Z-0.3275
N12385 X1.4277 Y3.8964 Z-0.3276
N12390 X1.43 Y3.8976 Z-0.3277
N12395 X1.4343 Y3.9002 Z-0.3278
N12400 X1.4364 Y3.9016 Z-0.3279
N12405 X1.4384 Y3.9031 Z-0.328
N12410 X1.4404 Y3.9047 Z-0.3281
N12415 X1.4423 Y3.9064 Z-0.3282
N12420 X1.4442 Y3.9081 Z-0.3283
N12425 X1.446 Y3.9099 Z-0.3284
N12430 X1.4493 Y3.9138 Z-0.3286
N12435 X1.4509 Y3.9158
N12440 X1.4523 Y3.9179 Z-0.3287
N12445 X1.4537 Y3.92 Z-0.3288
N12450 X1.455 Y3.9222 Z-0.3289
N12455 X1.4563 Y3.9244 Z-0.329
N12460 X1.4574 Y3.9267 Z-0.3291
N12465 X1.4594 Y3.9313 Z-0.3293
N12470 X1.4602 Y3.9337 Z-0.3294
N12475 X1.461 Y3.9362
N12480 X1.4617 Y3.9386 Z-0.3295
N12485 X1.4622 Y3.9411 Z-0.3296
N12490 X1.4627 Y3.9436 Z-0.3297
N12495 X1.4631 Y3.9461 Z-0.3298
N12500 X1.4635 Y3.9511 Z-0.33
N12505 X1.4636 Y3.9536 Z-0.3301
N12510 Y3.9562
N12515 X1.4632 Y3.9612 Z-0.3303
N12520 X1.4624 Y3.9663 Z-0.3305
N12525 X1.4613 Y3.9713 Z-0.3307
N12530 X1.4606 Y3.9737 Z-0.3308
N12535 X1.4598 Y3.9761 Z-0.3309
N12540 X1.4578 Y3.9809 Z-0.331
N12545 X1.4556 Y3.9854 Z-0.3312
N12550 X1.4531 Y3.9897 Z-0.3314
N12555 X1.4516 Y3.9918 Z-0.3315
N12560 X1.4501 Y3.9938 Z-0.3316
N12565 X1.4485 Y3.9958 Z-0.3317
N12570 X1.4468 Y3.9977
N12575 X1.4451 Y3.9995 Z-0.3318
N12580 X1.4433 Y4.0013 Z-0.3319
N12585 X1.4395 Y4.0046 Z-0.3321
N12590 X1.4375 Y4.0061 Z-0.3322
N12595 X1.4355 Y4.0076 Z-0.3323
N12600 X1.4333 Y4.009 Z-0.3324
N12605 X1.4312 Y4.0103
N12610 X1.429 Y4.0115 Z-0.3325
N12615 X1.4267 Y4.0126 Z-0.3326
N12620 X1.422 Y4.0146 Z-0.3328
N12625 X1.4196 Y4.0155 Z-0.3329
N12630 X1.4172 Y4.0162 Z-0.333
N12635 X1.4148 Y4.0169 Z-0.3331
N12640 X1.4123 Y4.0174 Z-0.3332
N12645 X1.4098 Y4.0179
N12650 X1.4074 Y4.0183 Z-0.3333
N12655 X1.4023 Y4.0187 Z-0.3335
N12660 X1.3998 Y4.0188 Z-0.3336
N12665 X1.3973 Z-0.3337
N12670 X1.3947 Y4.0186 Z-0.3338
N12675 X1.3922 Y4.0184 Z-0.3339
N12680 X1.3897 Y4.0181
N12685 X1.3872 Y4.0177 Z-0.334
N12690 X1.3823 Y4.0166 Z-0.3342
N12695 X1.3799 Y4.0158 Z-0.3343
N12700 X1.3775 Y4.015 Z-0.3344
N12705 X1.3751 Y4.0141 Z-0.3345
N12710 X1.3728 Y4.0131 Z-0.3346
N12715 X1.3705 Y4.0121
N12720 X1.3683 Y4.0109 Z-0.3347
N12725 X1.364 Y4.0083 Z-0.3349
N12730 X1.3619 Y4.0069 Z-0.335
N12735 X1.3599 Y4.0054 Z-0.3351
N12740 X1.3579 Y4.0038 Z-0.3352
N12745 X1.356 Y4.0022 Z-0.3353
N12750 X1.3542 Y4.0004 Z-0.3354
N12755 X1.3524 Y3.9986
N12760 X1.3491 Y3.9948 Z-0.3356
N12765 X1.3476 Y3.9928 Z-0.3357
N12770 X1.3461 Y3.9908 Z-0.3358
N12775 X1.3448 Y3.9887 Z-0.3359
N12780 X1.3435 Y3.9865 Z-0.336
N12785 X1.3423 Y3.9843 Z-0.3361
N12790 X1.3411 Y3.9821
N12795 X1.3392 Y3.9774 Z-0.3363
N12800 X1.3383 Y3.975 Z-0.3364
N12805 X1.3376 Y3.9726 Z-0.3365
N12810 X1.3369 Y3.9702 Z-0.3366
N12815 X1.3363 Y3.9678 Z-0.3367
N12820 X1.3359 Y3.9653 Z-0.3368
N12825 X1.3355 Y3.9628
N12830 X1.3351 Y3.9578 Z-0.337
N12835 X1.335 Y3.9553 Z-0.3371
N12840 Y3.9528 Z-0.3372
N12845 X1.3351 Y3.9503 Z-0.3373
N12850 X1.3354 Y3.9478 Z-0.3374
N12855 X1.3357 Y3.9453 Z-0.3375
N12860 X1.3361 Y3.9428
N12865 X1.3372 Y3.9379 Z-0.3377
N12870 X1.3379 Y3.9355 Z-0.3378
N12875 X1.3387 Y3.9331 Z-0.3379
N12880 X1.3396 Y3.9308 Z-0.338
N12885 X1.3406 Y3.9284 Z-0.3381
N12890 X1.3417 Y3.9262 Z-0.3382
N12895 X1.3429 Y3.9239
N12900 X1.3454 Y3.9196 Z-0.3384
N12905 X1.3468 Y3.9176 Z-0.3385
N12910 X1.3483 Y3.9156 Z-0.3386
N12915 X1.3499 Y3.9136 Z-0.3387
N12920 X1.3515 Y3.9117 Z-0.3388
N12925 X1.3533 Y3.9099 Z-0.3389
N12930 X1.3551 Y3.9082
N12935 X1.3588 Y3.9049 Z-0.3391
N12940 X1.3608 Y3.9033 Z-0.3392
N12945 X1.3629 Y3.9019 Z-0.3393
N12950 X1.365 Y3.9005 Z-0.3394
N12955 X1.3671 Y3.8992 Z-0.3395
N12960 X1.3693 Y3.898 Z-0.3396
N12965 X1.3716 Y3.8969
N12970 X1.3762 Y3.8949 Z-0.3398
N12975 X1.3785 Y3.8941 Z-0.3399
N12980 X1.3809 Y3.8933 Z-0.34
N12985 X1.3833 Y3.8927 Z-0.3401
N12990 X1.3858 Y3.8921 Z-0.3402
N12995 X1.3882 Y3.8917 Z-0.3403
N13000 X1.3907 Y3.8913
N13005 X1.3957 Y3.8909 Z-0.3405
N13010 X1.3982 Y3.8908 Z-0.3406
N13015 X1.4007 Z-0.3407
N13020 X1.4032 Y3.8909 Z-0.3408
N13025 X1.4057 Y3.8912 Z-0.3409
N13030 X1.4082 Y3.8915 Z-0.341
N13035 X1.4106 Y3.8919
N13040 X1.4155 Y3.893 Z-0.3412
N13045 X1.4179 Y3.8937 Z-0.3413
N13050 X1.4203 Y3.8945 Z-0.3414
N13055 X1.4226 Y3.8954 Z-0.3415
N13060 X1.4249 Y3.8964 Z-0.3416
N13065 X1.4272 Y3.8975 Z-0.3417
N13070 X1.4294 Y3.8986
N13075 X1.4337 Y3.9012 Z-0.3419
N13080 X1.4357 Y3.9026 Z-0.342
N13085 X1.4377 Y3.9041 Z-0.3421
N13090 X1.4397 Y3.9056 Z-0.3422
N13095 X1.4415 Y3.9073 Z-0.3423
N13100 X1.4434 Y3.909 Z-0.3424
N13105 X1.4451 Y3.9108
N13110 X1.4484 Y3.9145 Z-0.3426
N13115 X1.4499 Y3.9165 Z-0.3427
N13120 X1.4514 Y3.9185 Z-0.3428
N13125 X1.4527 Y3.9206 Z-0.3429
N13130 X1.454 Y3.9228 Z-0.343
N13135 X1.4552 Y3.925
N13140 X1.4563 Y3.9272 Z-0.3431
N13145 X1.4583 Y3.9318 Z-0.3433
N13150 X1.4591 Y3.9341 Z-0.3434
N13155 X1.4598 Y3.9365 Z-0.3435
N13160 X1.4605 Y3.9389 Z-0.3436
N13165 X1.4611 Y3.9413 Z-0.3437
N13170 X1.4615 Y3.9438
N13175 X1.4619 Y3.9462 Z-0.3438
N13180 X1.4623 Y3.9512 Z-0.344
N13185 X1.4624 Y3.9537 Z-0.3441
N13190 X1.4623 Y3.9562 Z-0.3442
N13195 X1.462 Y3.9611 Z-0.3444
N13200 X1.4613 Y3.9661 Z-0.3445
N13205 X1.4602 Y3.9709 Z-0.3447
N13210 X1.4594 Y3.9733 Z-0.3448
N13215 X1.4587 Y3.9757 Z-0.3449
N13220 X1.4568 Y3.9803 Z-0.345
N13225 X1.4546 Y3.9847 Z-0.3452
N13230 X1.452 Y3.989 Z-0.3454
N13235 X1.4506 Y3.9911 Z-0.3455
N13240 X1.4491 Y3.9931 Z-0.3456
N13245 X1.4476 Y3.995 Z-0.3457
N13250 X1.446 Y3.9969
N13255 X1.4443 Y3.9987 Z-0.3458
N13260 X1.4425 Y4.0004 Z-0.3459
N13265 X1.4387 Y4.0037 Z-0.3461
N13270 X1.4368 Y4.0052 Z-0.3462
N13275 X1.4348 Y4.0066 Z-0.3463
N13280 X1.4327 Y4.008
N13285 X1.4306 Y4.0092 Z-0.3464
N13290 X1.4284 Y4.0104 Z-0.3465
N13295 X1.4262 Y4.0115 Z-0.3466
N13300 X1.4216 Y4.0135 Z-0.3468
N13305 X1.4193 Y4.0143 Z-0.3469
N13310 X1.4169 Y4.015 Z-0.347
N13315 X1.4145 Y4.0157
N13320 X1.4121 Y4.0162 Z-0.3471
N13325 X1.4096 Y4.0167 Z-0.3472
N13330 X1.4072 Y4.0171 Z-0.3473
N13335 X1.4023 Y4.0175 Z-0.3475
N13340 X1.3998 Y4.0176 Z-0.3476
N13345 X1.3973 Y4.0175
N13350 X1.3948 Y4.0174 Z-0.3477
N13355 X1.3924 Y4.0172 Z-0.3478
N13360 X1.3899 Y4.0169 Z-0.3479
N13365 X1.3875 Y4.0165 Z-0.348
N13370 X1.3826 Y4.0154 Z-0.3482
N13375 X1.3803 Y4.0147
N13380 X1.3779 Y4.0139 Z-0.3483
N13385 X1.3756 Y4.013 Z-0.3484
N13390 X1.3733 Y4.012 Z-0.3485
N13395 X1.3711 Y4.011 Z-0.3486
N13400 X1.3689 Y4.0098 Z-0.3487
N13405 X1.3647 Y4.0073 Z-0.3489
N13410 X1.3626 Y4.0059
N13415 X1.3606 Y4.0044 Z-0.349
N13420 X1.3587 Y4.0029 Z-0.3491
N13425 X1.3569 Y4.0012 Z-0.3492
N13430 X1.3551 Y3.9995 Z-0.3493
N13435 X1.3533 Y3.9978 Z-0.3494
N13440 X1.3501 Y3.9941 Z-0.3495
N13445 X1.3486 Y3.9921 Z-0.3496
N13450 X1.3472 Y3.9901 Z-0.3497
N13455 X1.3458 Y3.988 Z-0.3498
N13460 X1.3445 Y3.9859 Z-0.3499
N13465 X1.3434 Y3.9837 Z-0.35
N13470 X1.3423 Y3.9815 Z-0.3501
N13475 X1.3403 Y3.977 Z-0.3502
N13480 X1.3395 Y3.9747 Z-0.3503
N13485 X1.3388 Y3.9723 Z-0.3504
N13490 X1.3381 Y3.9699 Z-0.3505
N13495 X1.3376 Y3.9675 Z-0.3506
N13500 X1.3371 Y3.9651 Z-0.3507
N13505 X1.3367 Y3.9627
N13510 X1.3363 Y3.9577 Z-0.3509
N13515 X1.3362 Y3.9553 Z-0.351
N13520 X1.3363 Y3.9528 Z-0.3511
N13525 X1.3364 Y3.9504 Z-0.3512
N13530 X1.3366 Y3.9479 Z-0.3513
N13535 X1.3369 Y3.9455
N13540 X1.3373 Y3.943 Z-0.3514
N13545 X1.3384 Y3.9382 Z-0.3516
N13550 X1.3391 Y3.9359 Z-0.3517
N13555 X1.3399 Y3.9335 Z-0.3518
N13560 X1.3408 Y3.9312 Z-0.3519
N13565 X1.3418 Y3.929
N13570 X1.3428 Y3.9267 Z-0.352
N13575 X1.344 Y3.9246 Z-0.3521
N13580 X1.3465 Y3.9203 Z-0.3523
N13585 X1.3479 Y3.9183 Z-0.3524
N13590 X1.3493 Y3.9163 Z-0.3525
N13595 X1.3509 Y3.9144
N13600 X1.3525 Y3.9126 Z-0.3526
N13605 X1.3542 Y3.9108 Z-0.3527
N13610 X1.3559 Y3.9091 Z-0.3528
N13615 X1.3596 Y3.9058 Z-0.353
N13620 X1.3616 Y3.9043 Z-0.3531
N13625 X1.3636 Y3.9029
N13630 X1.3657 Y3.9016 Z-0.3532
N13635 X1.3678 Y3.9003 Z-0.3533
N13640 X1.3699 Y3.8991 Z-0.3534
N13645 X1.3721 Y3.898 Z-0.3535
N13650 X1.3766 Y3.8961 Z-0.3537
N13655 X1.3789 Y3.8953
N13660 X1.3813 Y3.8946 Z-0.3538
N13665 X1.3837 Y3.8939 Z-0.3539
N13670 X1.386 Y3.8934 Z-0.354
N13675 X1.3883 Y3.8929 Z-0.3541
N13680 X1.3906 Y3.8926 Z-0.3542
N13685 X1.3952 Y3.8922 Z-0.3543
N13690 X1.3954
N13695 X1.396 Y3.8921 Z-0.3544
N13700 X1.3967
N13705 X1.398
N13710 X1.4006 Z-0.3545
N13715 X1.4032 Y3.8922 Z-0.3546
N13720 X1.4058 Y3.8925 Z-0.3547
N13725 X1.4083 Y3.8928 Z-0.3548
N13730 X1.4109 Y3.8932 Z-0.3549
N13735 X1.4134 Y3.8938 Z-0.355
N13740 X1.4158 Y3.8944 Z-0.3551
N13745 X1.4207 Y3.896 Z-0.3552
N13750 X1.4231 Y3.897 Z-0.3553
N13755 X1.4255 Y3.898 Z-0.3554
N13760 X1.4278 Y3.8992 Z-0.3555
N13765 X1.43 Y3.9004 Z-0.3556
N13770 X1.4322 Y3.9018 Z-0.3557
N13775 X1.4344 Y3.9032 Z-0.3558
N13780 X1.4364 Y3.9047 Z-0.3559
N13785 X1.4385 Y3.9063
N13790 X1.4404 Y3.908 Z-0.356
N13795 X1.4423 Y3.9097 Z-0.3561
N13800 X1.4459 Y3.9135 Z-0.3563
N13805 X1.4475 Y3.9155 Z-0.3564
N13810 X1.4491 Y3.9175 Z-0.3565
N13815 X1.4506 Y3.9196 Z-0.3566
N13820 X1.452 Y3.9218 Z-0.3567
N13825 X1.4533 Y3.924 Z-0.3568
N13830 X1.4545 Y3.9263
N13835 X1.4556 Y3.9286 Z-0.3569
N13840 X1.4566 Y3.931 Z-0.357
N13845 X1.4575 Y3.9334 Z-0.3571
N13850 X1.4583 Y3.9358 Z-0.3572
N13855 X1.459 Y3.9383 Z-0.3573
N13860 X1.4597 Y3.9408 Z-0.3574
N13865 X1.4606 Y3.9459 Z-0.3576
N13870 X1.4609 Y3.9485 Z-0.3577
N13875 X1.461 Y3.951
N13880 X1.4611 Y3.9536 Z-0.3578
N13885 Y3.9561 Z-0.3579
N13890 X1.4607 Y3.9612 Z-0.3581
N13895 X1.4599 Y3.9663 Z-0.3583
N13900 X1.4594 Y3.9688 Z-0.3584
N13905 X1.4587 Y3.9714 Z-0.3585
N13910 X1.4571 Y3.9763 Z-0.3586
N13915 X1.4551 Y3.9809 Z-0.3588
N13920 X1.4527 Y3.9854 Z-0.359
N13925 X1.4514 Y3.9876 Z-0.3591
N13930 X1.45 Y3.9897 Z-0.3592
N13935 X1.4485 Y3.9918 Z-0.3593
N13940 X1.4469 Y3.9938 Z-0.3594
N13945 X1.4452 Y3.9958
N13950 X1.4435 Y3.9977 Z-0.3595
N13955 X1.4416 Y3.9995 Z-0.3596
N13960 X1.4397 Y4.0012 Z-0.3597
N13965 X1.4358 Y4.0043 Z-0.3599
N13970 X1.4337 Y4.0058 Z-0.36
N13975 X1.4316 Y4.0071 Z-0.3601
N13980 X1.4294 Y4.0085 Z-0.3602
N13985 X1.427 Y4.0097
N13990 X1.4247 Y4.0108 Z-0.3603
N13995 X1.4223 Y4.0118 Z-0.3604
N14000 X1.4199 Y4.0127 Z-0.3605
N14005 X1.4175 Y4.0135 Z-0.3606
N14010 X1.4151 Y4.0142 Z-0.3607
N14015 X1.4126 Y4.0148 Z-0.3608
N14020 X1.4076 Y4.0157 Z-0.361
N14025 X1.4051 Y4.016 Z-0.3611
N14030 X1.4025 Y4.0162
N14035 X1.4 Y4.0163 Z-0.3612
N14040 X1.3974 Z-0.3613
N14045 X1.3948 Y4.0162 Z-0.3614
N14050 X1.3923 Y4.0159 Z-0.3615
N14055 X1.3897 Y4.0156 Z-0.3616
N14060 X1.3872 Y4.0151 Z-0.3617
N14065 X1.3848 Y4.0146 Z-0.3618
N14070 X1.3823 Y4.014 Z-0.3619
N14075 X1.3775 Y4.0124 Z-0.362
N14080 X1.3751 Y4.0114 Z-0.3621
N14085 X1.3728 Y4.0104 Z-0.3622
N14090 X1.3705 Y4.0092 Z-0.3623
N14095 X1.3682 Y4.008 Z-0.3624
N14100 X1.3661 Y4.0067 Z-0.3625
N14105 X1.3639 Y4.0052 Z-0.3626
N14110 X1.3619 Y4.0038 Z-0.3627
N14115 X1.3599 Y4.0022
N14120 X1.358 Y4.0005 Z-0.3628
N14125 X1.3561 Y3.9988 Z-0.3629
N14130 X1.3543 Y3.997 Z-0.363
N14135 X1.3526 Y3.9951 Z-0.3631
N14140 X1.3494 Y3.9911 Z-0.3633
N14145 X1.348 Y3.989 Z-0.3634
N14150 X1.3466 Y3.9869 Z-0.3635
N14155 X1.3453 Y3.9847
N14160 X1.3441 Y3.9824 Z-0.3636
N14165 X1.343 Y3.9801 Z-0.3637
N14170 X1.342 Y3.9778 Z-0.3638
N14175 X1.3411 Y3.9754 Z-0.3639
N14180 X1.3403 Y3.973 Z-0.364
N14185 X1.3396 Y3.9705 Z-0.3641
N14190 X1.339 Y3.968 Z-0.3642
N14195 X1.3381 Y3.963 Z-0.3643
N14200 X1.3378 Y3.9605 Z-0.3644
N14205 X1.3376 Y3.958 Z-0.3645
N14210 X1.3375 Y3.9554 Z-0.3646
N14215 Y3.9529 Z-0.3647
N14220 X1.3377 Y3.9504 Z-0.3648
N14225 X1.3379 Y3.9479 Z-0.3649
N14230 X1.3382 Y3.9454 Z-0.365
N14235 X1.3387 Y3.9429
N14240 X1.3392 Y3.9404 Z-0.3651
N14245 X1.3399 Y3.9379 Z-0.3652
N14250 X1.3415 Y3.933 Z-0.3654
N14255 X1.3424 Y3.9307 Z-0.3655
N14260 X1.3434 Y3.9284 Z-0.3656
N14265 X1.3446 Y3.9261 Z-0.3657
N14270 X1.3458 Y3.9239 Z-0.3658
N14275 X1.3471 Y3.9217
N14280 X1.3485 Y3.9196 Z-0.3659
N14285 X1.35 Y3.9176 Z-0.366
N14290 X1.3516 Y3.9156 Z-0.3661
N14295 X1.3533 Y3.9136 Z-0.3662
N14300 X1.355 Y3.9118 Z-0.3663
N14305 X1.3568 Y3.91 Z-0.3664
N14310 X1.3587 Y3.9083 Z-0.3665
N14315 X1.3627 Y3.9051 Z-0.3666
N14320 X1.3647 Y3.9037 Z-0.3667
N14325 X1.3669 Y3.9023 Z-0.3668
N14330 X1.369 Y3.9011 Z-0.3669
N14335 X1.3713 Y3.8999 Z-0.367
N14340 X1.3735 Y3.8988 Z-0.3671
N14345 X1.3758 Y3.8978 Z-0.3672
N14350 X1.3782 Y3.8969 Z-0.3673
N14355 X1.3806 Y3.8961 Z-0.3674
N14360 X1.3831 Y3.8954
N14365 X1.3855 Y3.8948 Z-0.3675
N14370 X1.3905 Y3.8939 Z-0.3677
N14375 X1.393 Y3.8936 Z-0.3678
N14380 X1.3955 Y3.8934 Z-0.3679
N14385 X1.398 Z-0.368
N14390 X1.4006 Z-0.3681
N14395 X1.4031 Y3.8935
N14400 X1.4057 Y3.8937 Z-0.3682
N14405 X1.4081 Y3.8941 Z-0.3683
N14410 X1.4106 Y3.8945 Z-0.3684
N14415 X1.4131 Y3.895 Z-0.3685
N14420 X1.4155 Y3.8957 Z-0.3686
N14425 X1.4203 Y3.8972 Z-0.3688
N14430 X1.4226 Y3.8982
N14435 X1.4249 Y3.8992 Z-0.3689
N14440 X1.4272 Y3.9003 Z-0.369
N14445 X1.4294 Y3.9016 Z-0.3691
N14450 X1.4316 Y3.9029 Z-0.3692
N14455 X1.4336 Y3.9043 Z-0.3693
N14460 X1.4357 Y3.9057 Z-0.3694
N14465 X1.4377 Y3.9073 Z-0.3695
N14470 X1.4396 Y3.909 Z-0.3696
N14475 X1.4414 Y3.9107
N14480 X1.4449 Y3.9143 Z-0.3698
N14485 X1.4465 Y3.9163 Z-0.3699
N14490 X1.448 Y3.9183 Z-0.37
N14495 X1.4495 Y3.9204 Z-0.3701
N14500 X1.4509 Y3.9225 Z-0.3702
N14505 X1.4521 Y3.9247 Z-0.3703
N14510 X1.4533 Y3.9269
N14515 X1.4544 Y3.9292 Z-0.3704
N14520 X1.4554 Y3.9315 Z-0.3705
N14525 X1.4563 Y3.9338 Z-0.3706
N14530 X1.4571 Y3.9362 Z-0.3707
N14535 X1.4578 Y3.9386 Z-0.3708
N14540 X1.4584 Y3.9411 Z-0.3709
N14545 X1.4593 Y3.9461 Z-0.371
N14550 X1.4596 Y3.9486 Z-0.3711
N14555 X1.4597 Y3.9511 Z-0.3712
N14560 X1.4598 Y3.9536 Z-0.3713
N14565 Y3.9561 Z-0.3714
N14570 X1.4594 Y3.9611 Z-0.3716
N14575 X1.4586 Y3.9661 Z-0.3717
N14580 X1.4581 Y3.9685 Z-0.3718
N14585 X1.4575 Y3.971 Z-0.3719
N14590 X1.4559 Y3.9758 Z-0.3721
N14595 X1.4539 Y3.9803 Z-0.3723
N14600 X1.4516 Y3.9847 Z-0.3724
N14605 X1.4503 Y3.9869 Z-0.3725
N14610 X1.4489 Y3.989 Z-0.3726
N14615 X1.4475 Y3.991 Z-0.3727
N14620 X1.4459 Y3.993 Z-0.3728
N14625 X1.4442 Y3.9949 Z-0.3729
N14630 X1.4425 Y3.9968 Z-0.373
N14635 X1.4407 Y3.9985 Z-0.3731
N14640 X1.4389 Y4.0002 Z-0.3732
N14645 X1.435 Y4.0033 Z-0.3733
N14650 X1.433 Y4.0047 Z-0.3734
N14655 X1.4309 Y4.006 Z-0.3735
N14660 X1.4287 Y4.0073 Z-0.3736
N14665 X1.4264 Y4.0085 Z-0.3737
N14670 X1.4242 Y4.0096 Z-0.3738
N14675 X1.4218 Y4.0106 Z-0.3739
N14680 X1.4195 Y4.0115
N14685 X1.4171 Y4.0123 Z-0.374
N14690 X1.4147 Y4.013 Z-0.3741
N14695 X1.4123 Y4.0136 Z-0.3742
N14700 X1.4074 Y4.0144 Z-0.3744
N14705 X1.4049 Y4.0147 Z-0.3745
N14710 X1.4024 Y4.0149
N14715 X1.3999 Y4.015 Z-0.3746
N14720 X1.3974 Z-0.3747
N14725 X1.3949 Y4.0148 Z-0.3748
N14730 X1.3924 Y4.0146 Z-0.3749
N14735 X1.3899 Y4.0143 Z-0.375
N14740 X1.3875 Y4.0138 Z-0.3751
N14745 X1.3851 Y4.0133 Z-0.3752
N14750 X1.3827 Y4.0127
N14755 X1.3779 Y4.0111 Z-0.3754
N14760 X1.3756 Y4.0102 Z-0.3755
N14765 X1.3733 Y4.0092 Z-0.3756
N14770 X1.3711 Y4.0081 Z-0.3757
N14775 X1.3689 Y4.0068 Z-0.3758
N14780 X1.3668 Y4.0055 Z-0.3759
N14785 X1.3647 Y4.0042
N14790 X1.3627 Y4.0027 Z-0.376
N14795 X1.3607 Y4.0011 Z-0.3761
N14800 X1.3588 Y3.9995 Z-0.3762
N14805 X1.357 Y3.9978 Z-0.3763
N14810 X1.3553 Y3.9961 Z-0.3764
N14815 X1.3536 Y3.9942 Z-0.3765
N14820 X1.3505 Y3.9903 Z-0.3766
N14825 X1.349 Y3.9883 Z-0.3767
N14830 X1.3477 Y3.9862 Z-0.3768
N14835 X1.3464 Y3.984 Z-0.3769
N14840 X1.3453 Y3.9818 Z-0.377
N14845 X1.3442 Y3.9796 Z-0.3771
N14850 X1.3432 Y3.9773 Z-0.3772
N14855 X1.3423 Y3.9749
N14860 X1.3416 Y3.9726 Z-0.3773
N14865 X1.3409 Y3.9702 Z-0.3774
N14870 X1.3403 Y3.9677 Z-0.3775
N14875 X1.3394 Y3.9628 Z-0.3777
N14880 X1.3391 Y3.9604 Z-0.3778
N14885 X1.3389 Y3.9579 Z-0.3779
N14890 X1.3388 Y3.9554
N14895 X1.3389 Y3.9529 Z-0.378
N14900 X1.339 Y3.9505 Z-0.3781
N14905 X1.3392 Y3.948 Z-0.3782
N14910 X1.3395 Y3.9455 Z-0.3783
N14915 X1.34 Y3.9431 Z-0.3784
N14920 X1.3405 Y3.9407 Z-0.3785
N14925 X1.3411 Y3.9382
N14930 X1.3427 Y3.9335 Z-0.3787
N14935 X1.3436 Y3.9312 Z-0.3788
N14940 X1.3446 Y3.9289 Z-0.3789
N14945 X1.3457 Y3.9267 Z-0.379
N14950 X1.347 Y3.9245 Z-0.3791
N14955 X1.3482 Y3.9224 Z-0.3792
N14960 X1.3496 Y3.9204
N14965 X1.3511 Y3.9184 Z-0.3793
N14970 X1.3526 Y3.9164 Z-0.3794
N14975 X1.3542 Y3.9145 Z-0.3795
N14980 X1.3559 Y3.9127 Z-0.3796
N14985 X1.3577 Y3.911 Z-0.3797
N14990 X1.3595 Y3.9093 Z-0.3798
N14995 X1.3634 Y3.9062 Z-0.3799
N15000 X1.3655 Y3.9048 Z-0.38
N15005 X1.3676 Y3.9035 Z-0.3801
N15010 X1.3697 Y3.9022 Z-0.3802
N15015 X1.3719 Y3.9011 Z-0.3803
N15020 X1.3741 Y3.9 Z-0.3804
N15025 X1.3763 Y3.899 Z-0.3805
N15030 X1.3787 Y3.8982
N15035 X1.381 Y3.8974 Z-0.3806
N15040 X1.3834 Y3.8967 Z-0.3807
N15045 X1.3858 Y3.8961 Z-0.3808
N15050 X1.3907 Y3.8952 Z-0.381
N15055 X1.3931 Y3.8949 Z-0.3811
N15060 X1.3956 Y3.8947
N15065 X1.3981 Z-0.3812
N15070 X1.4005 Z-0.3813
N15075 X1.403 Y3.8948 Z-0.3814
N15080 X1.4055 Y3.895 Z-0.3815
N15085 X1.4079 Y3.8954 Z-0.3816
N15090 X1.4104 Y3.8958 Z-0.3817
N15095 X1.4128 Y3.8963
N15100 X1.4152 Y3.8969 Z-0.3818
N15105 X1.4199 Y3.8985 Z-0.382
N15110 X1.4221 Y3.8994 Z-0.3821
N15115 X1.4244 Y3.9004 Z-0.3822
N15120 X1.4266 Y3.9015 Z-0.3823
N15125 X1.4288 Y3.9027
N15130 X1.4309 Y3.904 Z-0.3824
N15135 X1.4329 Y3.9054 Z-0.3825
N15140 X1.4349 Y3.9068 Z-0.3826
N15145 X1.4369 Y3.9083 Z-0.3827
N15150 X1.4387 Y3.91 Z-0.3828
N15155 X1.4405 Y3.9116 Z-0.3829
N15160 X1.4439 Y3.9152 Z-0.383
N15165 X1.4455 Y3.9171 Z-0.3831
N15170 X1.447 Y3.9191 Z-0.3832
N15175 X1.4484 Y3.9211 Z-0.3833
N15180 X1.4497 Y3.9232 Z-0.3834
N15185 X1.451 Y3.9253 Z-0.3835
N15190 X1.4521 Y3.9275 Z-0.3836
N15195 X1.4532 Y3.9297
N15200 X1.4542 Y3.932 Z-0.3837
N15205 X1.455 Y3.9343 Z-0.3838
N15210 X1.4558 Y3.9366 Z-0.3839
N15215 X1.4565 Y3.939 Z-0.384
N15220 X1.4571 Y3.9414 Z-0.3841
N15225 X1.458 Y3.9462 Z-0.3842
N15230 X1.4582 Y3.9487 Z-0.3843
N15235 X1.4584 Y3.9511 Z-0.3844
N15240 X1.4585 Y3.9536 Z-0.3845
N15245 X1.4584 Y3.956 Z-0.3846
N15250 X1.4581 Y3.9609 Z-0.3848
N15255 X1.4574 Y3.9658 Z-0.3849
N15260 X1.4568 Y3.9682 Z-0.385
N15265 X1.4562 Y3.9706 Z-0.3851
N15270 X1.4546 Y3.9753 Z-0.3853
N15275 X1.4527 Y3.9798 Z-0.3854
N15280 X1.4505 Y3.9841 Z-0.3856
N15285 X1.4492 Y3.9862 Z-0.3857
N15290 X1.4478 Y3.9883 Z-0.3858
N15295 X1.4464 Y3.9903 Z-0.3859
N15300 X1.4449 Y3.9922 Z-0.386
N15305 X1.4433 Y3.994
N15310 X1.4416 Y3.9958 Z-0.3861
N15315 X1.4398 Y3.9976 Z-0.3862
N15320 X1.438 Y3.9992 Z-0.3863
N15325 X1.4342 Y4.0022 Z-0.3865
N15330 X1.4322 Y4.0036 Z-0.3866
N15335 X1.4301 Y4.005
N15340 X1.428 Y4.0062 Z-0.3867
N15345 X1.4258 Y4.0074 Z-0.3868
N15350 X1.4236 Y4.0084 Z-0.3869
N15355 X1.4214 Y4.0094 Z-0.387
N15360 X1.4191 Y4.0102 Z-0.3871
N15365 X1.4168 Y4.011 Z-0.3872
N15370 X1.4144 Y4.0117
N15375 X1.412 Y4.0123 Z-0.3873
N15380 X1.4072 Y4.0131 Z-0.3875
N15385 X1.4048 Y4.0134 Z-0.3876
N15390 X1.4024 Y4.0136 Z-0.3877
N15395 X1.3999 Y4.0137
N15400 X1.3975 Y4.0136 Z-0.3878
N15405 X1.395 Y4.0135 Z-0.3879
N15410 X1.3926 Y4.0133 Z-0.388
N15415 X1.3902 Y4.013 Z-0.3881
N15420 X1.3877 Y4.0126 Z-0.3882
N15425 X1.3854 Y4.012 Z-0.3883
N15430 X1.383 Y4.0114
N15435 X1.3784 Y4.0099 Z-0.3885
N15440 X1.3761 Y4.009 Z-0.3886
N15445 X1.3739 Y4.008 Z-0.3887
N15450 X1.3717 Y4.0069 Z-0.3888
N15455 X1.3695 Y4.0057 Z-0.3889
N15460 X1.3675 Y4.0044
N15465 X1.3654 Y4.0031 Z-0.389
N15470 X1.3635 Y4.0016 Z-0.3891
N15475 X1.3615 Y4.0001 Z-0.3892
N15480 X1.3597 Y3.9985 Z-0.3893
N15485 X1.3579 Y3.9969 Z-0.3894
N15490 X1.3562 Y3.9951 Z-0.3895
N15495 X1.3546 Y3.9933
N15500 X1.3515 Y3.9895 Z-0.3897
N15505 X1.3501 Y3.9875 Z-0.3898
N15510 X1.3488 Y3.9855 Z-0.3899
N15515 X1.3476 Y3.9833 Z-0.39
N15520 X1.3465 Y3.9812
N15525 X1.3454 Y3.979 Z-0.3901
N15530 X1.3445 Y3.9768 Z-0.3902
N15535 X1.3436 Y3.9745 Z-0.3903
N15540 X1.3428 Y3.9722 Z-0.3904
N15545 X1.3421 Y3.9698 Z-0.3905
N15550 X1.3416 Y3.9675 Z-0.3906
N15555 X1.3407 Y3.9627 Z-0.3907
N15560 X1.3404 Y3.9603 Z-0.3908
N15565 X1.3402 Y3.9578 Z-0.3909
N15570 Y3.9554 Z-0.391
N15575 Y3.953 Z-0.3911
N15580 X1.3403 Y3.9505 Z-0.3912
N15585 X1.3405 Y3.9481
N15590 X1.3409 Y3.9457 Z-0.3913
N15595 X1.3413 Y3.9433 Z-0.3914
N15600 X1.3418 Y3.9409 Z-0.3915
N15605 X1.3424 Y3.9386 Z-0.3916
N15610 X1.3439 Y3.934 Z-0.3917
N15615 X1.3448 Y3.9317 Z-0.3918
N15620 X1.3458 Y3.9295 Z-0.3919
N15625 X1.3469 Y3.9273 Z-0.392
N15630 X1.3481 Y3.9252 Z-0.3921
N15635 X1.3494 Y3.9231 Z-0.3922
N15640 X1.3507 Y3.9211 Z-0.3923
N15645 X1.3521 Y3.9192
N15650 X1.3536 Y3.9173 Z-0.3924
N15655 X1.3552 Y3.9154 Z-0.3925
N15660 X1.3569 Y3.9137 Z-0.3926
N15665 X1.3586 Y3.912 Z-0.3927
N15670 X1.3604 Y3.9103 Z-0.3928
N15675 X1.3642 Y3.9073 Z-0.3929
N15680 X1.3662 Y3.9059 Z-0.393
N15685 X1.3682 Y3.9046 Z-0.3931
N15690 X1.3703 Y3.9034 Z-0.3932
N15695 X1.3725 Y3.9023 Z-0.3933
N15700 X1.3746 Y3.9012 Z-0.3934
N15705 X1.3769 Y3.9003
N15710 X1.3803 Y3.899 Z-0.3936
N15715 X1.3821 Y3.8984
N15720 X1.3839 Y3.8979 Z-0.3937
N15725 X1.3841
N15730 X1.3853 Y3.8976
N15735 X1.3866 Y3.8973 Z-0.3938
N15740 X1.3891 Y3.8968 Z-0.3939
N15745 X1.3917 Y3.8964 Z-0.394
N15750 X1.3943 Y3.8962 Z-0.3941
N15755 X1.3969 Y3.896 Z-0.3942
N15760 X1.3995
N15765 X1.4021 Y3.8961 Z-0.3943
N15770 X1.4047 Y3.8963 Z-0.3944
N15775 X1.4073 Y3.8966 Z-0.3945
N15780 X1.4099 Y3.8971 Z-0.3946
N15785 X1.4125 Y3.8976 Z-0.3947
N15790 X1.4151 Y3.8983 Z-0.3948
N15795 X1.4176 Y3.8991 Z-0.3949
N15800 X1.42 Y3.9 Z-0.395
N15805 X1.4224 Y3.901 Z-0.3951
N15810 X1.4248 Y3.9021 Z-0.3952
N15815 X1.4271 Y3.9033
N15820 X1.4293 Y3.9046 Z-0.3953
N15825 X1.4315 Y3.906 Z-0.3954
N15830 X1.4337 Y3.9076 Z-0.3955
N15835 X1.4357 Y3.9092 Z-0.3956
N15840 X1.4377 Y3.9109 Z-0.3957
N15845 X1.4396 Y3.9127 Z-0.3958
N15850 X1.4415 Y3.9146 Z-0.3959
N15855 X1.4432 Y3.9165 Z-0.396
N15860 X1.4449 Y3.9185 Z-0.3961
N15865 X1.4464 Y3.9206 Z-0.3962
N15870 X1.4479 Y3.9228 Z-0.3963
N15875 X1.4493 Y3.925
N15880 X1.4505 Y3.9273 Z-0.3964
N15885 X1.4517 Y3.9297 Z-0.3965
N15890 X1.4527 Y3.9321 Z-0.3966
N15895 X1.4537 Y3.9345 Z-0.3967
N15900 X1.4545 Y3.937 Z-0.3968
N15905 X1.4552 Y3.9395 Z-0.3969
N15910 X1.4558 Y3.942 Z-0.397
N15915 X1.4563 Y3.9446 Z-0.3971
N15920 X1.4567 Y3.9472 Z-0.3972
N15925 X1.457 Y3.9499 Z-0.3973
N15930 X1.4571 Y3.9525 Z-0.3974
N15935 X1.457 Y3.9576 Z-0.3975
N15940 X1.4568 Y3.9602 Z-0.3976
N15945 X1.4565 Y3.9627 Z-0.3977
N15950 X1.4555 Y3.9679 Z-0.3979
N15955 X1.454 Y3.973 Z-0.3981
N15960 X1.4531 Y3.9754 Z-0.3982
N15965 X1.4521 Y3.9778 Z-0.3983
N15970 X1.4498 Y3.9825 Z-0.3984
N15975 X1.4485 Y3.9847 Z-0.3985
N15980 X1.4471 Y3.9869 Z-0.3986
N15985 X1.4456 Y3.989 Z-0.3987
N15990 X1.4441 Y3.991 Z-0.3988
N15995 X1.4424 Y3.993 Z-0.3989
N16000 X1.4406 Y3.9949 Z-0.399
N16005 X1.4387 Y3.9968 Z-0.3991
N16010 X1.4367 Y3.9985 Z-0.3992
N16015 X1.4347 Y4.0001 Z-0.3993
N16020 X1.4326 Y4.0017
N16025 X1.4305 Y4.0031 Z-0.3994
N16030 X1.4283 Y4.0045 Z-0.3995
N16035 X1.426 Y4.0057 Z-0.3996
N16040 X1.4236 Y4.0069 Z-0.3997
N16045 X1.4213 Y4.0079 Z-0.3998
N16050 X1.4188 Y4.0089 Z-0.3999
N16055 X1.4164 Y4.0097 Z-0.4
N16060 X1.4139 Y4.0104 Z-0.4001
N16065 X1.4114 Y4.011 Z-0.4002
N16070 X1.4088 Y4.0115 Z-0.4003
N16075 X1.4062 Y4.0119
N16080 X1.4036 Y4.0121 Z-0.4004
N16085 X1.401 Y4.0123 Z-0.4005
N16090 X1.3984 Z-0.4006
N16095 X1.3958 Y4.0122 Z-0.4007
N16100 X1.3933 Y4.012 Z-0.4008
N16105 X1.3907 Y4.0117 Z-0.4009
N16110 X1.3882 Y4.0112 Z-0.401
N16115 X1.3857 Y4.0107 Z-0.4011
N16120 X1.3832 Y4.01 Z-0.4012
N16125 X1.3807 Y4.0093
N16130 X1.3783 Y4.0084 Z-0.4013
N16135 X1.3759 Y4.0074 Z-0.4014
N16140 X1.3735 Y4.0063 Z-0.4015
N16145 X1.3713 Y4.0051 Z-0.4016
N16150 X1.369 Y4.0038 Z-0.4017
N16155 X1.3668 Y4.0024 Z-0.4018
N16160 X1.3647 Y4.0009 Z-0.4019
N16165 X1.3627 Y3.9993 Z-0.402
N16170 X1.3607 Y3.9976 Z-0.4021
N16175 X1.3588 Y3.9958
N16180 X1.357 Y3.994 Z-0.4022
N16185 X1.3553 Y3.992 Z-0.4023
N16190 X1.3536 Y3.99 Z-0.4024
N16195 X1.3521 Y3.9879 Z-0.4025
N16200 X1.3506 Y3.9858 Z-0.4026
N16205 X1.3493 Y3.9836 Z-0.4027
N16210 X1.348 Y3.9813 Z-0.4028
N16215 X1.3469 Y3.979 Z-0.4029
N16220 X1.3459 Y3.9766 Z-0.403
N16225 X1.3449 Y3.9742 Z-0.4031
N16230 X1.3441 Y3.9717
N16235 X1.3434 Y3.9692 Z-0.4032
N16240 X1.3428 Y3.9668 Z-0.4033
N16245 X1.3423 Y3.9642 Z-0.4034
N16250 X1.342 Y3.9617 Z-0.4035
N16255 X1.3417 Y3.9591 Z-0.4036
N16260 X1.3416 Y3.9565 Z-0.4037
N16265 X1.3415 Y3.9539 Z-0.4038
N16270 X1.3416 Y3.9513 Z-0.4039
N16275 X1.3418 Y3.9488 Z-0.404
N16280 X1.3422 Y3.9462
N16285 X1.3426 Y3.9437 Z-0.4041
N16290 X1.3431 Y3.9412 Z-0.4042
N16295 X1.3438 Y3.9388 Z-0.4043
N16300 X1.3446 Y3.9363 Z-0.4044
N16305 X1.3454 Y3.9339 Z-0.4045
N16310 X1.3464 Y3.9315 Z-0.4046
N16315 X1.3475 Y3.9292 Z-0.4047
N16320 X1.3487 Y3.9269 Z-0.4048
N16325 X1.35 Y3.9247
N16330 X1.3514 Y3.9225 Z-0.4049
N16335 X1.3529 Y3.9204 Z-0.405
N16340 X1.3545 Y3.9184 Z-0.4051
N16345 X1.3562 Y3.9164 Z-0.4052
N16350 X1.3579 Y3.9145 Z-0.4053
N16355 X1.3598 Y3.9127 Z-0.4054
N16360 X1.3617 Y3.911 Z-0.4055
N16365 X1.3637 Y3.9094 Z-0.4056
N16370 X1.3657 Y3.9079 Z-0.4057
N16375 X1.3679 Y3.9064
N16380 X1.3701 Y3.9051 Z-0.4058
N16385 X1.3723 Y3.9039 Z-0.4059
N16390 X1.3746 Y3.9027 Z-0.406
N16395 X1.377 Y3.9017 Z-0.4061
N16400 X1.3794 Y3.9007 Z-0.4062
N16405 X1.3819 Y3.8999 Z-0.4063
N16410 X1.3844 Y3.8992 Z-0.4064
N16415 X1.3869 Y3.8986 Z-0.4065
N16420 X1.3894 Y3.8981 Z-0.4066
N16425 X1.3919 Y3.8978
N16430 X1.3944 Y3.8975 Z-0.4067
N16435 X1.3969 Y3.8974 Z-0.4068
N16440 X1.3995 Z-0.4069
N16445 X1.402 Y3.8975 Z-0.407
N16450 X1.4046 Y3.8977 Z-0.4071
N16455 X1.4071 Y3.898 Z-0.4072
N16460 X1.4097 Y3.8984 Z-0.4073
N16465 X1.4122 Y3.899 Z-0.4074
N16470 X1.4147 Y3.8996
N16475 X1.4171 Y3.9004 Z-0.4075
N16480 X1.4195 Y3.9013 Z-0.4076
N16485 X1.4219 Y3.9022 Z-0.4077
N16490 X1.4242 Y3.9033 Z-0.4078
N16495 X1.4265 Y3.9045 Z-0.4079
N16500 X1.4287 Y3.9058 Z-0.408
N16505 X1.4308 Y3.9072 Z-0.4081
N16510 X1.4329 Y3.9087 Z-0.4082
N16515 X1.4349 Y3.9102
N16520 X1.4368 Y3.9119 Z-0.4083
N16525 X1.4387 Y3.9137 Z-0.4084
N16530 X1.4405 Y3.9155 Z-0.4085
N16535 X1.4422 Y3.9174 Z-0.4086
N16540 X1.4438 Y3.9194 Z-0.4087
N16545 X1.4454 Y3.9214 Z-0.4088
N16550 X1.4468 Y3.9236 Z-0.4089
N16555 X1.4481 Y3.9257 Z-0.409
N16560 X1.4493 Y3.928 Z-0.4091
N16565 X1.4505 Y3.9303
N16570 X1.4515 Y3.9326 Z-0.4092
N16575 X1.4524 Y3.935 Z-0.4093
N16580 X1.4532 Y3.9374 Z-0.4094
N16585 X1.4539 Y3.9398 Z-0.4095
N16590 X1.4545 Y3.9423 Z-0.4096
N16595 X1.455 Y3.9448 Z-0.4097
N16600 X1.4554 Y3.9474 Z-0.4098
N16605 X1.4556 Y3.9499 Z-0.4099
N16610 X1.4558 Y3.9525
N16615 X1.4557 Y3.9576 Z-0.4101
N16620 X1.4555 Y3.9601 Z-0.4102
N16625 X1.4552 Y3.9626 Z-0.4103
N16630 X1.4542 Y3.9676 Z-0.4105
N16635 X1.4527 Y3.9726 Z-0.4107
N16640 X1.4519 Y3.9749
N16645 X1.4509 Y3.9773 Z-0.4108
N16650 X1.4486 Y3.9818 Z-0.411
