%
O09719 (Thermocyler_Block_8)
(Using high feed G1 F500. instead of G0.)
(T8 D=0.125 CR=0. - ZMIN=-0.7087 - flat end mill)
N10 G90 G94 G17
N15 G20
N20 G53 G0 Z0.

(Ramp1)
N30 T8 M6
N35 S4000 M3
N40 G54
N45 M8
N60 G0 X1.4396 Y3.6926
N65 G43 Z0.5906 H8
N70 G0 Z0.0761
N75 G1 Z0. F8.
N80 G3 X1.4449 Y3.7151 I-0.002 J0.0123
N85 G1 X1.4409 Y3.718 Z-0.0002
N90 X1.4367 Y3.7207 Z-0.0003
N95 X1.4353 Y3.7215 Z-0.0004
N100 X1.4297 Y3.7243 Z-0.0006
N105 X1.425 Y3.7263 Z-0.0008
N110 X1.4241 Y3.7266
N115 X1.4185 Y3.7283 Z-0.001
N120 X1.4129 Y3.7296 Z-0.0012
N125 X1.4073 Y3.7304 Z-0.0014
N130 X1.4017 Y3.7309 Z-0.0016
N135 X1.3961 Z-0.0018
N140 X1.3906 Y3.7304 Z-0.002
N145 X1.385 Y3.7296 Z-0.0022
N150 X1.3794 Y3.7283 Z-0.0024
N155 X1.3738 Y3.7265 Z-0.0026
N160 X1.3731 Y3.7263 Z-0.0027
N165 X1.3682 Y3.7242 Z-0.0028
N170 X1.3626 Y3.7214 Z-0.0031
N175 X1.3613 Y3.7207
N180 X1.357 Y3.7179 Z-0.0033
N185 X1.3531 Y3.7151 Z-0.0035
N190 X1.3514 Y3.7138
N195 X1.3491 Y3.7117 Z-0.0036
N200 X1.3467 Y3.7095 Z-0.0038
N205 X1.3459 Y3.7086
N210 X1.3417 Y3.7039 Z-0.004
N215 X1.3403 Y3.7022 Z-0.0041
N220 X1.3375 Y3.6983 Z-0.0043
N225 X1.3347 Y3.6939 Z-0.0044
N230 X1.334 Y3.6927 Z-0.0045
N235 X1.3312 Y3.6871 Z-0.0047
N240 X1.3291 Y3.682 Z-0.0049
N245 X1.3289 Y3.6816
N250 X1.328 Y3.6788 Z-0.005
N255 X1.3271 Y3.676 Z-0.0051
N260 X1.3259 Y3.6704 Z-0.0053
N265 X1.325 Y3.6648 Z-0.0055
N270 X1.3246 Y3.6592 Z-0.0057
N275 Y3.6536 Z-0.0059
N280 X1.325 Y3.648 Z-0.0061
N285 X1.3259 Y3.6424 Z-0.0063
N290 X1.3272 Y3.6368 Z-0.0065
N295 X1.329 Y3.6313 Z-0.0067
N300 X1.3291 Y3.631
N305 X1.3313 Y3.6257 Z-0.0069
N310 X1.3341 Y3.6201 Z-0.0071
N315 X1.3347 Y3.6191 Z-0.0072
N320 X1.3376 Y3.6145 Z-0.0074
N325 X1.3403 Y3.6108 Z-0.0075
N330 X1.3418 Y3.6089 Z-0.0076
N335 X1.3459 Y3.6044 Z-0.0078
N340 X1.3469 Y3.6033 Z-0.0079
N345 X1.3514 Y3.5992 Z-0.0081
N350 X1.3534 Y3.5977 Z-0.0082
N355 X1.357 Y3.5951 Z-0.0083
N360 X1.3617 Y3.5921 Z-0.0085
N365 X1.3626 Y3.5916 Z-0.0086
N370 X1.3682 Y3.5888 Z-0.0088
N375 X1.3736 Y3.5865 Z-0.009
N380 X1.3738
N385 X1.3794 Y3.5847 Z-0.0092
N390 X1.385 Y3.5834 Z-0.0094
N395 X1.3906 Y3.5826 Z-0.0096
N400 X1.3961 Y3.5821 Z-0.0098
N405 X1.4017 Z-0.01
N410 X1.4073 Y3.5826 Z-0.0102
N415 X1.4129 Y3.5834 Z-0.0104
N420 X1.4185 Y3.5847 Z-0.0106
N425 X1.4241 Y3.5864 Z-0.0108
N430 X1.4244 Y3.5865
N435 X1.4297 Y3.5887 Z-0.011
N440 X1.4353 Y3.5915 Z-0.0112
N445 X1.4364 Y3.5921 Z-0.0113
N450 X1.4409 Y3.595 Z-0.0114
N455 X1.4447 Y3.5977 Z-0.0116
N460 X1.4464 Y3.5992 Z-0.0117
N465 X1.451 Y3.6033 Z-0.0119
N470 X1.452 Y3.6043 Z-0.012
N475 X1.4562 Y3.6089 Z-0.0122
N480 X1.4576 Y3.6107
N485 X1.4605 Y3.6145 Z-0.0124
N490 X1.4632 Y3.6188 Z-0.0126
N495 X1.4639 Y3.6201
N500 X1.4667 Y3.6257 Z-0.0129
N505 X1.4688 Y3.6307 Z-0.0131
N510 X1.469 Y3.6313
N515 X1.4708 Y3.6368 Z-0.0133
N520 X1.4721 Y3.6424 Z-0.0135
N525 X1.4729 Y3.648 Z-0.0137
N530 X1.4733 Y3.6536 Z-0.0139
N535 X1.4734 Y3.6592 Z-0.0141
N540 X1.4729 Y3.6648 Z-0.0143
N545 X1.4721 Y3.6704 Z-0.0145
N550 X1.4708 Y3.676 Z-0.0147
N555 X1.4691 Y3.6816 Z-0.0149
N560 X1.4688 Y3.6823
N565 X1.4668 Y3.6871 Z-0.0151
N570 X1.464 Y3.6927 Z-0.0153
N575 X1.4632 Y3.6942 Z-0.0154
N580 X1.4606 Y3.6983 Z-0.0155
N585 X1.4576 Y3.7023 Z-0.0157
N590 X1.4564 Y3.7039 Z-0.0158
N595 X1.452 Y3.7087 Z-0.016
N600 X1.4512 Y3.7095
N605 X1.4464 Y3.7138 Z-0.0163
N610 X1.4449 Y3.7151
N615 X1.4409 Y3.718 Z-0.0165
N620 X1.4367 Y3.7207 Z-0.0167
N625 X1.4353 Y3.7215
N630 X1.4297 Y3.7243 Z-0.0169
N635 X1.425 Y3.7263 Z-0.0171
N640 X1.4241 Y3.7266 Z-0.0172
N645 X1.4185 Y3.7283 Z-0.0174
N650 X1.4129 Y3.7296 Z-0.0176
N655 X1.4073 Y3.7304 Z-0.0178
N660 X1.4017 Y3.7309 Z-0.018
N665 X1.3961 Z-0.0182
N670 X1.3906 Y3.7304 Z-0.0183
N675 X1.385 Y3.7296 Z-0.0185
N680 X1.3794 Y3.7283 Z-0.0187
N685 X1.3738 Y3.7265 Z-0.019
N690 X1.3731 Y3.7263
N695 X1.3682 Y3.7242 Z-0.0192
N700 X1.3626 Y3.7214 Z-0.0194
N705 X1.3613 Y3.7207
N710 X1.357 Y3.7179 Z-0.0196
N715 X1.3531 Y3.7151 Z-0.0198
N720 X1.3514 Y3.7138 Z-0.0199
N725 X1.3491 Y3.7117 Z-0.02
N730 X1.3467 Y3.7095 Z-0.0201
N735 X1.3459 Y3.7086
N740 X1.3417 Y3.7039 Z-0.0203
N745 X1.3403 Y3.7022 Z-0.0204
N750 X1.3375 Y3.6983 Z-0.0206
N755 X1.3347 Y3.6939 Z-0.0208
N760 X1.334 Y3.6927
N765 X1.3312 Y3.6871 Z-0.021
N770 X1.3291 Y3.682 Z-0.0212
N775 X1.3289 Y3.6816
N780 X1.328 Y3.6788 Z-0.0213
N785 X1.3271 Y3.676 Z-0.0214
N790 X1.3259 Y3.6704 Z-0.0216
N795 X1.325 Y3.6648 Z-0.0218
N800 X1.3246 Y3.6592 Z-0.022
N805 Y3.6536 Z-0.0222
N810 X1.325 Y3.648 Z-0.0224
N815 X1.3259 Y3.6424 Z-0.0226
N820 X1.3272 Y3.6368 Z-0.0228
N825 X1.329 Y3.6313 Z-0.023
N830 X1.3291 Y3.631
N835 X1.3313 Y3.6257 Z-0.0232
N840 X1.3341 Y3.6201 Z-0.0235
N845 X1.3347 Y3.6191
N850 X1.3376 Y3.6145 Z-0.0237
N855 X1.3403 Y3.6108 Z-0.0239
N860 X1.3418 Y3.6089
N865 X1.3459 Y3.6044 Z-0.0241
N870 X1.3469 Y3.6033 Z-0.0242
N875 X1.3514 Y3.5992 Z-0.0244
N880 X1.3534 Y3.5977 Z-0.0245
N885 X1.357 Y3.5951 Z-0.0247
N890 X1.3617 Y3.5921 Z-0.0249
N895 X1.3626 Y3.5916
N900 X1.3682 Y3.5888 Z-0.0251
N905 X1.3736 Y3.5865 Z-0.0253
N910 X1.3738
N915 X1.3794 Y3.5847 Z-0.0255
N920 X1.385 Y3.5834 Z-0.0257
N925 X1.3906 Y3.5826 Z-0.0259
N930 X1.3961 Y3.5821 Z-0.0261
N935 X1.4017 Z-0.0263
N940 X1.4073 Y3.5826 Z-0.0265
N945 X1.4129 Y3.5834 Z-0.0267
N950 X1.4185 Y3.5847 Z-0.0269
N955 X1.4241 Y3.5864 Z-0.0271
N960 X1.4244 Y3.5865
N965 X1.4297 Y3.5887 Z-0.0273
N970 X1.4353 Y3.5915 Z-0.0275
N975 X1.4364 Y3.5921 Z-0.0276
N980 X1.4409 Y3.595 Z-0.0278
N985 X1.4447 Y3.5977 Z-0.0279
N990 X1.4464 Y3.5992 Z-0.028
N995 X1.451 Y3.6033 Z-0.0282
N1000 X1.452 Y3.6043 Z-0.0283
N1005 X1.4562 Y3.6089 Z-0.0285
N1010 X1.4576 Y3.6107 Z-0.0286
N1015 X1.4605 Y3.6145 Z-0.0287
N1020 X1.4632 Y3.6188 Z-0.0289
N1025 X1.4639 Y3.6201 Z-0.029
N1030 X1.4667 Y3.6257 Z-0.0292
N1035 X1.4688 Y3.6307 Z-0.0294
N1040 X1.469 Y3.6313
N1045 X1.4708 Y3.6368 Z-0.0296
N1050 X1.4721 Y3.6424 Z-0.0298
N1055 X1.4729 Y3.648 Z-0.03
N1060 X1.4733 Y3.6536 Z-0.0302
N1065 X1.4734 Y3.6592 Z-0.0304
N1070 X1.4729 Y3.6648 Z-0.0306
N1075 X1.4721 Y3.6704 Z-0.0308
N1080 X1.4708 Y3.676 Z-0.031
N1085 X1.4691 Y3.6816 Z-0.0312
N1090 X1.4688 Y3.6823
N1095 X1.4668 Y3.6871 Z-0.0314
N1100 X1.464 Y3.6927 Z-0.0316
N1105 X1.4632 Y3.6942 Z-0.0317
N1110 X1.4606 Y3.6983 Z-0.0318
N1115 X1.4576 Y3.7023 Z-0.032
N1120 X1.4564 Y3.7039 Z-0.0321
N1125 X1.452 Y3.7087 Z-0.0323
N1130 X1.4512 Y3.7095 Z-0.0324
N1135 X1.4464 Y3.7138 Z-0.0326
N1140 X1.4449 Y3.7151 Z-0.0327
N1145 X1.4409 Y3.718 Z-0.0328
N1150 X1.4367 Y3.7207 Z-0.033
N1155 X1.4353 Y3.7215 Z-0.0331
N1160 X1.4297 Y3.7243 Z-0.0333
N1165 X1.425 Y3.7263 Z-0.0335
N1170 X1.4241 Y3.7266
N1175 X1.4185 Y3.7283 Z-0.0337
N1180 X1.4129 Y3.7296 Z-0.0339
N1185 X1.4073 Y3.7304 Z-0.0341
N1190 X1.4017 Y3.7309 Z-0.0343
N1195 X1.3961 Z-0.0345
N1200 X1.3906 Y3.7304 Z-0.0347
N1205 X1.385 Y3.7296 Z-0.0349
N1210 X1.3794 Y3.7283 Z-0.0351
N1215 X1.3738 Y3.7265 Z-0.0353
N1220 X1.3731 Y3.7263
N1225 X1.3682 Y3.7242 Z-0.0355
N1230 X1.3626 Y3.7214 Z-0.0357
N1235 X1.3613 Y3.7207 Z-0.0358
N1240 X1.357 Y3.7179 Z-0.0359
N1245 X1.3531 Y3.7151 Z-0.0361
N1250 X1.3514 Y3.7138 Z-0.0362
N1255 X1.3491 Y3.7117 Z-0.0363
N1260 X1.3467 Y3.7095 Z-0.0364
N1265 X1.3459 Y3.7086
N1270 X1.3417 Y3.7039 Z-0.0367
N1275 X1.3403 Y3.7022
N1280 X1.3375 Y3.6983 Z-0.0369
N1285 X1.3347 Y3.6939 Z-0.0371
N1290 X1.334 Y3.6927
N1295 X1.3312 Y3.6871 Z-0.0374
N1300 X1.3291 Y3.682 Z-0.0375
N1305 X1.3289 Y3.6816 Z-0.0376
N1310 X1.328 Y3.6788 Z-0.0377
N1315 X1.3271 Y3.676 Z-0.0378
N1320 X1.3259 Y3.6704 Z-0.038
N1325 X1.325 Y3.6648 Z-0.0382
N1330 X1.3246 Y3.6592 Z-0.0384
N1335 Y3.6536 Z-0.0386
N1340 X1.325 Y3.648 Z-0.0388
N1345 X1.3259 Y3.6424 Z-0.039
N1350 X1.3272 Y3.6368 Z-0.0392
N1355 X1.329 Y3.6313 Z-0.0394
N1360 X1.3291 Y3.631
N1365 X1.3309 Y3.6264 Z-0.0395
N1370 X1.333 Y3.6221 Z-0.0397
N1375 X1.3354 Y3.6178 Z-0.0399
N1380 X1.3381 Y3.6138 Z-0.0401
N1385 X1.341 Y3.6099 Z-0.0402
N1390 X1.3442 Y3.6062 Z-0.0404
N1395 X1.3476 Y3.6027 Z-0.0406
N1400 X1.3512 Y3.5994 Z-0.0407
N1405 X1.3551 Y3.5964 Z-0.0409
N1410 X1.3591 Y3.5937 Z-0.0411
N1415 X1.3633 Y3.5912 Z-0.0412
N1420 X1.3676 Y3.589 Z-0.0414
N1425 X1.3721 Y3.5871 Z-0.0416
N1430 X1.3767 Y3.5855 Z-0.0417
N1435 X1.3814 Y3.5842 Z-0.0419
N1440 X1.3862 Y3.5832 Z-0.0421
N1445 X1.391 Y3.5825 Z-0.0423
N1450 X1.3958 Y3.5822 Z-0.0424
N1455 X1.4007 Y3.5821 Z-0.0426
N1460 X1.4056 Y3.5824 Z-0.0428
N1465 X1.4104 Y3.583 Z-0.0429
N1470 X1.4152 Y3.5839 Z-0.0431
N1475 X1.4199 Y3.585 Z-0.0433
N1480 X1.4245 Y3.5866 Z-0.0435
N1485 X1.4291 Y3.5884 Z-0.0436
N1490 X1.4334 Y3.5905 Z-0.0438
N1495 X1.4377 Y3.5929 Z-0.044
N1500 X1.4418 Y3.5956 Z-0.0441
N1505 X1.4457 Y3.5985 Z-0.0443
N1510 X1.4494 Y3.6017 Z-0.0445
N1515 X1.4528 Y3.6051 Z-0.0446
N1520 X1.4561 Y3.6087 Z-0.0448
N1525 X1.4591 Y3.6126 Z-0.045
N1530 X1.4618 Y3.6166 Z-0.0451
N1535 X1.4643 Y3.6208 Z-0.0453
N1540 X1.4665 Y3.6251 Z-0.0455
N1545 X1.4684 Y3.6296 Z-0.0457
N1550 X1.47 Y3.6342 Z-0.0458
N1555 X1.4713 Y3.6389 Z-0.046
N1560 X1.4723 Y3.6437 Z-0.0462
N1565 X1.473 Y3.6485 Z-0.0463
N1570 X1.4733 Y3.6534 Z-0.0465
N1575 X1.4734 Y3.6582 Z-0.0467
N1580 X1.4731 Y3.6631 Z-0.0468
N1585 X1.4726 Y3.6679 Z-0.047
N1590 X1.4716 Y3.6727 Z-0.0472
N1595 X1.4704 Y3.6774 Z-0.0474
N1600 X1.4689 Y3.682 Z-0.0475
N1605 X1.4671 Y3.6866 Z-0.0477
N1610 X1.4649 Y3.691 Z-0.0479
N1615 X1.4626 Y3.6952 Z-0.048
N1620 X1.4599 Y3.6993 Z-0.0482
N1625 X1.457 Y3.7032 Z-0.0484
N1630 X1.4538 Y3.7069 Z-0.0485
N1635 X1.4504 Y3.7103 Z-0.0487
N1640 X1.4467 Y3.7136 Z-0.0489
N1645 X1.4429 Y3.7166 Z-0.0491
N1650 X1.4389 Y3.7193 Z-0.0492
N1655 X1.4347 Y3.7218 Z-0.0494
N1660 X1.4304 Y3.724 Z-0.0496
N1665 X1.4259 Y3.7259 Z-0.0497
N1670 X1.4213 Y3.7275 Z-0.0499
N1675 X1.4166 Y3.7288 Z-0.0501
N1680 X1.4118 Y3.7298 Z-0.0502
N1685 X1.407 Y3.7305 Z-0.0504
N1690 X1.4021 Y3.7309 Z-0.0506
N1695 X1.3973 Z-0.0508
N1700 X1.3924 Y3.7306 Z-0.0509
N1705 X1.3876 Y3.73 Z-0.0511
N1710 X1.3828 Y3.7291 Z-0.0513
N1715 X1.3781 Y3.7279 Z-0.0514
N1720 X1.3735 Y3.7264 Z-0.0516
N1725 X1.3689 Y3.7246 Z-0.0518
N1730 X1.3645 Y3.7225 Z-0.0519
N1735 X1.3603 Y3.7201 Z-0.0521
N1740 X1.3562 Y3.7174 Z-0.0523
N1745 X1.3523 Y3.7145 Z-0.0525
N1750 X1.3487 Y3.7113 Z-0.0526
N1755 X1.3452 Y3.7079 Z-0.0528
N1760 X1.3419 Y3.7042 Z-0.053
N1765 X1.3389 Y3.7004 Z-0.0531
N1770 X1.3362 Y3.6964 Z-0.0533
N1775 X1.3337 Y3.6922 Z-0.0535
N1780 X1.3315 Y3.6879 Z-0.0536
N1785 X1.3296 Y3.6834 Z-0.0538
N1790 X1.328 Y3.6788 Z-0.054
N1795 X1.3267 Y3.6741 Z-0.0542
N1800 X1.3257 Y3.6693 Z-0.0543
N1805 X1.325 Y3.6645 Z-0.0545
N1810 X1.3246 Y3.6596 Z-0.0547
N1815 Y3.6548 Z-0.0548
N1820 X1.3249 Y3.6499 Z-0.055
N1825 X1.3255 Y3.6451 Z-0.0552
N1830 X1.3264 Y3.6403 Z-0.0553
N1835 X1.3276 Y3.6356 Z-0.0555
N1840 X1.3291 Y3.631 Z-0.0557
N1845 X1.3309 Y3.6264 Z-0.0559
N1850 X1.333 Y3.6221 Z-0.056
N1855 X1.3354 Y3.6178 Z-0.0562
N1860 X1.3381 Y3.6138 Z-0.0564
N1865 X1.341 Y3.6099 Z-0.0565
N1870 X1.3442 Y3.6062 Z-0.0567
N1875 X1.3476 Y3.6027 Z-0.0569
N1880 X1.3512 Y3.5994 Z-0.057
N1885 X1.3551 Y3.5964 Z-0.0572
N1890 X1.3591 Y3.5937 Z-0.0574
N1895 X1.3633 Y3.5912 Z-0.0576
N1900 X1.3676 Y3.589 Z-0.0577
N1905 X1.3721 Y3.5871 Z-0.0579
N1910 X1.3767 Y3.5855 Z-0.0581
N1915 X1.3814 Y3.5842 Z-0.0582
N1920 X1.3862 Y3.5832 Z-0.0584
N1925 X1.391 Y3.5825 Z-0.0586
N1930 X1.3958 Y3.5822 Z-0.0587
N1935 X1.4007 Y3.5821 Z-0.0589
N1940 X1.4056 Y3.5824 Z-0.0591
N1945 X1.4104 Y3.583 Z-0.0593
N1950 X1.4152 Y3.5839 Z-0.0594
N1955 X1.4199 Y3.585 Z-0.0596
N1960 X1.4245 Y3.5866 Z-0.0598
N1965 X1.4291 Y3.5884 Z-0.0599
N1970 X1.4334 Y3.5905 Z-0.0601
N1975 X1.4377 Y3.5929 Z-0.0603
N1980 X1.4418 Y3.5956 Z-0.0604
N1985 X1.4457 Y3.5985 Z-0.0606
N1990 X1.4494 Y3.6017 Z-0.0608
N1995 X1.4528 Y3.6051 Z-0.061
N2000 X1.4561 Y3.6087 Z-0.0611
N2005 X1.4591 Y3.6126 Z-0.0613
N2010 X1.4618 Y3.6166 Z-0.0615
N2015 X1.4643 Y3.6208 Z-0.0616
N2020 X1.4665 Y3.6251 Z-0.0618
N2025 X1.4684 Y3.6296 Z-0.062
N2030 X1.47 Y3.6342 Z-0.0621
N2035 X1.4713 Y3.6389 Z-0.0623
N2040 X1.4723 Y3.6437 Z-0.0625
N2045 X1.473 Y3.6485 Z-0.0627
N2050 X1.4733 Y3.6534 Z-0.0628
N2055 X1.4734 Y3.6582 Z-0.063
N2060 X1.4731 Y3.6631 Z-0.0632
N2065 X1.4726 Y3.6679 Z-0.0633
N2070 X1.4716 Y3.6727 Z-0.0635
N2075 X1.4704 Y3.6774 Z-0.0637
N2080 X1.4689 Y3.682 Z-0.0638
N2085 X1.4671 Y3.6866 Z-0.064
N2090 X1.4649 Y3.691 Z-0.0642
N2095 X1.4626 Y3.6952 Z-0.0644
N2100 X1.4599 Y3.6993 Z-0.0645
N2105 X1.457 Y3.7032 Z-0.0647
N2110 X1.4538 Y3.7069 Z-0.0649
N2115 X1.4504 Y3.7103 Z-0.065
N2120 X1.4467 Y3.7136 Z-0.0652
N2125 X1.4429 Y3.7166 Z-0.0654
N2130 X1.4389 Y3.7193 Z-0.0655
N2135 X1.4347 Y3.7218 Z-0.0657
N2140 X1.4304 Y3.724 Z-0.0659
N2145 X1.4259 Y3.7259 Z-0.0661
N2150 X1.4213 Y3.7275 Z-0.0662
N2155 X1.4166 Y3.7288 Z-0.0664
N2160 X1.4118 Y3.7298 Z-0.0666
N2165 X1.407 Y3.7305 Z-0.0667
N2170 X1.4021 Y3.7309 Z-0.0669
N2175 X1.3973 Z-0.0671
N2180 X1.3924 Y3.7306 Z-0.0672
N2185 X1.3876 Y3.73 Z-0.0674
N2190 X1.3828 Y3.7291 Z-0.0676
N2195 X1.3781 Y3.7279 Z-0.0678
N2200 X1.3735 Y3.7264 Z-0.0679
N2205 X1.3689 Y3.7246 Z-0.0681
N2210 X1.3645 Y3.7225 Z-0.0683
N2215 X1.3603 Y3.7201 Z-0.0684
N2220 X1.3562 Y3.7174 Z-0.0686
N2225 X1.3523 Y3.7145 Z-0.0688
N2230 X1.3487 Y3.7113 Z-0.0689
N2235 X1.3452 Y3.7079 Z-0.0691
N2240 X1.3419 Y3.7042 Z-0.0693
N2245 X1.3389 Y3.7004 Z-0.0695
N2250 X1.3362 Y3.6964 Z-0.0696
N2255 X1.3337 Y3.6922 Z-0.0698
N2260 X1.3315 Y3.6879 Z-0.07
N2265 X1.3296 Y3.6834 Z-0.0701
N2270 X1.328 Y3.6788 Z-0.0703
N2275 X1.3267 Y3.6741 Z-0.0705
N2280 X1.3257 Y3.6693 Z-0.0706
N2285 X1.325 Y3.6645 Z-0.0708
N2290 X1.3246 Y3.6596 Z-0.071
N2295 Y3.6548 Z-0.0712
N2300 X1.3249 Y3.6499 Z-0.0713
N2305 X1.3255 Y3.6451 Z-0.0715
N2310 X1.3264 Y3.6403 Z-0.0717
N2315 X1.3276 Y3.6356 Z-0.0718
N2320 X1.3291 Y3.631 Z-0.072
N2325 X1.3309 Y3.6264 Z-0.0722
N2330 X1.333 Y3.6221 Z-0.0723
N2335 X1.3354 Y3.6178 Z-0.0725
N2340 X1.3381 Y3.6138 Z-0.0727
N2345 X1.341 Y3.6099 Z-0.0729
N2350 X1.3442 Y3.6062 Z-0.073
N2355 X1.3476 Y3.6027 Z-0.0732
N2360 X1.3512 Y3.5994 Z-0.0734
N2365 X1.3551 Y3.5964 Z-0.0735
N2370 X1.3591 Y3.5937 Z-0.0737
N2375 X1.3633 Y3.5912 Z-0.0739
N2380 X1.3676 Y3.589 Z-0.074
N2385 X1.3721 Y3.5871 Z-0.0742
N2390 X1.3767 Y3.5855 Z-0.0744
N2395 X1.3814 Y3.5842 Z-0.0746
N2400 X1.3862 Y3.5832 Z-0.0747
N2405 X1.391 Y3.5825 Z-0.0749
N2410 X1.3958 Y3.5822 Z-0.0751
N2415 X1.4007 Y3.5821 Z-0.0752
N2420 X1.4056 Y3.5824 Z-0.0754
N2425 X1.4104 Y3.583 Z-0.0756
N2430 X1.4152 Y3.5839 Z-0.0757
N2435 X1.4199 Y3.585 Z-0.0759
N2440 X1.4245 Y3.5866 Z-0.0761
N2445 X1.4291 Y3.5884 Z-0.0763
N2450 X1.4334 Y3.5905 Z-0.0764
N2455 X1.4377 Y3.5929 Z-0.0766
N2460 X1.4418 Y3.5956 Z-0.0768
N2465 X1.4457 Y3.5985 Z-0.0769
N2470 X1.4494 Y3.6017 Z-0.0771
N2475 X1.4528 Y3.6051 Z-0.0773
N2480 X1.4561 Y3.6087 Z-0.0774
N2485 X1.4591 Y3.6126 Z-0.0776
N2490 X1.4618 Y3.6166 Z-0.0778
N2495 X1.4643 Y3.6208 Z-0.078
N2500 X1.4665 Y3.6251 Z-0.0781
N2505 X1.4684 Y3.6296 Z-0.0783
N2510 X1.47 Y3.6342 Z-0.0785
N2515 X1.4711 Y3.6379 Z-0.0786
N2520 X1.4719 Y3.6417 Z-0.0787
N2525 X1.472 Y3.6419
N2530 X1.4724 Y3.6443 Z-0.0788
N2535 X1.4728 Y3.6467 Z-0.0789
N2540 X1.4733 Y3.6516 Z-0.0791
N2545 X1.4735 Y3.6564 Z-0.0793
N2550 X1.4733 Y3.6613 Z-0.0794
N2555 X1.4728 Y3.6662 Z-0.0796
N2560 X1.472 Y3.671 Z-0.0798
N2565 X1.4709 Y3.6757 Z-0.0799
N2570 X1.4695 Y3.6804 Z-0.0801
N2575 X1.4678 Y3.6849 Z-0.0803
N2580 X1.4658 Y3.6894 Z-0.0804
N2585 X1.4635 Y3.6937 Z-0.0806
N2590 X1.4609 Y3.6978 Z-0.0808
N2595 X1.4581 Y3.7018 Z-0.081
N2600 X1.455 Y3.7055 Z-0.0811
N2605 X1.4516 Y3.7091 Z-0.0813
N2610 X1.4481 Y3.7124 Z-0.0815
N2615 X1.4444 Y3.7155 Z-0.0816
N2620 X1.4404 Y3.7184 Z-0.0818
N2625 X1.4363 Y3.7209 Z-0.082
N2630 X1.432 Y3.7232 Z-0.0821
N2635 X1.4275 Y3.7252 Z-0.0823
N2640 X1.423 Y3.7269 Z-0.0825
N2645 X1.4183 Y3.7284 Z-0.0826
N2650 X1.4136 Y3.7295 Z-0.0828
N2655 X1.4088 Y3.7303 Z-0.083
N2660 X1.4039 Y3.7308 Z-0.0832
N2665 X1.3991 Y3.7309 Z-0.0833
N2670 X1.3942 Y3.7307 Z-0.0835
N2675 X1.3893 Y3.7303 Z-0.0837
N2680 X1.3845 Y3.7295 Z-0.0838
N2685 X1.3798 Y3.7284 Z-0.084
N2690 X1.3751 Y3.727 Z-0.0842
N2695 X1.3706 Y3.7253 Z-0.0843
N2700 X1.3661 Y3.7233 Z-0.0845
N2705 X1.3618 Y3.721 Z-0.0847
N2710 X1.3577 Y3.7184 Z-0.0849
N2715 X1.3537 Y3.7156 Z-0.085
N2720 X1.35 Y3.7125 Z-0.0852
N2725 X1.3464 Y3.7092 Z-0.0854
N2730 X1.3431 Y3.7056 Z-0.0855
N2735 X1.34 Y3.7018 Z-0.0857
N2740 X1.3372 Y3.6979 Z-0.0859
N2745 X1.3346 Y3.6937 Z-0.086
N2750 X1.3323 Y3.6894 Z-0.0862
N2755 X1.3303 Y3.685 Z-0.0864
N2760 X1.3285 Y3.6805 Z-0.0866
N2765 X1.3271 Y3.6758 Z-0.0867
N2770 X1.326 Y3.6711 Z-0.0869
N2775 X1.3252 Y3.6663 Z-0.0871
N2780 X1.3248 Y3.6614 Z-0.0872
N2785 X1.3246 Y3.6566 Z-0.0874
N2790 X1.3247 Y3.6517 Z-0.0876
N2795 X1.3252 Y3.6468 Z-0.0877
N2800 X1.326 Y3.642 Z-0.0879
N2805 X1.3271 Y3.6373 Z-0.0881
N2810 X1.3285 Y3.6326 Z-0.0883
N2815 X1.3302 Y3.6281 Z-0.0884
N2820 X1.3322 Y3.6237 Z-0.0886
N2825 X1.3345 Y3.6194 Z-0.0888
N2830 X1.3371 Y3.6152 Z-0.0889
N2835 X1.3399 Y3.6112 Z-0.0891
N2840 X1.343 Y3.6075 Z-0.0893
N2845 X1.3463 Y3.6039 Z-0.0894
N2850 X1.3499 Y3.6006 Z-0.0896
N2855 X1.3537 Y3.5975 Z-0.0898
N2860 X1.3576 Y3.5947 Z-0.09
N2865 X1.3617 Y3.5921 Z-0.0901
N2870 X1.366 Y3.5898 Z-0.0903
N2875 X1.3705 Y3.5877 Z-0.0905
N2880 X1.375 Y3.586 Z-0.0906
N2885 X1.3797 Y3.5846 Z-0.0908
N2890 X1.3844 Y3.5835 Z-0.091
N2895 X1.3892 Y3.5827 Z-0.0911
N2900 X1.3941 Y3.5823 Z-0.0913
N2905 X1.3989 Y3.5821 Z-0.0915
N2910 X1.4038 Y3.5822 Z-0.0917
N2915 X1.4087 Y3.5827 Z-0.0918
N2920 X1.4135 Y3.5835 Z-0.092
N2925 X1.4182 Y3.5846 Z-0.0922
N2930 X1.4229 Y3.586 Z-0.0923
N2935 X1.4274 Y3.5877 Z-0.0925
N2940 X1.4319 Y3.5897 Z-0.0927
N2945 X1.4362 Y3.592 Z-0.0928
N2950 X1.4403 Y3.5946 Z-0.093
N2955 X1.4443 Y3.5974 Z-0.0932
N2960 X1.448 Y3.6005 Z-0.0934
N2965 X1.4516 Y3.6038 Z-0.0935
N2970 X1.4549 Y3.6074 Z-0.0937
N2975 X1.458 Y3.6112 Z-0.0939
N2980 X1.4608 Y3.6151 Z-0.094
N2985 X1.4634 Y3.6192 Z-0.0942
N2990 X1.4657 Y3.6235 Z-0.0944
N2995 X1.4677 Y3.628 Z-0.0945
N3000 X1.4694 Y3.6325 Z-0.0947
N3005 X1.4709 Y3.6372 Z-0.0949
N3010 X1.472 Y3.6419 Z-0.0951
N3015 X1.4728 Y3.6467 Z-0.0952
N3020 X1.4733 Y3.6516 Z-0.0954
N3025 X1.4735 Y3.6564 Z-0.0956
N3030 X1.4733 Y3.6613 Z-0.0957
N3035 X1.4728 Y3.6662 Z-0.0959
N3040 X1.472 Y3.671 Z-0.0961
N3045 X1.4709 Y3.6757 Z-0.0962
N3050 X1.4695 Y3.6804 Z-0.0964
N3055 X1.4678 Y3.6849 Z-0.0966
N3060 X1.4658 Y3.6894 Z-0.0968
N3065 X1.4635 Y3.6937 Z-0.0969
N3070 X1.4609 Y3.6978 Z-0.0971
N3075 X1.4581 Y3.7018 Z-0.0973
N3080 X1.455 Y3.7055 Z-0.0974
N3085 X1.4516 Y3.7091 Z-0.0976
N3090 X1.4481 Y3.7124 Z-0.0978
N3095 X1.4444 Y3.7155 Z-0.0979
N3100 X1.4404 Y3.7184 Z-0.0981
N3105 X1.4363 Y3.7209 Z-0.0983
N3110 X1.432 Y3.7232 Z-0.0985
N3115 X1.4275 Y3.7252 Z-0.0986
N3120 X1.423 Y3.7269 Z-0.0988
N3125 X1.4183 Y3.7284 Z-0.099
N3130 X1.4136 Y3.7295 Z-0.0991
N3135 X1.4088 Y3.7303 Z-0.0993
N3140 X1.4039 Y3.7308 Z-0.0995
N3145 X1.3991 Y3.7309 Z-0.0996
N3150 X1.3942 Y3.7307 Z-0.0998
N3155 X1.3893 Y3.7303 Z-0.1
N3160 X1.3845 Y3.7295 Z-0.1002
N3165 X1.3798 Y3.7284 Z-0.1003
N3170 X1.3751 Y3.727 Z-0.1005
N3175 X1.3706 Y3.7253 Z-0.1007
N3180 X1.3661 Y3.7233 Z-0.1008
N3185 X1.3618 Y3.721 Z-0.101
N3190 X1.3577 Y3.7184 Z-0.1012
N3195 X1.3537 Y3.7156 Z-0.1013
N3200 X1.35 Y3.7125 Z-0.1015
N3205 X1.3464 Y3.7092 Z-0.1017
N3210 X1.3431 Y3.7056 Z-0.1019
N3215 X1.34 Y3.7018 Z-0.102
N3220 X1.3372 Y3.6979 Z-0.1022
N3225 X1.3346 Y3.6937 Z-0.1024
N3230 X1.3323 Y3.6894 Z-0.1025
N3235 X1.3303 Y3.685 Z-0.1027
N3240 X1.3285 Y3.6805 Z-0.1029
N3245 X1.3271 Y3.6758 Z-0.103
N3250 X1.326 Y3.6711 Z-0.1032
N3255 X1.3252 Y3.6663 Z-0.1034
N3260 X1.3248 Y3.6614 Z-0.1036
N3265 X1.3246 Y3.6566 Z-0.1037
N3270 X1.3247 Y3.6517 Z-0.1039
N3275 X1.3252 Y3.6468 Z-0.1041
N3280 X1.326 Y3.642 Z-0.1042
N3285 X1.3271 Y3.6373 Z-0.1044
N3290 X1.3285 Y3.6326 Z-0.1046
N3295 X1.3302 Y3.6281 Z-0.1047
N3300 X1.3322 Y3.6237 Z-0.1049
N3305 X1.3345 Y3.6194 Z-0.1051
N3310 X1.3371 Y3.6152 Z-0.1053
N3315 X1.3399 Y3.6112 Z-0.1054
N3320 X1.343 Y3.6075 Z-0.1056
N3325 X1.3463 Y3.6039 Z-0.1058
N3330 X1.3499 Y3.6006 Z-0.1059
N3335 X1.3537 Y3.5975 Z-0.1061
N3340 X1.3576 Y3.5947 Z-0.1063
N3345 X1.3617 Y3.5921 Z-0.1064
N3350 X1.366 Y3.5898 Z-0.1066
N3355 X1.3705 Y3.5877 Z-0.1068
N3360 X1.375 Y3.586 Z-0.107
N3365 X1.3797 Y3.5846 Z-0.1071
N3370 X1.3844 Y3.5835 Z-0.1073
N3375 X1.3892 Y3.5827 Z-0.1075
N3380 X1.3941 Y3.5823 Z-0.1076
N3385 X1.3989 Y3.5821 Z-0.1078
N3390 X1.4038 Y3.5822 Z-0.108
N3395 X1.4087 Y3.5827 Z-0.1081
N3400 X1.4135 Y3.5835 Z-0.1083
N3405 X1.4182 Y3.5846 Z-0.1085
N3410 X1.4229 Y3.586 Z-0.1087
N3415 X1.4274 Y3.5877 Z-0.1088
N3420 X1.4319 Y3.5897 Z-0.109
N3425 X1.4362 Y3.592 Z-0.1092
N3430 X1.4403 Y3.5946 Z-0.1093
N3435 X1.4443 Y3.5974 Z-0.1095
N3440 X1.448 Y3.6005 Z-0.1097
N3445 X1.4516 Y3.6038 Z-0.1098
N3450 X1.4549 Y3.6074 Z-0.11
N3455 X1.458 Y3.6112 Z-0.1102
N3460 X1.4608 Y3.6151 Z-0.1104
N3465 X1.4634 Y3.6192 Z-0.1105
N3470 X1.4657 Y3.6235 Z-0.1107
N3475 X1.4677 Y3.628 Z-0.1109
N3480 X1.4694 Y3.6325 Z-0.111
N3485 X1.4709 Y3.6372 Z-0.1112
N3490 X1.472 Y3.6419 Z-0.1114
N3495 X1.4728 Y3.6467 Z-0.1115
N3500 X1.4733 Y3.6516 Z-0.1117
N3505 X1.4735 Y3.6564 Z-0.1119
N3510 X1.4733 Y3.6613 Z-0.1121
N3515 X1.4728 Y3.6662 Z-0.1122
N3520 X1.472 Y3.671 Z-0.1124
N3525 X1.4709 Y3.6757 Z-0.1126
N3530 X1.4695 Y3.6804 Z-0.1127
N3535 X1.4678 Y3.6849 Z-0.1129
N3540 X1.4658 Y3.6894 Z-0.1131
N3545 X1.4635 Y3.6937 Z-0.1132
N3550 X1.4609 Y3.6978 Z-0.1134
N3555 X1.4581 Y3.7018 Z-0.1136
N3560 X1.455 Y3.7055 Z-0.1138
N3565 X1.4516 Y3.7091 Z-0.1139
N3570 X1.4481 Y3.7124 Z-0.1141
N3575 X1.4444 Y3.7155 Z-0.1143
N3580 X1.4404 Y3.7184 Z-0.1144
N3585 X1.4363 Y3.7209 Z-0.1146
N3590 X1.432 Y3.7232 Z-0.1148
N3595 X1.4275 Y3.7252 Z-0.1149
N3600 X1.423 Y3.7269 Z-0.1151
N3605 X1.4183 Y3.7284 Z-0.1153
N3610 X1.4136 Y3.7295 Z-0.1155
N3615 X1.4088 Y3.7303 Z-0.1156
N3620 X1.4039 Y3.7308 Z-0.1158
N3625 X1.3991 Y3.7309 Z-0.116
N3630 X1.3942 Y3.7307 Z-0.1161
N3635 X1.3893 Y3.7303 Z-0.1163
N3640 X1.3845 Y3.7295 Z-0.1165
N3645 X1.3798 Y3.7284 Z-0.1166
N3650 X1.3751 Y3.727 Z-0.1168
N3655 X1.3706 Y3.7253 Z-0.117
N3660 X1.3661 Y3.7233 Z-0.1172
N3665 X1.3618 Y3.721 Z-0.1173
N3670 X1.3577 Y3.7184 Z-0.1175
N3675 X1.3537 Y3.7156 Z-0.1177
N3680 X1.35 Y3.7125 Z-0.1178
N3685 X1.3471 Y3.7099 Z-0.118
N3690 X1.3444 Y3.707 Z-0.1181
N3695 X1.3443 Y3.7069
N3700 X1.3434 Y3.706 Z-0.1182
N3705 X1.3426 Y3.7051
N3710 X1.3411 Y3.7032 Z-0.1183
N3715 X1.3381 Y3.6993 Z-0.1185
N3720 X1.3355 Y3.6952 Z-0.1186
N3725 X1.3331 Y3.691 Z-0.1188
N3730 X1.3309 Y3.6866 Z-0.119
N3735 X1.3291 Y3.6821 Z-0.1191
N3740 X1.3276 Y3.6775 Z-0.1193
N3745 X1.3264 Y3.6728 Z-0.1195
N3750 X1.3255 Y3.668 Z-0.1196
N3755 X1.3249 Y3.6632 Z-0.1198
N3760 X1.3246 Y3.6583 Z-0.12
N3765 Y3.6534 Z-0.1201
N3770 X1.325 Y3.6486 Z-0.1203
N3775 X1.3257 Y3.6438 Z-0.1205
N3780 X1.3267 Y3.639 Z-0.1207
N3785 X1.328 Y3.6343 Z-0.1208
N3790 X1.3296 Y3.6297 Z-0.121
N3795 X1.3315 Y3.6252 Z-0.1212
N3800 X1.3336 Y3.6209 Z-0.1213
N3805 X1.3361 Y3.6167 Z-0.1215
N3810 X1.3389 Y3.6126 Z-0.1217
N3815 X1.3419 Y3.6088 Z-0.1218
N3820 X1.3451 Y3.6052 Z-0.122
N3825 X1.3486 Y3.6018 Z-0.1222
N3830 X1.3523 Y3.5986 Z-0.1224
N3835 X1.3562 Y3.5956 Z-0.1225
N3840 X1.3602 Y3.5929 Z-0.1227
N3845 X1.3645 Y3.5906 Z-0.1229
N3850 X1.3689 Y3.5885 Z-0.123
N3855 X1.3734 Y3.5866 Z-0.1232
N3860 X1.378 Y3.5851 Z-0.1234
N3865 X1.3827 Y3.5839 Z-0.1235
N3870 X1.3875 Y3.583 Z-0.1237
N3875 X1.3923 Y3.5824 Z-0.1239
N3880 X1.3972 Y3.5821 Z-0.1241
N3885 X1.4021 Z-0.1242
N3890 X1.4069 Y3.5825 Z-0.1244
N3895 X1.4117 Y3.5832 Z-0.1246
N3900 X1.4165 Y3.5842 Z-0.1247
N3905 X1.4212 Y3.5855 Z-0.1249
N3910 X1.4258 Y3.5871 Z-0.1251
N3915 X1.4303 Y3.5889 Z-0.1252
N3920 X1.4346 Y3.5912 Z-0.1254
N3925 X1.4388 Y3.5936 Z-0.1256
N3930 X1.4428 Y3.5964 Z-0.1258
N3935 X1.4467 Y3.5994 Z-0.1259
N3940 X1.4503 Y3.6026 Z-0.1261
N3945 X1.4537 Y3.6061 Z-0.1263
N3950 X1.4569 Y3.6098 Z-0.1264
N3955 X1.4599 Y3.6137 Z-0.1266
N3960 X1.4625 Y3.6177 Z-0.1268
N3965 X1.4649 Y3.622 Z-0.1269
N3970 X1.467 Y3.6264 Z-0.1271
N3975 X1.4689 Y3.6309 Z-0.1273
N3980 X1.4704 Y3.6355 Z-0.1275
N3985 X1.4716 Y3.6402 Z-0.1276
N3990 X1.4726 Y3.645 Z-0.1278
N3995 X1.4731 Y3.6498 Z-0.128
N4000 X1.4734 Y3.6547 Z-0.1281
N4005 X1.4733 Y3.6596 Z-0.1283
N4010 X1.473 Y3.6644 Z-0.1285
N4015 X1.4723 Y3.6692 Z-0.1286
N4020 X1.4713 Y3.674 Z-0.1288
N4025 X1.4701 Y3.6787 Z-0.129
N4030 X1.4684 Y3.6833 Z-0.1292
N4035 X1.4665 Y3.6878 Z-0.1293
N4040 X1.4643 Y3.6921 Z-0.1295
N4045 X1.4618 Y3.6963 Z-0.1297
N4050 X1.4591 Y3.7004 Z-0.1298
N4055 X1.4561 Y3.7042 Z-0.13
N4060 X1.4529 Y3.7079 Z-0.1302
N4065 X1.4494 Y3.7113 Z-0.1303
N4070 X1.4457 Y3.7144 Z-0.1305
N4075 X1.4418 Y3.7174 Z-0.1307
N4080 X1.4377 Y3.72 Z-0.1309
N4085 X1.4335 Y3.7224 Z-0.131
N4090 X1.4291 Y3.7245 Z-0.1312
N4095 X1.4246 Y3.7264 Z-0.1314
N4100 X1.42 Y3.7279 Z-0.1315
N4105 X1.4153 Y3.7291 Z-0.1317
N4110 X1.4105 Y3.73 Z-0.1319
N4115 X1.4057 Y3.7306 Z-0.132
N4120 X1.4008 Y3.7309 Z-0.1322
N4125 X1.3959 Y3.7308 Z-0.1324
N4130 X1.3911 Y3.7305 Z-0.1326
N4135 X1.3862 Y3.7298 Z-0.1327
N4140 X1.3815 Y3.7288 Z-0.1329
N4145 X1.3768 Y3.7275 Z-0.1331
N4150 X1.3722 Y3.7259 Z-0.1332
N4155 X1.3677 Y3.724 Z-0.1334
N4160 X1.3634 Y3.7218 Z-0.1336
N4165 X1.3592 Y3.7194 Z-0.1337
N4170 X1.3551 Y3.7166 Z-0.1339
N4175 X1.3513 Y3.7136 Z-0.1341
N4180 X1.3477 Y3.7104 Z-0.1343
N4185 X1.3443 Y3.7069 Z-0.1344
N4190 X1.3411 Y3.7032 Z-0.1346
N4195 X1.3381 Y3.6993 Z-0.1348
N4200 X1.3355 Y3.6952 Z-0.1349
N4205 X1.3331 Y3.691 Z-0.1351
N4210 X1.3309 Y3.6866 Z-0.1353
N4215 X1.3291 Y3.6821 Z-0.1354
N4220 X1.3276 Y3.6775 Z-0.1356
N4225 X1.3264 Y3.6728 Z-0.1358
N4230 X1.3255 Y3.668 Z-0.136
N4235 X1.3249 Y3.6632 Z-0.1361
N4240 X1.3246 Y3.6583 Z-0.1363
N4245 Y3.6534 Z-0.1365
N4250 X1.325 Y3.6486 Z-0.1366
N4255 X1.3257 Y3.6438 Z-0.1368
N4260 X1.3267 Y3.639 Z-0.137
N4265 X1.328 Y3.6343 Z-0.1371
N4270 X1.3296 Y3.6297 Z-0.1373
N4275 X1.3315 Y3.6252 Z-0.1375
N4280 X1.3336 Y3.6209 Z-0.1377
N4285 X1.3361 Y3.6167 Z-0.1378
N4290 X1.3389 Y3.6126 Z-0.138
N4295 X1.3419 Y3.6088 Z-0.1382
N4300 X1.3451 Y3.6052 Z-0.1383
N4305 X1.3486 Y3.6018 Z-0.1385
N4310 X1.3523 Y3.5986 Z-0.1387
N4315 X1.3562 Y3.5956 Z-0.1388
N4320 X1.3602 Y3.5929 Z-0.139
N4325 X1.3645 Y3.5906 Z-0.1392
N4330 X1.3689 Y3.5885 Z-0.1394
N4335 X1.3734 Y3.5866 Z-0.1395
N4340 X1.378 Y3.5851 Z-0.1397
N4345 X1.3827 Y3.5839 Z-0.1399
N4350 X1.3875 Y3.583 Z-0.14
N4355 X1.3923 Y3.5824 Z-0.1402
N4360 X1.3972 Y3.5821 Z-0.1404
N4365 X1.4021 Z-0.1405
N4370 X1.4069 Y3.5825 Z-0.1407
N4375 X1.4117 Y3.5832 Z-0.1409
N4380 X1.4165 Y3.5842 Z-0.1411
N4385 X1.4212 Y3.5855 Z-0.1412
N4390 X1.4258 Y3.5871 Z-0.1414
N4395 X1.4303 Y3.5889 Z-0.1416
N4400 X1.4346 Y3.5912 Z-0.1417
N4405 X1.4388 Y3.5936 Z-0.1419
N4410 X1.4428 Y3.5964 Z-0.1421
N4415 X1.4467 Y3.5994 Z-0.1422
N4420 X1.4503 Y3.6026 Z-0.1424
N4425 X1.4537 Y3.6061 Z-0.1426
N4430 X1.4569 Y3.6098 Z-0.1428
N4435 X1.4599 Y3.6137 Z-0.1429
N4440 X1.4625 Y3.6177 Z-0.1431
N4445 X1.4649 Y3.622 Z-0.1433
N4450 X1.467 Y3.6264 Z-0.1434
N4455 X1.4689 Y3.6309 Z-0.1436
N4460 X1.4704 Y3.6355 Z-0.1438
N4465 X1.4716 Y3.6402 Z-0.1439
N4470 X1.4726 Y3.645 Z-0.1441
N4475 X1.4731 Y3.6498 Z-0.1443
N4480 X1.4734 Y3.6547 Z-0.1445
N4485 X1.4733 Y3.6596 Z-0.1446
N4490 X1.473 Y3.6644 Z-0.1448
N4495 X1.4723 Y3.6692 Z-0.145
N4500 X1.4713 Y3.674 Z-0.1451
N4505 X1.4701 Y3.6787 Z-0.1453
N4510 X1.4684 Y3.6833 Z-0.1455
N4515 X1.4665 Y3.6878 Z-0.1456
N4520 X1.4643 Y3.6921 Z-0.1458
N4525 X1.4618 Y3.6963 Z-0.146
N4530 X1.4591 Y3.7004 Z-0.1462
N4535 X1.4561 Y3.7042 Z-0.1463
N4540 X1.4529 Y3.7079 Z-0.1465
N4545 X1.4494 Y3.7113 Z-0.1467
N4550 X1.4457 Y3.7144 Z-0.1468
N4555 X1.4418 Y3.7174 Z-0.147
N4560 X1.4377 Y3.72 Z-0.1472
N4565 X1.4335 Y3.7224 Z-0.1473
N4570 X1.4291 Y3.7245 Z-0.1475
N4575 X1.4246 Y3.7264 Z-0.1477
N4580 X1.42 Y3.7279 Z-0.1479
N4585 X1.4153 Y3.7291 Z-0.148
N4590 X1.4105 Y3.73 Z-0.1482
N4595 X1.4057 Y3.7306 Z-0.1484
N4600 X1.4008 Y3.7309 Z-0.1485
N4605 X1.3959 Y3.7308 Z-0.1487
N4610 X1.3911 Y3.7305 Z-0.1489
N4615 X1.3862 Y3.7298 Z-0.149
N4620 X1.3815 Y3.7288 Z-0.1492
N4625 X1.3768 Y3.7275 Z-0.1494
N4630 X1.3722 Y3.7259 Z-0.1496
N4635 X1.3677 Y3.724 Z-0.1497
N4640 X1.3634 Y3.7218 Z-0.1499
N4645 X1.3592 Y3.7194 Z-0.1501
N4650 X1.3551 Y3.7166 Z-0.1502
N4655 X1.3513 Y3.7136 Z-0.1504
N4660 X1.3477 Y3.7104 Z-0.1506
N4665 X1.3443 Y3.7069 Z-0.1507
N4670 X1.3411 Y3.7032 Z-0.1509
N4675 X1.3381 Y3.6993 Z-0.1511
N4680 X1.3355 Y3.6952 Z-0.1513
N4685 X1.3331 Y3.691 Z-0.1514
N4690 X1.3309 Y3.6866 Z-0.1516
N4695 X1.3291 Y3.6821 Z-0.1518
N4700 X1.3276 Y3.6775 Z-0.1519
N4705 X1.3264 Y3.6728 Z-0.1521
N4710 X1.3255 Y3.668 Z-0.1523
N4715 X1.3249 Y3.6632 Z-0.1524
N4720 X1.3246 Y3.6583 Z-0.1526
N4725 Y3.6534 Z-0.1528
N4730 X1.325 Y3.6486 Z-0.153
N4735 X1.3257 Y3.6438 Z-0.1531
N4740 X1.3267 Y3.639 Z-0.1533
N4745 X1.328 Y3.6343 Z-0.1535
N4750 X1.3296 Y3.6297 Z-0.1536
N4755 X1.3315 Y3.6252 Z-0.1538
N4760 X1.3336 Y3.6209 Z-0.154
N4765 X1.3361 Y3.6167 Z-0.1541
N4770 X1.3389 Y3.6126 Z-0.1543
N4775 X1.3419 Y3.6088 Z-0.1545
N4780 X1.3451 Y3.6052 Z-0.1547
N4785 X1.3486 Y3.6018 Z-0.1548
N4790 X1.3523 Y3.5986 Z-0.155
N4795 X1.3562 Y3.5956 Z-0.1552
N4800 X1.3602 Y3.5929 Z-0.1553
N4805 X1.3645 Y3.5906 Z-0.1555
N4810 X1.3689 Y3.5885 Z-0.1557
N4815 X1.3734 Y3.5866 Z-0.1558
N4820 X1.378 Y3.5851 Z-0.156
N4825 X1.3827 Y3.5839 Z-0.1562
N4830 X1.3875 Y3.583 Z-0.1564
N4835 X1.3923 Y3.5824 Z-0.1565
N4840 X1.3972 Y3.5821 Z-0.1567
N4845 X1.4021 Z-0.1569
N4850 X1.4069 Y3.5825 Z-0.157
N4855 X1.4117 Y3.5832 Z-0.1572
N4860 X1.4156 Y3.5839 Z-0.1573
N4865 X1.4194 Y3.5849 Z-0.1575
N4870 X1.4195
N4875 Y3.585
N4880 Y3.5849
N4885 X1.4199 Y3.585
N4890 X1.4207 Y3.5853
N4895 X1.4243 Y3.5865 Z-0.1577
N4900 X1.4289 Y3.5883 Z-0.1578
N4905 X1.4334 Y3.5905 Z-0.158
N4910 X1.4377 Y3.5929 Z-0.1582
N4915 X1.4418 Y3.5957 Z-0.1583
N4920 X1.4458 Y3.5987 Z-0.1585
N4925 X1.4496 Y3.6019 Z-0.1587
N4930 X1.4532 Y3.6054 Z-0.1589
N4935 X1.4564 Y3.6091 Z-0.159
N4940 X1.4594 Y3.6131 Z-0.1592
N4945 X1.4622 Y3.6172 Z-0.1594
N4950 X1.4647 Y3.6215 Z-0.1596
N4955 X1.4669 Y3.626 Z-0.1597
N4960 X1.4687 Y3.6306 Z-0.1599
N4965 X1.4703 Y3.6353 Z-0.1601
N4970 X1.4716 Y3.6401 Z-0.1603
N4975 X1.4726 Y3.645 Z-0.1604
N4980 X1.4731 Y3.6499 Z-0.1606
N4985 X1.4734 Y3.6549 Z-0.1608
N4990 X1.4733 Y3.6599 Z-0.161
N4995 X1.4729 Y3.6648 Z-0.1611
N5000 X1.4722 Y3.6697 Z-0.1613
N5005 X1.4712 Y3.6746 Z-0.1615
N5010 X1.4698 Y3.6794 Z-0.1616
N5015 X1.4681 Y3.6841 Z-0.1618
N5020 X1.4661 Y3.6887 Z-0.162
N5025 X1.4638 Y3.6931 Z-0.1622
N5030 X1.4612 Y3.6973 Z-0.1623
N5035 X1.4583 Y3.7014 Z-0.1625
N5040 X1.4552 Y3.7052 Z-0.1627
N5045 X1.4518 Y3.7089 Z-0.1629
N5050 X1.4482 Y3.7123 Z-0.163
N5055 X1.4463 Y3.7139 Z-0.1631
N5060 X1.4444 Y3.7154 Z-0.1632
N5065 X1.4403 Y3.7183 Z-0.1634
N5070 X1.4382 Y3.7197 Z-0.1635
N5075 X1.4361 Y3.721 Z-0.1636
N5080 X1.4317 Y3.7233 Z-0.1637
N5085 X1.4295 Y3.7243 Z-0.1638
N5090 X1.4272 Y3.7253 Z-0.1639
N5095 X1.4225 Y3.7271 Z-0.1641
N5100 X1.4202 Y3.7278 Z-0.1642
N5105 X1.4178 Y3.7285
N5110 X1.4129 Y3.7296 Z-0.1644
N5115 X1.4105 Y3.73 Z-0.1645
N5120 X1.408 Y3.7303 Z-0.1646
N5125 X1.4031 Y3.7307 Z-0.1648
N5130 X1.4006 Y3.7308
N5135 X1.3981 Z-0.1649
N5140 X1.3931 Y3.7306 Z-0.1651
N5145 X1.3906 Y3.7304 Z-0.1652
N5150 X1.3882 Y3.73 Z-0.1653
N5155 X1.3833 Y3.7292 Z-0.1655
N5160 X1.3809 Y3.7286
N5165 X1.3785 Y3.7279 Z-0.1656
N5170 X1.3738 Y3.7264 Z-0.1658
N5175 X1.3715 Y3.7255 Z-0.1659
N5180 X1.3692 Y3.7246 Z-0.166
N5185 X1.3647 Y3.7224 Z-0.1661
N5190 X1.3625 Y3.7212 Z-0.1662
N5195 X1.3603 Y3.72 Z-0.1663
N5200 X1.3562 Y3.7172 Z-0.1665
N5205 X1.3542 Y3.7158 Z-0.1666
N5210 X1.3522 Y3.7143 Z-0.1667
N5215 X1.3485 Y3.711 Z-0.1668
N5220 X1.3467 Y3.7093 Z-0.1669
N5225 X1.345 Y3.7075 Z-0.167
N5230 X1.3417 Y3.7038 Z-0.1672
N5235 X1.3401 Y3.7018 Z-0.1673
N5240 X1.3386 Y3.6998 Z-0.1674
N5245 X1.3359 Y3.6957 Z-0.1675
N5250 X1.3346 Y3.6936 Z-0.1676
N5255 X1.3334 Y3.6914 Z-0.1677
N5260 X1.3312 Y3.6869 Z-0.1679
N5265 X1.3303 Y3.6847 Z-0.168
N5270 X1.3294 Y3.6823 Z-0.1681
N5275 X1.3278 Y3.6776 Z-0.1682
N5280 X1.3271 Y3.6753 Z-0.1683
N5285 X1.3265 Y3.6728 Z-0.1684
N5290 X1.3256 Y3.668 Z-0.1686
N5295 X1.3253 Y3.6655 Z-0.1687
N5300 X1.325 Y3.663
N5305 X1.3248 Y3.6581 Z-0.1689
N5310 Y3.6556 Z-0.169
N5315 Y3.6531 Z-0.1691
N5320 X1.3252 Y3.6482 Z-0.1693
N5325 X1.3255 Y3.6457
N5330 X1.3259 Y3.6433 Z-0.1694
N5335 X1.327 Y3.6384 Z-0.1696
N5340 X1.3284 Y3.6336 Z-0.1698
N5345 X1.3292 Y3.6313 Z-0.1699
N5350 X1.3301 Y3.629 Z-0.17
N5355 X1.332 Y3.6244 Z-0.1701
N5360 X1.3332 Y3.6222 Z-0.1702
N5365 X1.3344 Y3.62 Z-0.1703
N5370 X1.3369 Y3.6158 Z-0.1705
N5375 X1.3383 Y3.6137 Z-0.1706
N5380 X1.3398 Y3.6117
N5385 X1.3429 Y3.6079 Z-0.1708
N5390 X1.3446 Y3.6061 Z-0.1709
N5395 X1.3463 Y3.6043 Z-0.171
N5400 X1.3499 Y3.6009 Z-0.1712
N5405 X1.3518 Y3.5993
N5410 X1.3537 Y3.5977 Z-0.1713
N5415 X1.3577 Y3.5948 Z-0.1715
N5420 X1.3598 Y3.5935 Z-0.1716
N5425 X1.362 Y3.5922 Z-0.1717
N5430 X1.3664 Y3.5899 Z-0.1719
N5435 X1.3686 Y3.5889
N5440 X1.3709 Y3.5879 Z-0.172
N5445 X1.3755 Y3.5862 Z-0.1722
N5450 X1.3779 Y3.5854 Z-0.1723
N5455 X1.3803 Y3.5848 Z-0.1724
N5460 X1.3851 Y3.5837 Z-0.1725
N5465 X1.3875 Y3.5833 Z-0.1726
N5470 X1.39 Y3.5829 Z-0.1727
N5475 X1.3949 Y3.5825 Z-0.1729
N5480 X1.3974 Y3.5824 Z-0.173
N5485 X1.3999 Z-0.1731
N5490 X1.4048 Y3.5826 Z-0.1732
N5495 X1.4073 Y3.5829 Z-0.1733
N5500 X1.4098 Y3.5832 Z-0.1734
N5505 X1.4146 Y3.5841 Z-0.1736
N5510 X1.417 Y3.5846 Z-0.1737
N5515 X1.4194 Y3.5853
N5520 X1.4241 Y3.5868 Z-0.1739
N5525 X1.4265 Y3.5877 Z-0.174
N5530 X1.4287 Y3.5887 Z-0.1741
N5535 X1.4332 Y3.5908 Z-0.1743
N5540 X1.4354 Y3.592 Z-0.1744
N5545 X1.4375 Y3.5932
N5550 X1.4416 Y3.596 Z-0.1746
N5555 X1.4436 Y3.5974 Z-0.1747
N5560 X1.4456 Y3.5989 Z-0.1748
N5565 X1.4493 Y3.6022 Z-0.175
N5570 X1.4511 Y3.6039
N5575 X1.4528 Y3.6057 Z-0.1751
N5580 X1.4561 Y3.6094 Z-0.1753
N5585 X1.4576 Y3.6113 Z-0.1754
N5590 X1.4591 Y3.6133 Z-0.1755
N5595 X1.4619 Y3.6174 Z-0.1756
N5600 X1.4631 Y3.6196 Z-0.1757
N5605 X1.4643 Y3.6217 Z-0.1758
N5610 X1.4665 Y3.6262 Z-0.176
N5615 X1.4675 Y3.6284 Z-0.1761
N5620 X1.4684 Y3.6307 Z-0.1762
N5625 X1.4699 Y3.6354 Z-0.1763
N5630 X1.4706 Y3.6378 Z-0.1764
N5635 X1.4712 Y3.6402 Z-0.1765
N5640 X1.4721 Y3.6451 Z-0.1767
N5645 X1.4724 Y3.6475 Z-0.1768
N5650 X1.4727 Y3.65 Z-0.1769
N5655 X1.473 Y3.6549 Z-0.177
N5660 X1.4729 Y3.6599 Z-0.1772
N5665 X1.4724 Y3.6648 Z-0.1774
N5670 X1.4717 Y3.6696 Z-0.1775
N5675 X1.4707 Y3.6745 Z-0.1777
N5680 X1.4693 Y3.6792 Z-0.1779
N5685 X1.4676 Y3.6839 Z-0.1781
N5690 X1.4656 Y3.6884 Z-0.1782
N5695 X1.4633 Y3.6928 Z-0.1784
N5700 X1.4608 Y3.697 Z-0.1786
N5705 X1.4594 Y3.6991 Z-0.1787
N5710 X1.4579 Y3.7011
N5715 X1.4548 Y3.7049 Z-0.1789
N5720 X1.4532 Y3.7067 Z-0.179
N5725 X1.4515 Y3.7085 Z-0.1791
N5730 X1.4479 Y3.7119 Z-0.1793
N5735 X1.446 Y3.7135
N5740 X1.4441 Y3.715 Z-0.1794
N5745 X1.4401 Y3.7179 Z-0.1796
N5750 X1.438 Y3.7192 Z-0.1797
N5755 X1.4358 Y3.7205 Z-0.1798
N5760 X1.4315 Y3.7228 Z-0.18
N5765 X1.4293 Y3.7238
N5770 X1.427 Y3.7248 Z-0.1801
N5775 X1.4224 Y3.7265 Z-0.1803
N5780 X1.42 Y3.7273 Z-0.1804
N5785 X1.4176 Y3.7279 Z-0.1805
N5790 X1.4128 Y3.729 Z-0.1806
N5795 X1.4104 Y3.7294 Z-0.1807
N5800 X1.4079 Y3.7298 Z-0.1808
N5805 X1.403 Y3.7302 Z-0.181
N5810 X1.4006 Y3.7303 Z-0.1811
N5815 X1.3981 Z-0.1812
N5820 X1.3932 Y3.7301 Z-0.1813
N5825 X1.3907 Y3.7298 Z-0.1814
N5830 X1.3883 Y3.7295 Z-0.1815
N5835 X1.3834 Y3.7286 Z-0.1817
N5840 X1.381 Y3.728 Z-0.1818
N5845 X1.3786 Y3.7274
N5850 X1.374 Y3.7259 Z-0.182
N5855 X1.3717 Y3.725 Z-0.1821
N5860 X1.3694 Y3.724 Z-0.1822
N5865 X1.3649 Y3.7219 Z-0.1824
N5870 X1.3628 Y3.7207
N5875 X1.3606 Y3.7195 Z-0.1825
N5880 X1.3565 Y3.7168 Z-0.1827
N5885 X1.3545 Y3.7153 Z-0.1828
N5890 X1.3526 Y3.7138 Z-0.1829
N5895 X1.3489 Y3.7106 Z-0.183
N5900 X1.3471 Y3.7089 Z-0.1831
N5905 X1.3454 Y3.7071 Z-0.1832
N5910 X1.3421 Y3.7034 Z-0.1834
N5915 X1.3406 Y3.7015 Z-0.1835
N5920 X1.3391 Y3.6995 Z-0.1836
N5925 X1.3364 Y3.6954 Z-0.1837
N5930 X1.3351 Y3.6933 Z-0.1838
N5935 X1.3339 Y3.6911 Z-0.1839
N5940 X1.3318 Y3.6867 Z-0.1841
N5945 X1.3308 Y3.6844 Z-0.1842
N5950 X1.3299 Y3.6821
N5955 X1.3284 Y3.6775 Z-0.1844
N5960 X1.3277 Y3.6751 Z-0.1845
N5965 X1.3271 Y3.6727 Z-0.1846
N5970 X1.3262 Y3.6679 Z-0.1848
N5975 X1.3259 Y3.6654
N5980 X1.3256 Y3.663 Z-0.1849
N5985 X1.3254 Y3.6581 Z-0.1851
N5990 Y3.6556 Z-0.1852
N5995 Y3.6531 Z-0.1853
N6000 X1.3258 Y3.6482 Z-0.1854
N6005 X1.3262 Y3.6458 Z-0.1855
N6010 X1.3266 Y3.6434 Z-0.1856
N6015 X1.3276 Y3.6386 Z-0.1858
N6020 X1.329 Y3.6338 Z-0.186
N6025 X1.3298 Y3.6315 Z-0.1861
N6030 X1.3307 Y3.6292
N6035 X1.3326 Y3.6247 Z-0.1863
N6040 X1.3337 Y3.6225 Z-0.1864
N6045 X1.3349 Y3.6204 Z-0.1865
N6050 X1.3375 Y3.6162 Z-0.1867
N6055 X1.3389 Y3.6141
N6060 X1.3403 Y3.6121 Z-0.1868
N6065 X1.3434 Y3.6083 Z-0.187
N6070 X1.3451 Y3.6065 Z-0.1871
N6075 X1.3468 Y3.6047 Z-0.1872
N6080 X1.3503 Y3.6014 Z-0.1873
N6085 X1.3522 Y3.5998 Z-0.1874
N6090 X1.3541 Y3.5982 Z-0.1875
N6095 X1.3581 Y3.5954 Z-0.1877
N6100 X1.3602 Y3.5941 Z-0.1878
N6105 X1.3623 Y3.5928 Z-0.1879
N6110 X1.3666 Y3.5905 Z-0.188
N6115 X1.3689 Y3.5894 Z-0.1881
N6120 X1.3711 Y3.5885 Z-0.1882
N6125 X1.3757 Y3.5868 Z-0.1884
N6130 X1.3781 Y3.586 Z-0.1885
N6135 X1.3804 Y3.5854
N6140 X1.3852 Y3.5843 Z-0.1887
N6145 X1.3877 Y3.5839 Z-0.1888
N6150 X1.3901 Y3.5836 Z-0.1889
N6155 X1.395 Y3.5831 Z-0.1891
N6160 X1.3974 Y3.583
N6165 X1.3999 Z-0.1892
N6170 X1.4048 Y3.5833 Z-0.1894
N6175 X1.4072 Y3.5835 Z-0.1895
N6180 X1.4097 Y3.5838 Z-0.1896
N6185 X1.4145 Y3.5847 Z-0.1897
N6190 X1.4169 Y3.5853 Z-0.1898
N6195 X1.4193 Y3.5859 Z-0.1899
N6200 X1.4239 Y3.5874 Z-0.1901
N6205 X1.4262 Y3.5883 Z-0.1902
N6210 X1.4285 Y3.5892
N6215 X1.4329 Y3.5914 Z-0.1904
N6220 X1.4351 Y3.5925 Z-0.1905
N6225 X1.4372 Y3.5938 Z-0.1906
N6230 X1.4413 Y3.5965 Z-0.1908
N6235 X1.4433 Y3.5979
N6240 X1.4452 Y3.5994 Z-0.1909
N6245 X1.4489 Y3.6027 Z-0.1911
N6250 X1.4507 Y3.6044 Z-0.1912
N6255 X1.4524 Y3.6061 Z-0.1913
N6260 X1.4556 Y3.6098 Z-0.1914
N6265 X1.4571 Y3.6117 Z-0.1915
N6270 X1.4586 Y3.6137 Z-0.1916
N6275 X1.4613 Y3.6178 Z-0.1918
N6280 X1.4626 Y3.6199 Z-0.1919
N6285 X1.4638 Y3.622 Z-0.192
N6290 X1.4659 Y3.6264 Z-0.1921
N6295 X1.4669 Y3.6287 Z-0.1922
N6300 X1.4678 Y3.631 Z-0.1923
N6305 X1.4693 Y3.6356 Z-0.1925
N6310 X1.47 Y3.638 Z-0.1926
N6315 X1.4706 Y3.6404
N6320 X1.4714 Y3.6452 Z-0.1928
N6325 X1.4718 Y3.6476 Z-0.1929
N6330 X1.4721 Y3.65 Z-0.193
N6335 X1.4723 Y3.6549 Z-0.1932
N6340 X1.4722 Y3.6598 Z-0.1933
N6345 X1.4718 Y3.6647 Z-0.1935
N6350 X1.4711 Y3.6696 Z-0.1937
N6355 X1.47 Y3.6743 Z-0.1938
N6360 X1.4687 Y3.679 Z-0.194
N6365 X1.467 Y3.6837 Z-0.1942
N6370 X1.465 Y3.6881 Z-0.1944
N6375 X1.4628 Y3.6925 Z-0.1945
N6380 X1.4603 Y3.6967 Z-0.1947
N6385 X1.4589 Y3.6987 Z-0.1948
N6390 X1.4574 Y3.7007 Z-0.1949
N6395 X1.4544 Y3.7045 Z-0.195
N6400 X1.4527 Y3.7063 Z-0.1951
N6405 X1.451 Y3.7081 Z-0.1952
N6410 X1.4475 Y3.7114 Z-0.1954
N6415 X1.4456 Y3.713 Z-0.1955
N6420 X1.4437 Y3.7145 Z-0.1956
N6425 X1.4397 Y3.7174 Z-0.1957
N6430 X1.4376 Y3.7187 Z-0.1958
N6435 X1.4355 Y3.7199 Z-0.1959
N6440 X1.4312 Y3.7222 Z-0.1961
N6445 X1.429 Y3.7233 Z-0.1962
N6450 X1.4267 Y3.7242
N6455 X1.4222 Y3.7259 Z-0.1964
N6460 X1.4198 Y3.7267 Z-0.1965
N6465 X1.4175 Y3.7273 Z-0.1966
N6470 X1.4127 Y3.7284 Z-0.1967
N6475 X1.4098 Y3.7289 Z-0.1968
N6480 X1.4096 Z-0.1969
N6485 X1.409 Y3.729
N6490 X1.4084 Y3.7291
N6495 X1.4072 Y3.7292
N6500 X1.4047 Y3.7294 Z-0.197
N6505 X1.3997 Y3.7297 Z-0.1972
N6510 X1.3972 Y3.7296 Z-0.1973
N6515 X1.3947 Y3.7295 Z-0.1974
N6520 X1.3897 Y3.7291 Z-0.1975
N6525 X1.3873 Y3.7287 Z-0.1976
N6530 X1.3848 Y3.7282 Z-0.1977
N6535 X1.38 Y3.7271 Z-0.1979
N6540 X1.3776 Y3.7264 Z-0.198
N6545 X1.3752 Y3.7256 Z-0.1981
N6550 X1.3705 Y3.7238 Z-0.1982
N6555 X1.3682 Y3.7228 Z-0.1983
N6560 X1.366 Y3.7217 Z-0.1984
N6565 X1.3638 Y3.7206 Z-0.1985
N6570 X1.3616 Y3.7193 Z-0.1986
N6575 X1.3574 Y3.7166 Z-0.1988
N6580 X1.3554 Y3.7152 Z-0.1989
N6585 X1.3534 Y3.7137
N6590 X1.3496 Y3.7104 Z-0.1991
N6595 X1.3478 Y3.7087 Z-0.1992
N6600 X1.3461 Y3.7069 Z-0.1993
N6605 X1.3428 Y3.7031 Z-0.1995
N6610 X1.3412 Y3.7012 Z-0.1996
N6615 X1.3397 Y3.6992
N6620 X1.3369 Y3.695 Z-0.1998
N6625 X1.3357 Y3.6929 Z-0.1999
N6630 X1.3344 Y3.6907 Z-0.2
N6635 X1.3323 Y3.6862 Z-0.2002
N6640 X1.3313 Y3.6839
N6645 X1.3304 Y3.6816 Z-0.2003
N6650 X1.3289 Y3.6769 Z-0.2005
N6655 X1.3282 Y3.6745 Z-0.2006
N6660 X1.3277 Y3.672 Z-0.2007
N6665 X1.3268 Y3.6672 Z-0.2009
N6670 X1.3265 Y3.6647
N6675 X1.3262 Y3.6622 Z-0.201
N6680 X1.326 Y3.6572 Z-0.2012
N6685 Y3.6547 Z-0.2013
N6690 X1.3261 Y3.6522 Z-0.2014
N6695 X1.3266 Y3.6473 Z-0.2016
N6700 X1.327 Y3.6448
N6705 X1.3274 Y3.6423 Z-0.2017
N6710 X1.3285 Y3.6375 Z-0.2019
N6715 X1.3292 Y3.6351 Z-0.202
N6720 X1.33 Y3.6327 Z-0.2021
N6725 X1.3318 Y3.6281 Z-0.2022
N6730 X1.3328 Y3.6258 Z-0.2023
N6735 X1.3339 Y3.6236 Z-0.2024
N6740 X1.3363 Y3.6192 Z-0.2026
N6745 X1.3376 Y3.6171 Z-0.2027
N6750 X1.339 Y3.615 Z-0.2028
N6755 X1.3405 Y3.613 Z-0.2029
N6760 X1.342 Y3.611
N6765 X1.3452 Y3.6072 Z-0.2031
N6770 X1.347 Y3.6054 Z-0.2032
N6775 X1.3487 Y3.6037 Z-0.2033
N6780 X1.3524 Y3.6004 Z-0.2035
N6785 X1.3544 Y3.5988 Z-0.2036
N6790 X1.3564 Y3.5974
N6795 X1.3605 Y3.5946 Z-0.2038
N6800 X1.3627 Y3.5933 Z-0.2039
N6805 X1.3648 Y3.5921 Z-0.204
N6810 X1.3693 Y3.5899 Z-0.2042
N6815 X1.3716 Y3.589
N6820 X1.3739 Y3.5881 Z-0.2043
N6825 X1.3786 Y3.5865 Z-0.2045
N6830 X1.381 Y3.5859 Z-0.2046
N6835 X1.3835 Y3.5853 Z-0.2047
N6840 X1.3884 Y3.5844 Z-0.2049
N6845 X1.3909 Y3.5841
N6850 X1.3933 Y3.5839 Z-0.205
N6855 X1.3983 Y3.5837 Z-0.2052
N6860 X1.4008 Z-0.2053
N6865 X1.4033 Y3.5838 Z-0.2054
N6870 X1.4082 Y3.5843 Z-0.2055
N6875 X1.4107 Y3.5846 Z-0.2056
N6880 X1.4131 Y3.5851 Z-0.2057
N6885 X1.4179 Y3.5862 Z-0.2059
N6890 X1.4203 Y3.5869 Z-0.206
N6895 X1.4227 Y3.5877 Z-0.2061
N6900 X1.4274 Y3.5894 Z-0.2062
N6905 X1.4296 Y3.5905 Z-0.2063
N6910 X1.4319 Y3.5916 Z-0.2064
N6915 X1.4362 Y3.5939 Z-0.2066
N6920 X1.4383 Y3.5953 Z-0.2067
N6925 X1.4404 Y3.5966 Z-0.2068
N6930 X1.4444 Y3.5996 Z-0.2069
N6935 X1.4463 Y3.6012 Z-0.207
N6940 X1.4481 Y3.6028 Z-0.2071
N6945 X1.4499 Y3.6045 Z-0.2072
N6950 X1.4517 Y3.6063 Z-0.2073
N6955 X1.455 Y3.61 Z-0.2075
N6960 X1.4565 Y3.612
N6965 X1.458 Y3.614 Z-0.2076
N6970 X1.4608 Y3.6181 Z-0.2078
N6975 X1.462 Y3.6202 Z-0.2079
N6980 X1.4632 Y3.6224 Z-0.208
N6985 X1.4654 Y3.6269 Z-0.2081
N6990 X1.4664 Y3.6292 Z-0.2082
N6995 X1.4673 Y3.6315 Z-0.2083
N7000 X1.4688 Y3.6362 Z-0.2085
N7005 X1.4695 Y3.6386 Z-0.2086
N7010 X1.47 Y3.641 Z-0.2087
N7015 X1.4709 Y3.6459 Z-0.2088
N7020 X1.4712 Y3.6483 Z-0.2089
N7025 X1.4715 Y3.6508 Z-0.209
N7030 X1.4717 Y3.6558 Z-0.2092
N7035 X1.4715 Y3.6608 Z-0.2094
N7040 X1.4711 Y3.6657 Z-0.2095
N7045 X1.4703 Y3.6705 Z-0.2097
N7050 X1.4691 Y3.6754 Z-0.2099
N7055 X1.4677 Y3.6801 Z-0.2101
N7060 X1.4659 Y3.6848 Z-0.2102
N7065 X1.4638 Y3.6893 Z-0.2104
N7070 X1.4614 Y3.6936 Z-0.2106
N7075 X1.4601 Y3.6958 Z-0.2107
N7080 X1.4587 Y3.6978
N7085 X1.4573 Y3.6998 Z-0.2108
N7090 X1.4558 Y3.7018 Z-0.2109
N7095 X1.4525 Y3.7056 Z-0.2111
N7100 X1.4508 Y3.7074 Z-0.2112
N7105 X1.4491 Y3.7091 Z-0.2113
N7110 X1.4454 Y3.7124 Z-0.2114
N7115 X1.4434 Y3.7139 Z-0.2115
N7120 X1.4414 Y3.7154 Z-0.2116
N7125 X1.4373 Y3.7181 Z-0.2118
N7130 X1.4352 Y3.7194 Z-0.2119
N7135 X1.433 Y3.7206 Z-0.212
N7140 X1.4286 Y3.7228 Z-0.2121
N7145 X1.4263 Y3.7237 Z-0.2122
N7150 X1.424 Y3.7246 Z-0.2123
N7155 X1.4193 Y3.7262 Z-0.2125
N7160 X1.4169 Y3.7268 Z-0.2126
N7165 X1.4145 Y3.7274
N7170 X1.4096 Y3.7283 Z-0.2128
N7175 X1.4071 Y3.7286 Z-0.2129
N7180 X1.4046 Y3.7288 Z-0.213
N7185 X1.3997 Y3.729 Z-0.2132
N7190 X1.3972
N7195 X1.3947 Y3.7289 Z-0.2133
N7200 X1.3898 Y3.7284 Z-0.2135
N7205 X1.3874 Y3.7281 Z-0.2136
N7210 X1.3849 Y3.7276 Z-0.2137
N7215 X1.3801 Y3.7265 Z-0.2139
N7220 X1.3777 Y3.7258
N7225 X1.3754 Y3.725 Z-0.214
N7230 X1.3708 Y3.7232 Z-0.2142
N7235 X1.3685 Y3.7222 Z-0.2143
N7240 X1.3663 Y3.7211 Z-0.2144
N7245 X1.3641 Y3.72 Z-0.2145
N7250 X1.3619 Y3.7188
N7255 X1.3578 Y3.7161 Z-0.2147
N7260 X1.3558 Y3.7146 Z-0.2148
N7265 X1.3538 Y3.7131 Z-0.2149
N7270 X1.3501 Y3.7099 Z-0.2151
N7275 X1.3483 Y3.7082
N7280 X1.3466 Y3.7064 Z-0.2152
N7285 X1.3433 Y3.7027 Z-0.2154
N7290 X1.3417 Y3.7008 Z-0.2155
N7295 X1.3403 Y3.6988 Z-0.2156
N7300 X1.3375 Y3.6947 Z-0.2158
N7305 X1.3363 Y3.6926
N7310 X1.3351 Y3.6904 Z-0.2159
N7315 X1.3329 Y3.6859 Z-0.2161
N7320 X1.3319 Y3.6837 Z-0.2162
N7325 X1.331 Y3.6814 Z-0.2163
N7330 X1.3295 Y3.6767 Z-0.2164
N7335 X1.3289 Y3.6743 Z-0.2165
N7340 X1.3283 Y3.6719 Z-0.2166
N7345 X1.3275 Y3.6671 Z-0.2168
N7350 X1.3271 Y3.6646 Z-0.2169
N7355 X1.3269 Y3.6622 Z-0.217
N7360 X1.3267 Y3.6572 Z-0.2171
N7365 Y3.6547 Z-0.2172
N7370 X1.3268 Y3.6523 Z-0.2173
N7375 X1.3273 Y3.6473 Z-0.2175
N7380 X1.3277 Y3.6449 Z-0.2176
N7385 X1.3281 Y3.6425
N7390 X1.3292 Y3.6377 Z-0.2178
N7395 X1.3299 Y3.6353 Z-0.2179
N7400 X1.3307 Y3.633 Z-0.218
N7405 X1.3325 Y3.6284 Z-0.2182
N7410 X1.3335 Y3.6261
N7415 X1.3345 Y3.6239 Z-0.2183
N7420 X1.3369 Y3.6196 Z-0.2185
N7425 X1.3382 Y3.6175 Z-0.2186
N7430 X1.3396 Y3.6154 Z-0.2187
N7435 X1.341 Y3.6134 Z-0.2188
N7440 X1.3425 Y3.6115
N7445 X1.3458 Y3.6077 Z-0.219
N7450 X1.3475 Y3.6059 Z-0.2191
N7455 X1.3492 Y3.6042 Z-0.2192
N7460 X1.3529 Y3.601 Z-0.2194
N7465 X1.3548 Y3.5994 Z-0.2195
N7470 X1.3568 Y3.5979
N7475 X1.3609 Y3.5952 Z-0.2197
N7480 X1.363 Y3.594 Z-0.2198
N7485 X1.3652 Y3.5928 Z-0.2199
N7490 X1.3696 Y3.5906 Z-0.2201
N7495 X1.3719 Y3.5897
N7500 X1.3742 Y3.5888 Z-0.2202
N7505 X1.3789 Y3.5872 Z-0.2204
N7510 X1.3812 Y3.5866 Z-0.2205
N7515 X1.3836 Y3.586 Z-0.2206
N7520 X1.3885 Y3.5852 Z-0.2207
N7525 X1.3909 Y3.5849 Z-0.2208
N7530 X1.3934 Y3.5846 Z-0.2209
N7535 X1.3983 Y3.5844 Z-0.2211
N7540 X1.4008 Z-0.2212
N7545 X1.4032 Y3.5845 Z-0.2213
N7550 X1.4081 Y3.585 Z-0.2214
N7555 X1.4106 Y3.5854 Z-0.2215
N7560 X1.413 Y3.5858 Z-0.2216
N7565 X1.4178 Y3.5869 Z-0.2218
N7570 X1.4201 Y3.5876 Z-0.2219
N7575 X1.4225 Y3.5884
N7580 X1.4271 Y3.5901 Z-0.2221
N7585 X1.4293 Y3.5912 Z-0.2222
N7590 X1.4315 Y3.5922 Z-0.2223
N7595 X1.4358 Y3.5946 Z-0.2225
N7600 X1.4379 Y3.5959
N7605 X1.4399 Y3.5973 Z-0.2226
N7610 X1.4419 Y3.5987 Z-0.2227
N7615 X1.4439 Y3.6002 Z-0.2228
N7620 X1.4476 Y3.6034 Z-0.223
N7625 X1.4494 Y3.6051 Z-0.2231
N7630 X1.4511 Y3.6069
N7635 X1.4544 Y3.6105 Z-0.2233
N7640 X1.4559 Y3.6125 Z-0.2234
N7645 X1.4574 Y3.6144 Z-0.2235
N7650 X1.4601 Y3.6185 Z-0.2237
N7655 X1.4614 Y3.6206
N7660 X1.4625 Y3.6228 Z-0.2238
N7665 X1.4647 Y3.6272 Z-0.224
N7670 X1.4656 Y3.6295 Z-0.2241
N7675 X1.4665 Y3.6318 Z-0.2242
N7680 X1.468 Y3.6364 Z-0.2243
N7685 X1.4687 Y3.6388 Z-0.2244
N7690 X1.4692 Y3.6412 Z-0.2245
N7695 X1.4701 Y3.646 Z-0.2247
N7700 X1.4704 Y3.6484 Z-0.2248
N7705 X1.4707 Y3.6509 Z-0.2249
N7710 X1.4709 Y3.6558 Z-0.225
N7715 X1.4707 Y3.6607 Z-0.2252
N7720 X1.4703 Y3.6656 Z-0.2254
N7725 X1.4695 Y3.6704 Z-0.2255
N7730 X1.4683 Y3.6752 Z-0.2257
N7735 X1.4669 Y3.6799 Z-0.2259
N7740 X1.4651 Y3.6845 Z-0.2261
N7745 X1.4631 Y3.6889 Z-0.2262
N7750 X1.4607 Y3.6932 Z-0.2264
N7755 X1.4594 Y3.6953 Z-0.2265
N7760 X1.458 Y3.6973 Z-0.2266
N7765 X1.4566 Y3.6993 Z-0.2267
N7770 X1.4551 Y3.7013
N7775 X1.4519 Y3.705 Z-0.2269
N7780 X1.4502 Y3.7068 Z-0.227
N7785 X1.4485 Y3.7085 Z-0.2271
N7790 X1.4448 Y3.7117 Z-0.2273
N7795 X1.4429 Y3.7132
N7800 X1.4409 Y3.7147 Z-0.2274
N7805 X1.4369 Y3.7174 Z-0.2276
N7810 X1.4348 Y3.7187 Z-0.2277
N7815 X1.4326 Y3.7199 Z-0.2278
N7820 X1.4282 Y3.722 Z-0.2279
N7825 X1.426 Y3.7229 Z-0.228
N7830 X1.4237 Y3.7238 Z-0.2281
N7835 X1.419 Y3.7253 Z-0.2283
N7840 X1.4167 Y3.726 Z-0.2284
N7845 X1.4143 Y3.7265
N7850 X1.4094 Y3.7274 Z-0.2286
N7855 X1.407 Y3.7277 Z-0.2287
N7860 X1.4046 Y3.7279 Z-0.2288
N7865 X1.3997 Y3.7282 Z-0.229
N7870 X1.3972 Y3.7281
N7875 X1.3948 Y3.728 Z-0.2291
N7880 X1.3899 Y3.7276 Z-0.2293
N7885 X1.3875 Y3.7272 Z-0.2294
N7890 X1.3851 Y3.7268 Z-0.2295
N7895 X1.3803 Y3.7257 Z-0.2296
N7900 X1.378 Y3.725 Z-0.2297
N7905 X1.3757 Y3.7242 Z-0.2298
N7910 X1.3711 Y3.7225 Z-0.23
N7915 X1.3689 Y3.7214 Z-0.2301
N7920 X1.3667 Y3.7204 Z-0.2302
N7925 X1.3624 Y3.718 Z-0.2303
N7930 X1.3603 Y3.7167 Z-0.2304
N7935 X1.3583 Y3.7154 Z-0.2305
N7940 X1.3563 Y3.7139 Z-0.2306
N7945 X1.3544 Y3.7125 Z-0.2307
N7950 X1.3507 Y3.7093 Z-0.2308
N7955 X1.3489 Y3.7076 Z-0.2309
N7960 X1.3472 Y3.7058 Z-0.231
N7965 X1.3439 Y3.7022 Z-0.2312
N7970 X1.3424 Y3.7003 Z-0.2313
N7975 X1.341 Y3.6983
N7980 X1.3383 Y3.6942 Z-0.2315
N7985 X1.337 Y3.6921 Z-0.2316
N7990 X1.3358 Y3.69 Z-0.2317
N7995 X1.3337 Y3.6856 Z-0.2319
N8000 X1.3328 Y3.6834
N8005 X1.3319 Y3.6811 Z-0.232
N8010 X1.3304 Y3.6764 Z-0.2322
N8015 X1.3297 Y3.6741 Z-0.2323
N8020 X1.3292 Y3.6717 Z-0.2324
N8025 X1.3283 Y3.6669 Z-0.2325
N8030 X1.328 Y3.6645 Z-0.2326
N8035 X1.3278 Y3.6621 Z-0.2327
N8040 X1.3276 Y3.6572 Z-0.2329
N8045 Y3.6548 Z-0.233
N8050 X1.3277 Y3.6523 Z-0.2331
N8055 X1.3281 Y3.6475 Z-0.2332
N8060 X1.3285 Y3.645 Z-0.2333
N8065 X1.3289 Y3.6426 Z-0.2334
N8070 X1.3301 Y3.6379 Z-0.2336
N8075 X1.3307 Y3.6356
N8080 X1.3315 Y3.6332 Z-0.2337
N8085 X1.3332 Y3.6287 Z-0.2339
N8090 X1.3342 Y3.6265 Z-0.234
N8095 X1.3353 Y3.6243 Z-0.2341
N8100 X1.3377 Y3.62 Z-0.2342
N8105 X1.339 Y3.6179 Z-0.2343
N8110 X1.3403 Y3.6159 Z-0.2344
N8115 X1.3417 Y3.6139 Z-0.2345
N8120 X1.3432 Y3.612 Z-0.2346
N8125 X1.3464 Y3.6083 Z-0.2348
N8130 X1.3481 Y3.6066
N8135 X1.3498 Y3.6048 Z-0.2349
N8140 X1.3535 Y3.6016 Z-0.2351
N8145 X1.3554 Y3.6001 Z-0.2352
N8150 X1.3573 Y3.5986 Z-0.2353
N8155 X1.3614 Y3.5959 Z-0.2354
N8160 X1.3635 Y3.5947 Z-0.2355
N8165 X1.3656 Y3.5935 Z-0.2356
N8170 X1.37 Y3.5914 Z-0.2358
N8175 X1.3722 Y3.5905 Z-0.2359
N8180 X1.3745 Y3.5896
N8185 X1.3791 Y3.5881 Z-0.2361
N8190 X1.3821 Y3.5873 Z-0.2362
N8195 X1.3823 Y3.5872
N8200 X1.3829 Y3.5871
N8205 X1.3835 Y3.5869 Z-0.2363
N8210 X1.3847 Y3.5867
N8215 X1.3872 Y3.5862 Z-0.2364
N8220 X1.3922 Y3.5856 Z-0.2366
N8225 X1.3948 Y3.5854 Z-0.2367
N8230 X1.3973 Y3.5853 Z-0.2368
N8235 X1.3999
N8240 X1.4024 Y3.5854 Z-0.2369
N8245 X1.4075 Y3.5858 Z-0.2371
N8250 X1.41 Y3.5862 Z-0.2372
N8255 X1.4125 Y3.5866 Z-0.2373
N8260 X1.4174 Y3.5877 Z-0.2375
N8265 X1.4199 Y3.5885 Z-0.2376
N8270 X1.4223 Y3.5893
N8275 X1.4247 Y3.5901 Z-0.2377
N8280 X1.4271 Y3.5911 Z-0.2378
N8285 X1.4316 Y3.5933 Z-0.238
N8290 X1.4339 Y3.5945 Z-0.2381
N8295 X1.4361 Y3.5958 Z-0.2382
N8300 X1.4403 Y3.5986 Z-0.2383
N8305 X1.4423 Y3.6001 Z-0.2384
N8310 X1.4443 Y3.6017 Z-0.2385
N8315 X1.4481 Y3.6051 Z-0.2387
N8320 X1.4499 Y3.6069 Z-0.2388
N8325 X1.4516 Y3.6087 Z-0.2389
N8330 X1.4533 Y3.6106 Z-0.239
N8335 X1.4549 Y3.6125 Z-0.2391
N8340 X1.4579 Y3.6167 Z-0.2392
N8345 X1.4593 Y3.6188 Z-0.2393
N8350 X1.4606 Y3.621 Z-0.2394
N8355 X1.4629 Y3.6254 Z-0.2396
N8360 X1.464 Y3.6277 Z-0.2397
N8365 X1.465 Y3.6301 Z-0.2398
N8370 X1.4659 Y3.6325 Z-0.2399
N8375 X1.4667 Y3.6349
N8380 X1.468 Y3.6398 Z-0.2401
N8385 X1.4686 Y3.6423 Z-0.2402
N8390 X1.4691 Y3.6448 Z-0.2403
N8395 X1.4697 Y3.6498 Z-0.2405
N8400 X1.47 Y3.6549 Z-0.2407
N8405 X1.4699 Y3.66 Z-0.2408
N8410 X1.4695 Y3.665 Z-0.241
N8415 X1.4687 Y3.6699 Z-0.2412
N8420 X1.4675 Y3.6749 Z-0.2414
N8425 X1.466 Y3.6797 Z-0.2415
N8430 X1.4651 Y3.6821 Z-0.2416
N8435 X1.4642 Y3.6845 Z-0.2417
N8440 X1.462 Y3.6891 Z-0.2419
N8445 X1.4595 Y3.6935 Z-0.2421
N8450 X1.4567 Y3.6977 Z-0.2422
N8455 X1.4552 Y3.6997 Z-0.2423
N8460 X1.4536 Y3.7017 Z-0.2424
N8465 X1.452 Y3.7036 Z-0.2425
N8470 X1.4503 Y3.7055 Z-0.2426
N8475 X1.4467 Y3.709 Z-0.2428
N8480 X1.4448 Y3.7106 Z-0.2429
N8485 X1.4428 Y3.7122
N8490 X1.4387 Y3.7152 Z-0.2431
N8495 X1.4366 Y3.7166 Z-0.2432
N8500 X1.4344 Y3.7179 Z-0.2433
N8505 X1.43 Y3.7203 Z-0.2435
N8510 X1.4277 Y3.7213 Z-0.2436
N8515 X1.4253 Y3.7223 Z-0.2437
N8520 X1.4229 Y3.7232
N8525 X1.4205 Y3.724 Z-0.2438
N8530 X1.4156 Y3.7253 Z-0.244
N8535 X1.4132 Y3.7259 Z-0.2441
N8540 X1.4107 Y3.7263 Z-0.2442
N8545 X1.4057 Y3.727 Z-0.2444
N8550 X1.4032 Y3.7272
N8555 X1.4006 Y3.7273 Z-0.2445
N8560 X1.3981 Z-0.2446
N8565 X1.3956 Y3.7272 Z-0.2447
N8570 X1.3906 Y3.7268 Z-0.2449
N8575 X1.3881 Y3.7264 Z-0.245
N8580 X1.3856 Y3.726 Z-0.2451
N8585 X1.3806 Y3.7248 Z-0.2452
N8590 X1.3782 Y3.7241 Z-0.2453
N8595 X1.3758 Y3.7233 Z-0.2454
N8600 X1.3734 Y3.7225 Z-0.2455
N8605 X1.3711 Y3.7215 Z-0.2456
N8610 X1.3665 Y3.7193 Z-0.2458
N8615 X1.3643 Y3.7181 Z-0.2459
N8620 X1.3621 Y3.7169
N8625 X1.3579 Y3.7141 Z-0.2461
N8630 X1.3559 Y3.7126 Z-0.2462
N8635 X1.354 Y3.711 Z-0.2463
N8640 X1.3502 Y3.7077 Z-0.2465
N8645 X1.3484 Y3.7059 Z-0.2466
N8650 X1.3467 Y3.704 Z-0.2467
N8655 X1.345 Y3.7021
N8660 X1.3434 Y3.7002 Z-0.2468
N8665 X1.3405 Y3.6961 Z-0.247
N8670 X1.3391 Y3.694 Z-0.2471
N8675 X1.3378 Y3.6918 Z-0.2472
N8680 X1.3354 Y3.6874 Z-0.2474
N8685 X1.3344 Y3.6851
N8690 X1.3334 Y3.6827 Z-0.2475
N8695 X1.3325 Y3.6804 Z-0.2476
N8700 X1.3317 Y3.678 Z-0.2477
N8705 X1.3304 Y3.6731 Z-0.2479
N8710 X1.3298 Y3.6706 Z-0.248
N8715 X1.3294 Y3.6682 Z-0.2481
N8720 X1.3287 Y3.6632 Z-0.2482
N8725 X1.3285 Y3.6607 Z-0.2483
N8730 X1.3284 Y3.6581 Z-0.2484
N8735 Y3.6556 Z-0.2485
N8740 X1.3285 Y3.6531 Z-0.2486
N8745 X1.3289 Y3.6481 Z-0.2488
N8750 X1.3293 Y3.6456
N8755 X1.3297 Y3.6431 Z-0.2489
N8760 X1.3309 Y3.6382 Z-0.2491
N8765 X1.3316 Y3.6358 Z-0.2492
N8770 X1.3324 Y3.6334 Z-0.2493
N8775 X1.3332 Y3.631 Z-0.2494
N8780 X1.3342 Y3.6287 Z-0.2495
N8785 X1.3363 Y3.6242 Z-0.2496
N8790 X1.3375 Y3.6219 Z-0.2497
N8795 X1.3388 Y3.6198 Z-0.2498
N8800 X1.3416 Y3.6156 Z-0.25
N8805 X1.3431 Y3.6136 Z-0.2501
N8810 X1.3447 Y3.6116 Z-0.2502
N8815 X1.348 Y3.6079 Z-0.2503
N8820 X1.3498 Y3.6061 Z-0.2504
N8825 X1.3516 Y3.6044 Z-0.2505
N8830 X1.3535 Y3.6027 Z-0.2506
N8835 X1.3555 Y3.6011 Z-0.2507
N8840 X1.3595 Y3.5981 Z-0.2509
N8845 X1.3616 Y3.5968 Z-0.251
N8850 X1.3638 Y3.5955
N8855 X1.3682 Y3.5931 Z-0.2512
N8860 X1.3705 Y3.5921 Z-0.2513
N8865 X1.3728 Y3.5911 Z-0.2514
N8870 X1.3752 Y3.5902 Z-0.2515
N8875 X1.3776 Y3.5894 Z-0.2516
N8880 X1.3824 Y3.5881 Z-0.2517
N8885 X1.3849 Y3.5875 Z-0.2518
N8890 X1.3874 Y3.5871 Z-0.2519
N8895 X1.3923 Y3.5864 Z-0.2521
N8900 X1.3948 Y3.5862 Z-0.2522
N8905 X1.3974 Y3.5861 Z-0.2523
N8910 X1.3999 Z-0.2524
N8915 X1.4024 Y3.5862
N8920 X1.4074 Y3.5866 Z-0.2526
N8925 X1.4099 Y3.587 Z-0.2527
N8930 X1.4123 Y3.5874 Z-0.2528
N8935 X1.4172 Y3.5886 Z-0.253
N8940 X1.4196 Y3.5893 Z-0.2531
N8945 X1.422 Y3.5901
N8950 X1.4244 Y3.5909 Z-0.2532
N8955 X1.4267 Y3.5919 Z-0.2533
N8960 X1.4312 Y3.594 Z-0.2535
N8965 X1.4335 Y3.5952 Z-0.2536
N8970 X1.4356 Y3.5965 Z-0.2537
N8975 X1.4398 Y3.5993 Z-0.2538
N8980 X1.4418 Y3.6008 Z-0.2539
N8985 X1.4438 Y3.6023 Z-0.254
N8990 X1.4475 Y3.6057 Z-0.2542
N8995 X1.4493 Y3.6074 Z-0.2543
N9000 X1.451 Y3.6093 Z-0.2544
N9005 X1.4527 Y3.6111 Z-0.2545
N9010 X1.4542 Y3.6131
N9015 X1.4572 Y3.6171 Z-0.2547
N9020 X1.4585 Y3.6192 Z-0.2548
N9025 X1.4598 Y3.6214 Z-0.2549
N9030 X1.4622 Y3.6258 Z-0.2551
N9035 X1.4632 Y3.6281 Z-0.2552
N9040 X1.4642 Y3.6304
N9045 X1.4651 Y3.6328 Z-0.2553
N9050 X1.4659 Y3.6351 Z-0.2554
N9055 X1.4672 Y3.64 Z-0.2556
N9060 X1.4678 Y3.6424 Z-0.2557
N9065 X1.4682 Y3.6449 Z-0.2558
N9070 X1.4689 Y3.6499 Z-0.2559
N9075 X1.469 Y3.6524 Z-0.256
N9080 X1.4691 Y3.6549 Z-0.2561
N9085 X1.469 Y3.6599 Z-0.2563
N9090 X1.4686 Y3.6648 Z-0.2565
N9095 X1.4678 Y3.6698 Z-0.2566
N9100 X1.4667 Y3.6746 Z-0.2568
N9105 X1.4652 Y3.6794 Z-0.257
N9110 X1.4643 Y3.6818 Z-0.2571
N9115 X1.4634 Y3.6841 Z-0.2572
N9120 X1.4612 Y3.6886 Z-0.2573
N9125 X1.4588 Y3.693 Z-0.2575
N9130 X1.456 Y3.6972 Z-0.2577
N9135 X1.4545 Y3.6992 Z-0.2578
N9140 X1.453 Y3.7011 Z-0.2579
N9145 X1.4513 Y3.703 Z-0.258
N9150 X1.4496 Y3.7049
N9155 X1.4461 Y3.7083 Z-0.2582
N9160 X1.4442 Y3.71 Z-0.2583
N9165 X1.4422 Y3.7115 Z-0.2584
N9170 X1.4382 Y3.7145 Z-0.2586
N9175 X1.4361 Y3.7158
N9180 X1.434 Y3.7171 Z-0.2587
N9185 X1.4296 Y3.7194 Z-0.2589
N9190 X1.4273 Y3.7205 Z-0.259
N9195 X1.425 Y3.7214 Z-0.2591
N9200 X1.4226 Y3.7223 Z-0.2592
N9205 X1.4203 Y3.7231 Z-0.2593
N9210 X1.4154 Y3.7245 Z-0.2594
N9215 X1.413 Y3.725 Z-0.2595
N9220 X1.4106 Y3.7254 Z-0.2596
N9225 X1.4056 Y3.7261 Z-0.2598
N9230 X1.4031 Y3.7263 Z-0.2599
N9235 X1.4006 Y3.7264 Z-0.26
N9240 X1.3981
N9245 X1.3956 Y3.7263 Z-0.2601
N9250 X1.3907 Y3.7259 Z-0.2603
N9255 X1.3882 Y3.7255 Z-0.2604
N9260 X1.3858 Y3.7251 Z-0.2605
N9265 X1.3809 Y3.724 Z-0.2606
N9270 X1.3785 Y3.7233 Z-0.2607
N9275 X1.3761 Y3.7225 Z-0.2608
N9280 X1.3738 Y3.7216 Z-0.2609
N9285 X1.3715 Y3.7207 Z-0.261
N9290 X1.367 Y3.7185 Z-0.2612
N9295 X1.3648 Y3.7173 Z-0.2613
N9300 X1.3626 Y3.7161
N9305 X1.3585 Y3.7133 Z-0.2615
N9310 X1.3565 Y3.7118 Z-0.2616
N9315 X1.3546 Y3.7103 Z-0.2617
N9320 X1.3527 Y3.7087 Z-0.2618
N9325 X1.3508 Y3.707 Z-0.2619
N9330 X1.3474 Y3.7034 Z-0.262
N9335 X1.3457 Y3.7015 Z-0.2621
N9340 X1.3442 Y3.6996 Z-0.2622
N9345 X1.3412 Y3.6956 Z-0.2624
N9350 X1.3399 Y3.6935 Z-0.2625
N9355 X1.3386 Y3.6913 Z-0.2626
N9360 X1.3363 Y3.6869 Z-0.2627
N9365 X1.3353 Y3.6847 Z-0.2628
N9370 X1.3343 Y3.6824 Z-0.2629
N9375 X1.3334 Y3.68 Z-0.263
N9380 X1.3326 Y3.6777 Z-0.2631
N9385 X1.3313 Y3.6729 Z-0.2633
N9390 X1.3308 Y3.6705
N9395 X1.3303 Y3.668 Z-0.2634
N9400 X1.3297 Y3.6631 Z-0.2636
N9405 X1.3295 Y3.6606 Z-0.2637
N9410 X1.3294 Y3.6581 Z-0.2638
N9415 Y3.6556 Z-0.2639
N9420 X1.3295 Y3.6531
N9425 X1.3299 Y3.6482 Z-0.2641
N9430 X1.3302 Y3.6458 Z-0.2642
N9435 X1.3307 Y3.6433 Z-0.2643
N9440 X1.3318 Y3.6385 Z-0.2645
N9445 X1.3325 Y3.6361 Z-0.2646
N9450 X1.3333 Y3.6337
N9455 X1.3341 Y3.6314 Z-0.2647
N9460 X1.3351 Y3.6291 Z-0.2648
N9465 X1.3372 Y3.6246 Z-0.265
N9470 X1.3384 Y3.6224 Z-0.2651
N9475 X1.3396 Y3.6203 Z-0.2652
N9480 X1.3424 Y3.6161 Z-0.2653
N9485 X1.3439 Y3.6142 Z-0.2654
N9490 X1.3454 Y3.6122 Z-0.2655
N9495 X1.3487 Y3.6085 Z-0.2657
N9500 X1.3505 Y3.6068 Z-0.2658
N9505 X1.3523 Y3.6051 Z-0.2659
N9510 X1.3541 Y3.6034
N9515 X1.3561 Y3.6019 Z-0.266
N9520 X1.3601 Y3.599 Z-0.2662
N9525 X1.3622 Y3.5976 Z-0.2663
N9530 X1.3643 Y3.5964 Z-0.2664
N9535 X1.3687 Y3.594 Z-0.2665
N9540 X1.3709 Y3.593 Z-0.2666
N9545 X1.3732 Y3.5921 Z-0.2667
N9550 X1.3755 Y3.5912 Z-0.2668
N9555 X1.3779 Y3.5904 Z-0.2669
N9560 X1.3827 Y3.5891 Z-0.2671
N9565 X1.3851 Y3.5885 Z-0.2672
N9570 X1.3875 Y3.5881
N9575 X1.3924 Y3.5874 Z-0.2674
N9580 X1.3949 Y3.5873 Z-0.2675
N9585 X1.3974 Y3.5872 Z-0.2676
N9590 X1.3999 Z-0.2677
N9595 X1.4023 Z-0.2678
N9600 X1.4073 Y3.5877 Z-0.2679
N9605 X1.4097 Y3.588 Z-0.268
N9610 X1.4121 Y3.5884 Z-0.2681
N9615 X1.417 Y3.5896 Z-0.2683
N9620 X1.4193 Y3.5902 Z-0.2684
N9625 X1.4217 Y3.591
N9630 X1.424 Y3.5919 Z-0.2685
N9635 X1.4263 Y3.5928 Z-0.2686
N9640 X1.4308 Y3.5949 Z-0.2688
N9645 X1.4329 Y3.5961 Z-0.2689
N9650 X1.4351 Y3.5974 Z-0.269
N9655 X1.4392 Y3.6001 Z-0.2691
N9660 X1.4412 Y3.6016 Z-0.2692
N9665 X1.4431 Y3.6031 Z-0.2693
N9670 X1.4468 Y3.6064 Z-0.2695
N9675 X1.4485 Y3.6082 Z-0.2696
N9680 X1.4502 Y3.61 Z-0.2697
N9685 X1.4519 Y3.6118
N9690 X1.4534 Y3.6137 Z-0.2698
N9695 X1.4563 Y3.6177 Z-0.27
N9700 X1.4576 Y3.6198 Z-0.2701
N9705 X1.4589 Y3.6219 Z-0.2702
N9710 X1.4612 Y3.6263 Z-0.2703
N9715 X1.4623 Y3.6285 Z-0.2704
N9720 X1.4632 Y3.6308 Z-0.2705
N9725 X1.4641 Y3.6331 Z-0.2706
N9730 X1.4649 Y3.6355 Z-0.2707
N9735 X1.4662 Y3.6402 Z-0.2709
N9740 X1.4667 Y3.6426
N9745 X1.4672 Y3.6451 Z-0.271
N9750 X1.4678 Y3.65 Z-0.2712
N9755 X1.4681 Y3.6549 Z-0.2714
N9760 X1.468 Y3.6598 Z-0.2715
N9765 X1.4675 Y3.6647 Z-0.2717
N9770 X1.4668 Y3.6696 Z-0.2719
N9775 X1.4657 Y3.6744 Z-0.2721
N9780 X1.4642 Y3.6791 Z-0.2722
N9785 X1.4633 Y3.6814 Z-0.2723
N9790 X1.4624 Y3.6837 Z-0.2724
N9795 X1.4603 Y3.6881 Z-0.2726
N9800 X1.4579 Y3.6924 Z-0.2728
N9805 X1.4552 Y3.6965 Z-0.2729
N9810 X1.4537 Y3.6985 Z-0.273
N9815 X1.4522 Y3.7004 Z-0.2731
N9820 X1.4506 Y3.7023 Z-0.2732
N9825 X1.4489 Y3.7041 Z-0.2733
N9830 X1.4454 Y3.7075 Z-0.2734
N9835 X1.4435 Y3.7092 Z-0.2735
N9840 X1.4416 Y3.7107 Z-0.2736
N9845 X1.4376 Y3.7136 Z-0.2738
N9850 X1.4355 Y3.7149 Z-0.2739
N9855 X1.4334 Y3.7162 Z-0.274
N9860 X1.4291 Y3.7185 Z-0.2741
N9865 X1.4268 Y3.7195 Z-0.2742
N9870 X1.4246 Y3.7205 Z-0.2743
N9875 X1.4223 Y3.7213 Z-0.2744
N9880 X1.4199 Y3.7221 Z-0.2745
N9885 X1.4152 Y3.7234 Z-0.2746
N9890 X1.4128 Y3.724 Z-0.2747
N9895 X1.4104 Y3.7244 Z-0.2748
N9900 X1.4055 Y3.725 Z-0.275
N9905 X1.4031 Y3.7252 Z-0.2751
N9910 X1.4006 Y3.7253 Z-0.2752
N9915 X1.3981
N9920 X1.3957 Z-0.2753
N9925 X1.392 Y3.725 Z-0.2755
N9930 X1.3883 Y3.7245 Z-0.2756
N9935 X1.3881 Y3.7244
N9940 X1.3868 Y3.7242
N9945 X1.3855 Y3.724 Z-0.2757
N9950 X1.383 Y3.7234 Z-0.2758
N9955 X1.378 Y3.722 Z-0.276
N9960 X1.3756 Y3.7212
N9965 X1.3732 Y3.7203 Z-0.2761
N9970 X1.3709 Y3.7192 Z-0.2762
N9975 X1.3686 Y3.7182 Z-0.2763
N9980 X1.364 Y3.7157 Z-0.2765
N9985 X1.3618 Y3.7143 Z-0.2766
N9990 X1.3597 Y3.7129 Z-0.2767
N9995 X1.3576 Y3.7114 Z-0.2768
N10000 X1.3556 Y3.7098
N10005 X1.3518 Y3.7064 Z-0.277
N10010 X1.35 Y3.7046 Z-0.2771
N10015 X1.3482 Y3.7027 Z-0.2772
N10020 X1.3465 Y3.7008 Z-0.2773
N10025 X1.3449 Y3.6988 Z-0.2774
N10030 X1.3419 Y3.6946 Z-0.2776
N10035 X1.3405 Y3.6924 Z-0.2777
N10040 X1.3392 Y3.6902
N10045 X1.338 Y3.688 Z-0.2778
N10050 X1.3369 Y3.6857 Z-0.2779
N10055 X1.3349 Y3.6809 Z-0.2781
N10060 X1.334 Y3.6785 Z-0.2782
N10065 X1.3332 Y3.6761 Z-0.2783
N10070 X1.3325 Y3.6736 Z-0.2784
N10075 X1.332 Y3.6711 Z-0.2785
N10080 X1.3311 Y3.666 Z-0.2786
N10085 X1.3308 Y3.6635 Z-0.2787
N10090 X1.3306 Y3.6609 Z-0.2788
N10095 X1.3305 Y3.6584 Z-0.2789
N10100 X1.3304 Y3.6558 Z-0.279
N10105 X1.3307 Y3.6507 Z-0.2792
N10110 X1.331 Y3.6481 Z-0.2793
N10115 X1.3313 Y3.6456 Z-0.2794
N10120 X1.3318 Y3.6431
N10125 X1.3323 Y3.6406 Z-0.2795
N10130 X1.3337 Y3.6357 Z-0.2797
N10135 X1.3346 Y3.6333 Z-0.2798
N10140 X1.3355 Y3.6309 Z-0.2799
N10145 X1.3365 Y3.6285 Z-0.28
N10150 X1.3376 Y3.6262 Z-0.2801
N10155 X1.34 Y3.6217 Z-0.2802
N10160 X1.3414 Y3.6195 Z-0.2803
N10165 X1.3428 Y3.6174 Z-0.2804
N10170 X1.3443 Y3.6153 Z-0.2805
N10175 X1.3459 Y3.6133 Z-0.2806
N10180 X1.3493 Y3.6094 Z-0.2808
N10185 X1.3511 Y3.6076 Z-0.2809
N10190 X1.353 Y3.6059 Z-0.281
N10195 X1.3549 Y3.6042 Z-0.2811
N10200 X1.3569 Y3.6026
N10205 X1.361 Y3.5996 Z-0.2813
N10210 X1.3631 Y3.5982 Z-0.2814
N10215 X1.3654 Y3.597 Z-0.2815
N10220 X1.3676 Y3.5957 Z-0.2816
N10225 X1.3699 Y3.5946 Z-0.2817
N10230 X1.3746 Y3.5926 Z-0.2819
N10235 X1.3771 Y3.5917
N10240 X1.3795 Y3.591 Z-0.282
N10245 X1.382 Y3.5903 Z-0.2821
N10250 X1.3844 Y3.5897 Z-0.2822
N10255 X1.3895 Y3.5888 Z-0.2824
N10260 X1.392 Y3.5885 Z-0.2825
N10265 X1.3945 Y3.5883 Z-0.2826
N10270 X1.3971 Y3.5882 Z-0.2827
N10275 X1.3996
N10280 X1.4048 Y3.5884 Z-0.2829
N10285 X1.4073 Y3.5887 Z-0.283
N10290 X1.4098 Y3.5891 Z-0.2831
N10295 X1.4123 Y3.5895 Z-0.2832
N10300 X1.4149 Y3.5901 Z-0.2833
N10305 X1.4198 Y3.5915 Z-0.2835
N10310 X1.4222 Y3.5923 Z-0.2836
N10315 X1.4246 Y3.5932
N10320 X1.4269 Y3.5942 Z-0.2837
N10325 X1.4292 Y3.5953 Z-0.2838
N10330 X1.4337 Y3.5977 Z-0.284
N10335 X1.4359 Y3.5991 Z-0.2841
N10340 X1.438 Y3.6005 Z-0.2842
N10345 X1.44 Y3.602 Z-0.2843
N10350 X1.442 Y3.6036 Z-0.2844
N10355 X1.4458 Y3.6069 Z-0.2845
N10360 X1.4477 Y3.6087 Z-0.2846
N10365 X1.4494 Y3.6106 Z-0.2847
N10370 X1.4511 Y3.6125 Z-0.2848
N10375 X1.4527 Y3.6145 Z-0.2849
N10380 X1.4557 Y3.6187 Z-0.2851
N10385 X1.4571 Y3.6208 Z-0.2852
N10390 X1.4583 Y3.623
N10395 X1.4595 Y3.6253 Z-0.2853
N10400 X1.4607 Y3.6275 Z-0.2854
N10405 X1.4626 Y3.6322 Z-0.2856
N10410 X1.4635 Y3.6346 Z-0.2857
N10415 X1.4643 Y3.6371 Z-0.2858
N10420 X1.4649 Y3.6396 Z-0.2859
N10425 X1.4655 Y3.642 Z-0.286
N10430 X1.4664 Y3.647 Z-0.2861
N10435 X1.4667 Y3.6495 Z-0.2862
N10440 X1.4669 Y3.652 Z-0.2863
N10445 X1.467 Y3.6546 Z-0.2864
N10450 X1.4671 Y3.6571 Z-0.2865
N10455 X1.4668 Y3.6622 Z-0.2867
N10460 X1.4661 Y3.6673 Z-0.2868
N10465 X1.4651 Y3.6723 Z-0.287
N10470 X1.4637 Y3.6772 Z-0.2872
N10475 X1.462 Y3.6819 Z-0.2874
N10480 X1.4599 Y3.6866 Z-0.2875
N10485 X1.4575 Y3.6911 Z-0.2877
N10490 X1.4562 Y3.6932 Z-0.2878
N10495 X1.4548 Y3.6953 Z-0.2879
N10500 X1.4533 Y3.6974 Z-0.288
N10505 X1.4517 Y3.6994 Z-0.2881
N10510 X1.4484 Y3.7032 Z-0.2883
N10515 X1.4466 Y3.705
N10520 X1.4447 Y3.7067 Z-0.2884
N10525 X1.4428 Y3.7084 Z-0.2885
N10530 X1.4408 Y3.71 Z-0.2886
N10535 X1.4367 Y3.713 Z-0.2888
N10540 X1.4346 Y3.7143 Z-0.2889
N10545 X1.4324 Y3.7156 Z-0.289
N10550 X1.4301 Y3.7168 Z-0.2891
N10555 X1.4279 Y3.7179
N10560 X1.4232 Y3.7199 Z-0.2893
N10565 X1.4207 Y3.7208 Z-0.2894
N10570 X1.4183 Y3.7215 Z-0.2895
N10575 X1.4159 Y3.7222 Z-0.2896
N10580 X1.4134 Y3.7228 Z-0.2897
N10585 X1.4085 Y3.7237 Z-0.2899
N10590 X1.4059 Y3.724
N10595 X1.4034 Y3.7242 Z-0.29
N10600 X1.4008 Y3.7243 Z-0.2901
N10605 X1.3983 Z-0.2902
N10610 X1.3933 Y3.724 Z-0.2904
N10615 X1.3907 Y3.7238 Z-0.2905
N10620 X1.3882 Y3.7234 Z-0.2906
N10625 X1.3857 Y3.7229
N10630 X1.3833 Y3.7224 Z-0.2907
N10635 X1.3784 Y3.721 Z-0.2909
N10640 X1.376 Y3.7202 Z-0.291
N10645 X1.3736 Y3.7193 Z-0.2911
N10650 X1.3713 Y3.7183 Z-0.2912
N10655 X1.369 Y3.7172 Z-0.2913
N10660 X1.3646 Y3.7148 Z-0.2914
N10665 X1.3624 Y3.7135 Z-0.2915
N10670 X1.3603 Y3.712 Z-0.2916
N10675 X1.3583 Y3.7106 Z-0.2917
N10680 X1.3563 Y3.709 Z-0.2918
N10685 X1.3525 Y3.7057 Z-0.292
N10690 X1.3507 Y3.7039 Z-0.2921
N10695 X1.349 Y3.702
N10700 X1.3473 Y3.7001 Z-0.2922
N10705 X1.3457 Y3.6981 Z-0.2923
N10710 X1.3427 Y3.694 Z-0.2925
N10715 X1.3414 Y3.6919 Z-0.2926
N10720 X1.3401 Y3.6897 Z-0.2927
N10725 X1.3389 Y3.6875 Z-0.2928
N10730 X1.3378 Y3.6852 Z-0.2929
N10735 X1.3358 Y3.6806 Z-0.293
N10740 X1.335 Y3.6782 Z-0.2931
N10745 X1.3342 Y3.6758 Z-0.2932
N10750 X1.3336 Y3.6733 Z-0.2933
N10755 X1.333 Y3.6709 Z-0.2934
N10760 X1.3321 Y3.6659 Z-0.2936
N10765 X1.3318 Y3.6634
N10770 X1.3316 Y3.6609 Z-0.2937
N10775 X1.3315 Y3.6583 Z-0.2938
N10780 Y3.6558 Z-0.2939
N10785 X1.3317 Y3.6508 Z-0.2941
N10790 X1.332 Y3.6483 Z-0.2942
N10795 X1.3323 Y3.6458 Z-0.2943
N10800 X1.3328 Y3.6433 Z-0.2944
N10805 X1.3333 Y3.6408
N10810 X1.3347 Y3.636 Z-0.2946
N10815 X1.3355 Y3.6336 Z-0.2947
N10820 X1.3364 Y3.6312 Z-0.2948
N10825 X1.3374 Y3.6289 Z-0.2949
N10830 X1.3385 Y3.6267 Z-0.295
N10835 X1.3409 Y3.6222 Z-0.2951
N10840 X1.3422 Y3.6201 Z-0.2952
N10845 X1.3436 Y3.618 Z-0.2953
N10850 X1.3451 Y3.6159 Z-0.2954
N10855 X1.3467 Y3.614 Z-0.2955
N10860 X1.35 Y3.6102 Z-0.2957
N10865 X1.3518 Y3.6084 Z-0.2958
N10870 X1.3537 Y3.6066
N10875 X1.3556 Y3.605 Z-0.2959
N10880 X1.3575 Y3.6034 Z-0.296
N10885 X1.3616 Y3.6005 Z-0.2962
N10890 X1.3637 Y3.5991 Z-0.2963
N10895 X1.3659 Y3.5978 Z-0.2964
N10900 X1.3681 Y3.5966 Z-0.2965
N10905 X1.3704 Y3.5955 Z-0.2966
N10910 X1.375 Y3.5936 Z-0.2967
N10915 X1.3774 Y3.5927 Z-0.2968
N10920 X1.3798 Y3.592 Z-0.2969
N10925 X1.3822 Y3.5913 Z-0.297
N10930 X1.3847 Y3.5907 Z-0.2971
N10935 X1.3896 Y3.5898 Z-0.2973
N10940 X1.3921 Y3.5896
N10945 X1.3946 Y3.5894 Z-0.2974
N10950 X1.3971 Y3.5892 Z-0.2975
N10955 X1.3997 Z-0.2976
N10960 X1.4047 Y3.5895 Z-0.2978
N10965 X1.4072 Y3.5897 Z-0.2979
N10970 X1.4097 Y3.5901 Z-0.298
N10975 X1.4121 Y3.5906
N10980 X1.4146 Y3.5911 Z-0.2981
N10985 X1.4195 Y3.5925 Z-0.2983
N10990 X1.4218 Y3.5933 Z-0.2984
N10995 X1.4242 Y3.5942 Z-0.2985
N11000 X1.4265 Y3.5952 Z-0.2986
N11005 X1.4287 Y3.5962 Z-0.2987
N11010 X1.4332 Y3.5986 Z-0.2988
N11015 X1.4353 Y3.6 Z-0.2989
N11020 X1.4374 Y3.6014 Z-0.299
N11025 X1.4394 Y3.6029 Z-0.2991
N11030 X1.4414 Y3.6044 Z-0.2992
N11035 X1.4451 Y3.6077 Z-0.2994
N11040 X1.4469 Y3.6095
N11045 X1.4486 Y3.6113 Z-0.2995
N11050 X1.4503 Y3.6132 Z-0.2996
N11055 X1.4519 Y3.6152 Z-0.2997
N11060 X1.4548 Y3.6192 Z-0.2999
N11065 X1.4562 Y3.6214 Z-0.3
N11070 X1.4574 Y3.6235 Z-0.3001
N11075 X1.4586 Y3.6257
N11080 X1.4597 Y3.628 Z-0.3002
N11085 X1.4617 Y3.6326 Z-0.3004
N11090 X1.4625 Y3.635 Z-0.3005
N11095 X1.4632 Y3.6374 Z-0.3006
N11100 X1.4639 Y3.6398 Z-0.3007
N11105 X1.4645 Y3.6423 Z-0.3008
N11110 X1.4654 Y3.6472 Z-0.3009
N11115 X1.4656 Y3.6496 Z-0.301
N11120 X1.4658 Y3.6521 Z-0.3011
N11125 X1.466 Y3.6546 Z-0.3012
N11130 Y3.6571 Z-0.3013
N11135 X1.4657 Y3.6622 Z-0.3015
N11140 X1.4651 Y3.6671 Z-0.3016
N11145 X1.4641 Y3.6721 Z-0.3018
N11150 X1.4627 Y3.6768 Z-0.302
N11155 X1.461 Y3.6815 Z-0.3022
N11160 X1.459 Y3.6861 Z-0.3023
N11165 X1.4566 Y3.6905 Z-0.3025
N11170 X1.4553 Y3.6926 Z-0.3026
N11175 X1.4539 Y3.6947 Z-0.3027
N11180 X1.4524 Y3.6967 Z-0.3028
N11185 X1.4509 Y3.6987 Z-0.3029
N11190 X1.4476 Y3.7024 Z-0.303
N11195 X1.4458 Y3.7042 Z-0.3031
N11200 X1.444 Y3.7059 Z-0.3032
N11205 X1.4421 Y3.7076 Z-0.3033
N11210 X1.4401 Y3.7091 Z-0.3034
N11215 X1.4361 Y3.7121 Z-0.3035
N11220 X1.434 Y3.7134 Z-0.3036
N11225 X1.4318 Y3.7147 Z-0.3037
N11230 X1.4296 Y3.7158 Z-0.3038
N11235 X1.4274 Y3.7169 Z-0.3039
N11240 X1.4228 Y3.7189 Z-0.3041
N11245 X1.4204 Y3.7197 Z-0.3042
N11250 X1.418 Y3.7205
N11255 X1.4156 Y3.7211 Z-0.3043
N11260 X1.4132 Y3.7217 Z-0.3044
N11265 X1.4083 Y3.7226 Z-0.3046
N11270 X1.4058 Y3.7229 Z-0.3047
N11275 X1.4033 Y3.723 Z-0.3048
N11280 X1.4008 Y3.7232 Z-0.3049
N11285 X1.3983
N11290 X1.3934 Y3.7229 Z-0.3051
N11295 X1.3909 Y3.7227 Z-0.3052
N11300 X1.3884 Y3.7223 Z-0.3053
N11305 X1.386 Y3.7218 Z-0.3054
N11310 X1.3835 Y3.7213 Z-0.3055
N11315 X1.3787 Y3.72 Z-0.3056
N11320 X1.3764 Y3.7191 Z-0.3057
N11325 X1.374 Y3.7182 Z-0.3058
N11330 X1.3718 Y3.7173 Z-0.3059
N11335 X1.3695 Y3.7162 Z-0.306
N11340 X1.3651 Y3.7138 Z-0.3062
N11345 X1.363 Y3.7125
N11350 X1.361 Y3.7111 Z-0.3063
N11355 X1.3589 Y3.7096 Z-0.3064
N11360 X1.357 Y3.7081 Z-0.3065
N11365 X1.3533 Y3.7048 Z-0.3067
N11370 X1.3515 Y3.7031 Z-0.3068
N11375 X1.3498 Y3.7013 Z-0.3069
N11380 X1.3482 Y3.6994
N11385 X1.3466 Y3.6974 Z-0.307
N11390 X1.3437 Y3.6934 Z-0.3072
N11395 X1.3424 Y3.6913 Z-0.3073
N11400 X1.3411 Y3.6892 Z-0.3074
N11405 X1.3399 Y3.687 Z-0.3075
N11410 X1.3388 Y3.6847
N11415 X1.3369 Y3.6802 Z-0.3077
N11420 X1.3361 Y3.6778 Z-0.3078
N11425 X1.3353 Y3.6754 Z-0.3079
N11430 X1.3347 Y3.673 Z-0.308
N11435 X1.3341 Y3.6706 Z-0.3081
N11440 X1.3332 Y3.6657 Z-0.3082
N11445 X1.3329 Y3.6633 Z-0.3083
N11450 X1.3328 Y3.6608 Z-0.3084
N11455 X1.3326 Y3.6583 Z-0.3085
N11460 Y3.6558 Z-0.3086
N11465 X1.3329 Y3.6509 Z-0.3088
N11470 X1.3331 Y3.6484
N11475 X1.3335 Y3.646 Z-0.3089
N11480 X1.3339 Y3.6435 Z-0.309
N11485 X1.3345 Y3.6411 Z-0.3091
N11490 X1.3358 Y3.6363 Z-0.3093
N11495 X1.3366 Y3.634 Z-0.3094
N11500 X1.3375 Y3.6317 Z-0.3095
N11505 X1.3385 Y3.6294
N11510 X1.3396 Y3.6272 Z-0.3096
N11515 X1.3419 Y3.6228 Z-0.3098
N11520 X1.3432 Y3.6207 Z-0.3099
N11525 X1.3446 Y3.6186 Z-0.31
N11530 X1.3461 Y3.6166 Z-0.3101
N11535 X1.3476 Y3.6147
N11540 X1.3509 Y3.611 Z-0.3103
N11545 X1.3526 Y3.6092 Z-0.3104
N11550 X1.3545 Y3.6075 Z-0.3105
N11555 X1.3563 Y3.6059 Z-0.3106
N11560 X1.3582 Y3.6043 Z-0.3107
N11565 X1.3622 Y3.6014 Z-0.3108
N11570 X1.3643 Y3.6001 Z-0.3109
N11575 X1.3665 Y3.5989 Z-0.311
N11580 X1.3687 Y3.5977 Z-0.3111
N11585 X1.3709 Y3.5966 Z-0.3112
N11590 X1.3754 Y3.5947 Z-0.3114
N11595 X1.3778 Y3.5939
N11600 X1.3801 Y3.5931 Z-0.3115
N11605 X1.3825 Y3.5925 Z-0.3116
N11610 X1.3849 Y3.5919 Z-0.3117
N11615 X1.3898 Y3.591 Z-0.3119
N11620 X1.3922 Y3.5908 Z-0.312
N11625 X1.3947 Y3.5906
N11630 X1.3972 Y3.5904 Z-0.3121
N11635 X1.3997 Z-0.3122
N11640 X1.4046 Y3.5907 Z-0.3124
N11645 X1.407 Y3.5909 Z-0.3125
N11650 X1.4095 Y3.5913 Z-0.3126
N11655 X1.4119 Y3.5917
N11660 X1.4143 Y3.5923 Z-0.3127
N11665 X1.4191 Y3.5936 Z-0.3129
N11670 X1.4214 Y3.5944 Z-0.313
N11675 X1.4237 Y3.5953 Z-0.3131
N11680 X1.426 Y3.5963 Z-0.3132
N11685 X1.4282 Y3.5973 Z-0.3133
N11690 X1.4326 Y3.5997 Z-0.3134
N11695 X1.4346 Y3.601 Z-0.3135
N11700 X1.4367 Y3.6024 Z-0.3136
N11705 X1.4387 Y3.6038 Z-0.3137
N11710 X1.4406 Y3.6053 Z-0.3138
N11715 X1.4443 Y3.6086 Z-0.3139
N11720 X1.4461 Y3.6103 Z-0.314
N11725 X1.4478 Y3.6121 Z-0.3141
N11730 X1.4494 Y3.614 Z-0.3142
N11735 X1.4509 Y3.6159 Z-0.3143
N11740 X1.4538 Y3.6199 Z-0.3145
N11745 X1.4551 Y3.622
N11750 X1.4564 Y3.6241 Z-0.3146
N11755 X1.4575 Y3.6262 Z-0.3147
N11760 X1.4585 Y3.6284 Z-0.3148
N11765 X1.4604 Y3.6327 Z-0.315
N11770 X1.4605 Y3.6329
N11775 X1.4606 Y3.6332
N11780 X1.4607 Y3.6335
N11785 X1.4614 Y3.6354 Z-0.3151
N11790 X1.4621 Y3.6378
N11795 X1.4628 Y3.6403 Z-0.3152
N11800 X1.4634 Y3.6429 Z-0.3153
N11805 X1.4639 Y3.6454 Z-0.3154
N11810 X1.4642 Y3.6479 Z-0.3155
N11815 X1.4647 Y3.653 Z-0.3157
N11820 X1.4648 Y3.6556 Z-0.3158
N11825 X1.4647 Y3.6582 Z-0.3159
N11830 X1.4644 Y3.6633 Z-0.316
N11835 X1.4636 Y3.6685 Z-0.3162
N11840 X1.4625 Y3.6736 Z-0.3164
N11845 X1.4617 Y3.6761 Z-0.3165
N11850 X1.4609 Y3.6786 Z-0.3166
N11855 X1.4589 Y3.6834 Z-0.3168
N11860 X1.4566 Y3.6879 Z-0.3169
N11865 X1.454 Y3.6923 Z-0.3171
N11870 X1.4526 Y3.6945 Z-0.3172
N11875 X1.451 Y3.6966 Z-0.3173
N11880 X1.4494 Y3.6986 Z-0.3174
N11885 X1.4477 Y3.7005 Z-0.3175
N11890 X1.4459 Y3.7024 Z-0.3176
N11895 X1.4441 Y3.7042 Z-0.3177
N11900 X1.4403 Y3.7075 Z-0.3178
N11905 X1.4382 Y3.7091 Z-0.3179
N11910 X1.4361 Y3.7106 Z-0.318
N11915 X1.434 Y3.712 Z-0.3181
N11920 X1.4318 Y3.7133 Z-0.3182
N11925 X1.4295 Y3.7145 Z-0.3183
N11930 X1.4272 Y3.7157 Z-0.3184
N11935 X1.4225 Y3.7177 Z-0.3186
N11940 X1.42 Y3.7186 Z-0.3187
N11945 X1.4176 Y3.7193
N11950 X1.4151 Y3.72 Z-0.3188
N11955 X1.4125 Y3.7206 Z-0.3189
N11960 X1.41 Y3.7211 Z-0.319
N11965 X1.4075 Y3.7215 Z-0.3191
N11970 X1.4024 Y3.7219 Z-0.3193
N11975 X1.3998 Y3.722 Z-0.3194
N11980 X1.3972 Y3.7219 Z-0.3195
N11985 X1.3947 Y3.7218
N11990 X1.3921 Y3.7216 Z-0.3196
N11995 X1.3896 Y3.7213 Z-0.3197
N12000 X1.387 Y3.7208 Z-0.3198
N12005 X1.3821 Y3.7197 Z-0.32
N12010 X1.3796 Y3.719 Z-0.3201
N12015 X1.3771 Y3.7181 Z-0.3202
N12020 X1.3747 Y3.7172 Z-0.3203
N12025 X1.3723 Y3.7162 Z-0.3204
N12030 X1.37 Y3.7151
N12035 X1.3677 Y3.7139 Z-0.3205
N12040 X1.3633 Y3.7113 Z-0.3207
N12045 X1.3612 Y3.7098 Z-0.3208
N12050 X1.3592 Y3.7083 Z-0.3209
N12055 X1.3572 Y3.7067 Z-0.321
N12060 X1.3553 Y3.705 Z-0.3211
N12065 X1.3534 Y3.7033 Z-0.3212
N12070 X1.3516 Y3.7014
N12075 X1.3482 Y3.6976 Z-0.3214
N12080 X1.3467 Y3.6955 Z-0.3215
N12085 X1.3452 Y3.6935 Z-0.3216
N12090 X1.3438 Y3.6913 Z-0.3217
N12095 X1.3425 Y3.6891 Z-0.3218
N12100 X1.3412 Y3.6869 Z-0.3219
N12105 X1.3401 Y3.6846 Z-0.322
N12110 X1.3381 Y3.6798 Z-0.3221
N12115 X1.3372 Y3.6774 Z-0.3222
N12120 X1.3364 Y3.675 Z-0.3223
N12125 X1.3358 Y3.6725 Z-0.3224
N12130 X1.3352 Y3.67 Z-0.3225
N12135 X1.3347 Y3.6675 Z-0.3226
N12140 X1.3343 Y3.665 Z-0.3227
N12145 X1.3339 Y3.6599 Z-0.3229
N12150 X1.3338 Y3.6573
N12155 Y3.6548 Z-0.323
N12160 X1.334 Y3.6522 Z-0.3231
N12165 X1.3342 Y3.6496 Z-0.3232
N12170 X1.3345 Y3.6471 Z-0.3233
N12175 X1.3349 Y3.6446 Z-0.3234
N12180 X1.3361 Y3.6396 Z-0.3236
N12185 X1.3368 Y3.6372 Z-0.3237
N12190 X1.3376 Y3.6347 Z-0.3238
N12195 X1.3386 Y3.6323
N12200 X1.3396 Y3.6299 Z-0.3239
N12205 X1.3407 Y3.6276 Z-0.324
N12210 X1.3418 Y3.6254 Z-0.3241
N12215 X1.3445 Y3.621 Z-0.3243
N12220 X1.3459 Y3.6189 Z-0.3244
N12225 X1.3474 Y3.6169 Z-0.3245
N12230 X1.349 Y3.6149 Z-0.3246
N12235 X1.3507 Y3.613
N12240 X1.3524 Y3.6111 Z-0.3247
N12245 X1.3542 Y3.6093 Z-0.3248
N12250 X1.3581 Y3.6059 Z-0.325
N12255 X1.3601 Y3.6044 Z-0.3251
N12260 X1.3622 Y3.6029 Z-0.3252
N12265 X1.3643 Y3.6015 Z-0.3253
N12270 X1.3665 Y3.6002 Z-0.3254
N12275 X1.3688 Y3.599
N12280 X1.3711 Y3.5978 Z-0.3255
N12285 X1.3758 Y3.5958 Z-0.3257
N12290 X1.3782 Y3.595 Z-0.3258
N12295 X1.3806 Y3.5942 Z-0.3259
N12300 X1.3831 Y3.5936 Z-0.326
N12305 X1.3856 Y3.593 Z-0.3261
N12310 X1.388 Y3.5925 Z-0.3262
N12315 X1.3906 Y3.5921
N12320 X1.3956 Y3.5917 Z-0.3264
N12325 X1.3982 Y3.5916 Z-0.3265
N12330 X1.4007 Z-0.3266
N12335 X1.4033 Y3.5918 Z-0.3267
N12340 X1.4058 Y3.592 Z-0.3268
N12345 X1.4083 Y3.5923 Z-0.3269
N12350 X1.4108 Y3.5927 Z-0.327
N12355 X1.4158 Y3.5939 Z-0.3271
N12360 X1.4182 Y3.5946 Z-0.3272
N12365 X1.4207 Y3.5954 Z-0.3273
N12370 X1.4231 Y3.5963 Z-0.3274
N12375 X1.4254 Y3.5973 Z-0.3275
N12380 X1.4277 Y3.5984 Z-0.3276
N12385 X1.43 Y3.5996 Z-0.3277
N12390 X1.4343 Y3.6022 Z-0.3278
N12395 X1.4364 Y3.6036 Z-0.3279
N12400 X1.4384 Y3.6051 Z-0.328
N12405 X1.4404 Y3.6067 Z-0.3281
N12410 X1.4423 Y3.6084 Z-0.3282
N12415 X1.4442 Y3.6101 Z-0.3283
N12420 X1.446 Y3.6119 Z-0.3284
N12425 X1.4493 Y3.6158 Z-0.3286
N12430 X1.4509 Y3.6178
N12435 X1.4523 Y3.6199 Z-0.3287
N12440 X1.4537 Y3.622 Z-0.3288
N12445 X1.455 Y3.6242 Z-0.3289
N12450 X1.4563 Y3.6264 Z-0.329
N12455 X1.4574 Y3.6287 Z-0.3291
N12460 X1.4594 Y3.6333 Z-0.3293
N12465 X1.4602 Y3.6357 Z-0.3294
N12470 X1.461 Y3.6382
N12475 X1.4617 Y3.6406 Z-0.3295
N12480 X1.4622 Y3.6431 Z-0.3296
N12485 X1.4627 Y3.6456 Z-0.3297
N12490 X1.4631 Y3.6481 Z-0.3298
N12495 X1.4635 Y3.6531 Z-0.33
N12500 X1.4636 Y3.6556 Z-0.3301
N12505 Y3.6582
N12510 X1.4632 Y3.6632 Z-0.3303
N12515 X1.4624 Y3.6683 Z-0.3305
N12520 X1.4613 Y3.6733 Z-0.3307
N12525 X1.4606 Y3.6757 Z-0.3308
N12530 X1.4598 Y3.6781 Z-0.3309
N12535 X1.4578 Y3.6829 Z-0.331
N12540 X1.4556 Y3.6874 Z-0.3312
N12545 X1.4531 Y3.6917 Z-0.3314
N12550 X1.4516 Y3.6938 Z-0.3315
N12555 X1.4501 Y3.6958 Z-0.3316
N12560 X1.4485 Y3.6978 Z-0.3317
N12565 X1.4468 Y3.6997
N12570 X1.4451 Y3.7015 Z-0.3318
N12575 X1.4433 Y3.7033 Z-0.3319
N12580 X1.4395 Y3.7066 Z-0.3321
N12585 X1.4375 Y3.7081 Z-0.3322
N12590 X1.4355 Y3.7096 Z-0.3323
N12595 X1.4333 Y3.711 Z-0.3324
N12600 X1.4312 Y3.7123
N12605 X1.429 Y3.7135 Z-0.3325
N12610 X1.4267 Y3.7146 Z-0.3326
N12615 X1.422 Y3.7166 Z-0.3328
N12620 X1.4196 Y3.7175 Z-0.3329
N12625 X1.4172 Y3.7182 Z-0.333
N12630 X1.4148 Y3.7189 Z-0.3331
N12635 X1.4123 Y3.7194 Z-0.3332
N12640 X1.4098 Y3.7199
N12645 X1.4074 Y3.7203 Z-0.3333
N12650 X1.4023 Y3.7207 Z-0.3335
N12655 X1.3998 Y3.7208 Z-0.3336
N12660 X1.3973 Z-0.3337
N12665 X1.3947 Y3.7206 Z-0.3338
N12670 X1.3922 Y3.7204 Z-0.3339
N12675 X1.3897 Y3.7201
N12680 X1.3872 Y3.7197 Z-0.334
N12685 X1.3823 Y3.7186 Z-0.3342
N12690 X1.3799 Y3.7178 Z-0.3343
N12695 X1.3775 Y3.717 Z-0.3344
N12700 X1.3751 Y3.7161 Z-0.3345
N12705 X1.3728 Y3.7151 Z-0.3346
N12710 X1.3705 Y3.7141
N12715 X1.3683 Y3.7129 Z-0.3347
N12720 X1.364 Y3.7103 Z-0.3349
N12725 X1.3619 Y3.7089 Z-0.335
N12730 X1.3599 Y3.7074 Z-0.3351
N12735 X1.3579 Y3.7058 Z-0.3352
N12740 X1.356 Y3.7042 Z-0.3353
N12745 X1.3542 Y3.7024 Z-0.3354
N12750 X1.3524 Y3.7006
N12755 X1.3491 Y3.6968 Z-0.3356
N12760 X1.3476 Y3.6948 Z-0.3357
N12765 X1.3461 Y3.6928 Z-0.3358
N12770 X1.3448 Y3.6907 Z-0.3359
N12775 X1.3435 Y3.6885 Z-0.336
N12780 X1.3423 Y3.6863 Z-0.3361
N12785 X1.3411 Y3.6841
N12790 X1.3392 Y3.6794 Z-0.3363
N12795 X1.3383 Y3.677 Z-0.3364
N12800 X1.3376 Y3.6746 Z-0.3365
N12805 X1.3369 Y3.6722 Z-0.3366
N12810 X1.3363 Y3.6698 Z-0.3367
N12815 X1.3359 Y3.6673 Z-0.3368
N12820 X1.3355 Y3.6648
N12825 X1.3351 Y3.6598 Z-0.337
N12830 X1.335 Y3.6573 Z-0.3371
N12835 Y3.6548 Z-0.3372
N12840 X1.3351 Y3.6523 Z-0.3373
N12845 X1.3354 Y3.6498 Z-0.3374
N12850 X1.3357 Y3.6473 Z-0.3375
N12855 X1.3361 Y3.6448
N12860 X1.3372 Y3.6399 Z-0.3377
N12865 X1.3379 Y3.6375 Z-0.3378
N12870 X1.3387 Y3.6351 Z-0.3379
N12875 X1.3396 Y3.6328 Z-0.338
N12880 X1.3406 Y3.6304 Z-0.3381
N12885 X1.3417 Y3.6282 Z-0.3382
N12890 X1.3429 Y3.6259
N12895 X1.3454 Y3.6216 Z-0.3384
N12900 X1.3468 Y3.6196 Z-0.3385
N12905 X1.3483 Y3.6176 Z-0.3386
N12910 X1.3499 Y3.6156 Z-0.3387
N12915 X1.3515 Y3.6137 Z-0.3388
N12920 X1.3533 Y3.6119 Z-0.3389
N12925 X1.3551 Y3.6102
N12930 X1.3588 Y3.6069 Z-0.3391
N12935 X1.3608 Y3.6053 Z-0.3392
N12940 X1.3629 Y3.6039 Z-0.3393
N12945 X1.365 Y3.6025 Z-0.3394
N12950 X1.3671 Y3.6012 Z-0.3395
N12955 X1.3693 Y3.6 Z-0.3396
N12960 X1.3716 Y3.5989
N12965 X1.3762 Y3.5969 Z-0.3398
N12970 X1.3785 Y3.5961 Z-0.3399
N12975 X1.3809 Y3.5953 Z-0.34
N12980 X1.3833 Y3.5947 Z-0.3401
N12985 X1.3858 Y3.5941 Z-0.3402
N12990 X1.3882 Y3.5937 Z-0.3403
N12995 X1.3907 Y3.5933
N13000 X1.3957 Y3.5929 Z-0.3405
N13005 X1.3982 Y3.5928 Z-0.3406
N13010 X1.4007 Z-0.3407
N13015 X1.4032 Y3.5929 Z-0.3408
N13020 X1.4057 Y3.5932 Z-0.3409
N13025 X1.4082 Y3.5935 Z-0.341
N13030 X1.4106 Y3.5939
N13035 X1.4155 Y3.595 Z-0.3412
N13040 X1.4179 Y3.5957 Z-0.3413
N13045 X1.4203 Y3.5965 Z-0.3414
N13050 X1.4226 Y3.5974 Z-0.3415
N13055 X1.4249 Y3.5984 Z-0.3416
N13060 X1.4272 Y3.5995 Z-0.3417
N13065 X1.4294 Y3.6006
N13070 X1.4337 Y3.6032 Z-0.3419
N13075 X1.4357 Y3.6046 Z-0.342
N13080 X1.4377 Y3.6061 Z-0.3421
N13085 X1.4397 Y3.6076 Z-0.3422
N13090 X1.4415 Y3.6093 Z-0.3423
N13095 X1.4434 Y3.611 Z-0.3424
N13100 X1.4451 Y3.6128
N13105 X1.4484 Y3.6165 Z-0.3426
N13110 X1.4499 Y3.6185 Z-0.3427
N13115 X1.4514 Y3.6205 Z-0.3428
N13120 X1.4527 Y3.6226 Z-0.3429
N13125 X1.454 Y3.6248 Z-0.343
N13130 X1.4552 Y3.627
N13135 X1.4563 Y3.6292 Z-0.3431
N13140 X1.4583 Y3.6338 Z-0.3433
N13145 X1.4591 Y3.6361 Z-0.3434
N13150 X1.4598 Y3.6385 Z-0.3435
N13155 X1.4605 Y3.6409 Z-0.3436
N13160 X1.4611 Y3.6433 Z-0.3437
N13165 X1.4615 Y3.6458
N13170 X1.4619 Y3.6482 Z-0.3438
N13175 X1.4623 Y3.6532 Z-0.344
N13180 X1.4624 Y3.6557 Z-0.3441
N13185 X1.4623 Y3.6582 Z-0.3442
N13190 X1.462 Y3.6631 Z-0.3444
N13195 X1.4613 Y3.6681 Z-0.3445
N13200 X1.4602 Y3.6729 Z-0.3447
N13205 X1.4594 Y3.6753 Z-0.3448
N13210 X1.4587 Y3.6777 Z-0.3449
N13215 X1.4568 Y3.6823 Z-0.345
N13220 X1.4546 Y3.6867 Z-0.3452
N13225 X1.452 Y3.691 Z-0.3454
N13230 X1.4506 Y3.6931 Z-0.3455
N13235 X1.4491 Y3.6951 Z-0.3456
N13240 X1.4476 Y3.697 Z-0.3457
N13245 X1.446 Y3.6989
N13250 X1.4443 Y3.7007 Z-0.3458
N13255 X1.4425 Y3.7024 Z-0.3459
N13260 X1.4387 Y3.7057 Z-0.3461
N13265 X1.4368 Y3.7072 Z-0.3462
N13270 X1.4348 Y3.7086 Z-0.3463
N13275 X1.4327 Y3.71
N13280 X1.4306 Y3.7112 Z-0.3464
N13285 X1.4284 Y3.7124 Z-0.3465
N13290 X1.4262 Y3.7135 Z-0.3466
N13295 X1.4216 Y3.7155 Z-0.3468
N13300 X1.4193 Y3.7163 Z-0.3469
N13305 X1.4169 Y3.717 Z-0.347
N13310 X1.4145 Y3.7177
N13315 X1.4121 Y3.7182 Z-0.3471
N13320 X1.4096 Y3.7187 Z-0.3472
N13325 X1.4072 Y3.7191 Z-0.3473
N13330 X1.4023 Y3.7195 Z-0.3475
N13335 X1.3998 Y3.7196 Z-0.3476
N13340 X1.3973 Y3.7195
N13345 X1.3948 Y3.7194 Z-0.3477
N13350 X1.3924 Y3.7192 Z-0.3478
N13355 X1.3899 Y3.7189 Z-0.3479
N13360 X1.3875 Y3.7185 Z-0.348
N13365 X1.3826 Y3.7174 Z-0.3482
N13370 X1.3803 Y3.7167
N13375 X1.3779 Y3.7159 Z-0.3483
N13380 X1.3756 Y3.715 Z-0.3484
N13385 X1.3733 Y3.714 Z-0.3485
N13390 X1.3711 Y3.713 Z-0.3486
N13395 X1.3689 Y3.7118 Z-0.3487
N13400 X1.3647 Y3.7093 Z-0.3489
N13405 X1.3626 Y3.7079
N13410 X1.3606 Y3.7064 Z-0.349
N13415 X1.3587 Y3.7049 Z-0.3491
N13420 X1.3569 Y3.7032 Z-0.3492
N13425 X1.3551 Y3.7015 Z-0.3493
N13430 X1.3533 Y3.6998 Z-0.3494
N13435 X1.3501 Y3.6961 Z-0.3495
N13440 X1.3486 Y3.6941 Z-0.3496
N13445 X1.3472 Y3.6921 Z-0.3497
N13450 X1.3458 Y3.69 Z-0.3498
N13455 X1.3445 Y3.6879 Z-0.3499
N13460 X1.3434 Y3.6857 Z-0.35
N13465 X1.3423 Y3.6835 Z-0.3501
N13470 X1.3403 Y3.679 Z-0.3502
N13475 X1.3395 Y3.6767 Z-0.3503
N13480 X1.3388 Y3.6743 Z-0.3504
N13485 X1.3381 Y3.6719 Z-0.3505
N13490 X1.3376 Y3.6695 Z-0.3506
N13495 X1.3371 Y3.6671 Z-0.3507
N13500 X1.3367 Y3.6647
N13505 X1.3363 Y3.6597 Z-0.3509
N13510 X1.3362 Y3.6573 Z-0.351
N13515 X1.3363 Y3.6548 Z-0.3511
N13520 X1.3364 Y3.6524 Z-0.3512
N13525 X1.3366 Y3.6499 Z-0.3513
N13530 X1.3369 Y3.6475
N13535 X1.3373 Y3.645 Z-0.3514
N13540 X1.3384 Y3.6402 Z-0.3516
N13545 X1.3391 Y3.6379 Z-0.3517
N13550 X1.3399 Y3.6355 Z-0.3518
N13555 X1.3408 Y3.6332 Z-0.3519
N13560 X1.3418 Y3.631
N13565 X1.3428 Y3.6287 Z-0.352
N13570 X1.344 Y3.6266 Z-0.3521
N13575 X1.3465 Y3.6223 Z-0.3523
N13580 X1.3479 Y3.6203 Z-0.3524
N13585 X1.3493 Y3.6183 Z-0.3525
N13590 X1.3509 Y3.6164
N13595 X1.3525 Y3.6146 Z-0.3526
N13600 X1.3542 Y3.6128 Z-0.3527
N13605 X1.3559 Y3.6111 Z-0.3528
N13610 X1.3596 Y3.6078 Z-0.353
N13615 X1.3616 Y3.6063 Z-0.3531
N13620 X1.3636 Y3.6049
N13625 X1.3657 Y3.6036 Z-0.3532
N13630 X1.3678 Y3.6023 Z-0.3533
N13635 X1.3699 Y3.6011 Z-0.3534
N13640 X1.3721 Y3.6 Z-0.3535
N13645 X1.3766 Y3.5981 Z-0.3537
N13650 X1.3789 Y3.5973
N13655 X1.3813 Y3.5966 Z-0.3538
N13660 X1.3837 Y3.5959 Z-0.3539
N13665 X1.386 Y3.5954 Z-0.354
N13670 X1.3883 Y3.5949 Z-0.3541
N13675 X1.3906 Y3.5946 Z-0.3542
N13680 X1.3952 Y3.5942 Z-0.3543
N13685 X1.3954
N13690 X1.396 Y3.5941 Z-0.3544
N13695 X1.3967
N13700 X1.398
N13705 X1.4006 Z-0.3545
N13710 X1.4032 Y3.5942 Z-0.3546
N13715 X1.4058 Y3.5945 Z-0.3547
N13720 X1.4083 Y3.5948 Z-0.3548
N13725 X1.4109 Y3.5952 Z-0.3549
N13730 X1.4134 Y3.5958 Z-0.355
N13735 X1.4158 Y3.5964 Z-0.3551
N13740 X1.4207 Y3.598 Z-0.3552
N13745 X1.4231 Y3.599 Z-0.3553
N13750 X1.4255 Y3.6 Z-0.3554
N13755 X1.4278 Y3.6012 Z-0.3555
N13760 X1.43 Y3.6024 Z-0.3556
N13765 X1.4322 Y3.6038 Z-0.3557
N13770 X1.4344 Y3.6052 Z-0.3558
N13775 X1.4364 Y3.6067 Z-0.3559
N13780 X1.4385 Y3.6083
N13785 X1.4404 Y3.61 Z-0.356
N13790 X1.4423 Y3.6117 Z-0.3561
N13795 X1.4459 Y3.6155 Z-0.3563
N13800 X1.4475 Y3.6175 Z-0.3564
N13805 X1.4491 Y3.6195 Z-0.3565
N13810 X1.4506 Y3.6216 Z-0.3566
N13815 X1.452 Y3.6238 Z-0.3567
N13820 X1.4533 Y3.626 Z-0.3568
N13825 X1.4545 Y3.6283
N13830 X1.4556 Y3.6306 Z-0.3569
N13835 X1.4566 Y3.633 Z-0.357
N13840 X1.4575 Y3.6354 Z-0.3571
N13845 X1.4583 Y3.6378 Z-0.3572
N13850 X1.459 Y3.6403 Z-0.3573
N13855 X1.4597 Y3.6428 Z-0.3574
N13860 X1.4606 Y3.6479 Z-0.3576
N13865 X1.4609 Y3.6505 Z-0.3577
N13870 X1.461 Y3.653
N13875 X1.4611 Y3.6556 Z-0.3578
N13880 Y3.6581 Z-0.3579
N13885 X1.4607 Y3.6632 Z-0.3581
N13890 X1.4599 Y3.6683 Z-0.3583
N13895 X1.4594 Y3.6708 Z-0.3584
N13900 X1.4587 Y3.6734 Z-0.3585
N13905 X1.4571 Y3.6783 Z-0.3586
N13910 X1.4551 Y3.6829 Z-0.3588
N13915 X1.4527 Y3.6874 Z-0.359
N13920 X1.4514 Y3.6896 Z-0.3591
N13925 X1.45 Y3.6917 Z-0.3592
N13930 X1.4485 Y3.6938 Z-0.3593
N13935 X1.4469 Y3.6958 Z-0.3594
N13940 X1.4452 Y3.6978
N13945 X1.4435 Y3.6997 Z-0.3595
N13950 X1.4416 Y3.7015 Z-0.3596
N13955 X1.4397 Y3.7032 Z-0.3597
N13960 X1.4358 Y3.7063 Z-0.3599
N13965 X1.4337 Y3.7078 Z-0.36
N13970 X1.4316 Y3.7091 Z-0.3601
N13975 X1.4294 Y3.7105 Z-0.3602
N13980 X1.427 Y3.7117
N13985 X1.4247 Y3.7128 Z-0.3603
N13990 X1.4223 Y3.7138 Z-0.3604
N13995 X1.4199 Y3.7147 Z-0.3605
N14000 X1.4175 Y3.7155 Z-0.3606
N14005 X1.4151 Y3.7162 Z-0.3607
N14010 X1.4126 Y3.7168 Z-0.3608
N14015 X1.4076 Y3.7177 Z-0.361
N14020 X1.4051 Y3.718 Z-0.3611
N14025 X1.4025 Y3.7182
N14030 X1.4 Y3.7183 Z-0.3612
N14035 X1.3974 Z-0.3613
N14040 X1.3948 Y3.7182 Z-0.3614
N14045 X1.3923 Y3.7179 Z-0.3615
N14050 X1.3897 Y3.7176 Z-0.3616
N14055 X1.3872 Y3.7171 Z-0.3617
N14060 X1.3848 Y3.7166 Z-0.3618
N14065 X1.3823 Y3.716 Z-0.3619
N14070 X1.3775 Y3.7144 Z-0.362
N14075 X1.3751 Y3.7134 Z-0.3621
N14080 X1.3728 Y3.7124 Z-0.3622
N14085 X1.3705 Y3.7112 Z-0.3623
N14090 X1.3682 Y3.71 Z-0.3624
N14095 X1.3661 Y3.7087 Z-0.3625
N14100 X1.3639 Y3.7072 Z-0.3626
N14105 X1.3619 Y3.7058 Z-0.3627
N14110 X1.3599 Y3.7042
N14115 X1.358 Y3.7025 Z-0.3628
N14120 X1.3561 Y3.7008 Z-0.3629
N14125 X1.3543 Y3.699 Z-0.363
N14130 X1.3526 Y3.6971 Z-0.3631
N14135 X1.3494 Y3.6931 Z-0.3633
N14140 X1.348 Y3.691 Z-0.3634
N14145 X1.3466 Y3.6889 Z-0.3635
N14150 X1.3453 Y3.6867
N14155 X1.3441 Y3.6844 Z-0.3636
N14160 X1.343 Y3.6821 Z-0.3637
N14165 X1.342 Y3.6798 Z-0.3638
N14170 X1.3411 Y3.6774 Z-0.3639
N14175 X1.3403 Y3.675 Z-0.364
N14180 X1.3396 Y3.6725 Z-0.3641
N14185 X1.339 Y3.67 Z-0.3642
N14190 X1.3381 Y3.665 Z-0.3643
N14195 X1.3378 Y3.6625 Z-0.3644
N14200 X1.3376 Y3.66 Z-0.3645
N14205 X1.3375 Y3.6574 Z-0.3646
N14210 Y3.6549 Z-0.3647
N14215 X1.3377 Y3.6524 Z-0.3648
N14220 X1.3379 Y3.6499 Z-0.3649
N14225 X1.3382 Y3.6474 Z-0.365
N14230 X1.3387 Y3.6449
N14235 X1.3392 Y3.6424 Z-0.3651
N14240 X1.3399 Y3.6399 Z-0.3652
N14245 X1.3415 Y3.635 Z-0.3654
N14250 X1.3424 Y3.6327 Z-0.3655
N14255 X1.3434 Y3.6304 Z-0.3656
N14260 X1.3446 Y3.6281 Z-0.3657
N14265 X1.3458 Y3.6259 Z-0.3658
N14270 X1.3471 Y3.6237
N14275 X1.3485 Y3.6216 Z-0.3659
N14280 X1.35 Y3.6196 Z-0.366
N14285 X1.3516 Y3.6176 Z-0.3661
N14290 X1.3533 Y3.6156 Z-0.3662
N14295 X1.355 Y3.6138 Z-0.3663
N14300 X1.3568 Y3.612 Z-0.3664
N14305 X1.3587 Y3.6103 Z-0.3665
N14310 X1.3627 Y3.6071 Z-0.3666
N14315 X1.3647 Y3.6057 Z-0.3667
N14320 X1.3669 Y3.6043 Z-0.3668
N14325 X1.369 Y3.6031 Z-0.3669
N14330 X1.3713 Y3.6019 Z-0.367
N14335 X1.3735 Y3.6008 Z-0.3671
N14340 X1.3758 Y3.5998 Z-0.3672
N14345 X1.3782 Y3.5989 Z-0.3673
N14350 X1.3806 Y3.5981 Z-0.3674
N14355 X1.3831 Y3.5974
N14360 X1.3855 Y3.5968 Z-0.3675
N14365 X1.3905 Y3.5959 Z-0.3677
N14370 X1.393 Y3.5956 Z-0.3678
N14375 X1.3955 Y3.5954 Z-0.3679
N14380 X1.398 Z-0.368
N14385 X1.4006 Z-0.3681
N14390 X1.4031 Y3.5955
N14395 X1.4057 Y3.5957 Z-0.3682
N14400 X1.4081 Y3.5961 Z-0.3683
N14405 X1.4106 Y3.5965 Z-0.3684
N14410 X1.4131 Y3.597 Z-0.3685
N14415 X1.4155 Y3.5977 Z-0.3686
N14420 X1.4203 Y3.5992 Z-0.3688
N14425 X1.4226 Y3.6002
N14430 X1.4249 Y3.6012 Z-0.3689
N14435 X1.4272 Y3.6023 Z-0.369
N14440 X1.4294 Y3.6036 Z-0.3691
N14445 X1.4316 Y3.6049 Z-0.3692
N14450 X1.4336 Y3.6063 Z-0.3693
N14455 X1.4357 Y3.6077 Z-0.3694
N14460 X1.4377 Y3.6093 Z-0.3695
N14465 X1.4396 Y3.611 Z-0.3696
N14470 X1.4414 Y3.6127
N14475 X1.4449 Y3.6163 Z-0.3698
N14480 X1.4465 Y3.6183 Z-0.3699
N14485 X1.448 Y3.6203 Z-0.37
N14490 X1.4495 Y3.6224 Z-0.3701
N14495 X1.4509 Y3.6245 Z-0.3702
N14500 X1.4521 Y3.6267 Z-0.3703
N14505 X1.4533 Y3.6289
N14510 X1.4544 Y3.6312 Z-0.3704
N14515 X1.4554 Y3.6335 Z-0.3705
N14520 X1.4563 Y3.6358 Z-0.3706
N14525 X1.4571 Y3.6382 Z-0.3707
N14530 X1.4578 Y3.6406 Z-0.3708
N14535 X1.4584 Y3.6431 Z-0.3709
N14540 X1.4593 Y3.6481 Z-0.371
N14545 X1.4596 Y3.6506 Z-0.3711
N14550 X1.4597 Y3.6531 Z-0.3712
N14555 X1.4598 Y3.6556 Z-0.3713
N14560 Y3.6581 Z-0.3714
N14565 X1.4594 Y3.6631 Z-0.3716
N14570 X1.4586 Y3.6681 Z-0.3717
N14575 X1.4581 Y3.6705 Z-0.3718
N14580 X1.4575 Y3.673 Z-0.3719
N14585 X1.4559 Y3.6778 Z-0.3721
N14590 X1.4539 Y3.6823 Z-0.3723
N14595 X1.4516 Y3.6867 Z-0.3724
N14600 X1.4503 Y3.6889 Z-0.3725
N14605 X1.4489 Y3.691 Z-0.3726
N14610 X1.4475 Y3.693 Z-0.3727
N14615 X1.4459 Y3.695 Z-0.3728
N14620 X1.4442 Y3.6969 Z-0.3729
N14625 X1.4425 Y3.6988 Z-0.373
N14630 X1.4407 Y3.7005 Z-0.3731
N14635 X1.4389 Y3.7022 Z-0.3732
N14640 X1.435 Y3.7053 Z-0.3733
N14645 X1.433 Y3.7067 Z-0.3734
N14650 X1.4309 Y3.708 Z-0.3735
N14655 X1.4287 Y3.7093 Z-0.3736
N14660 X1.4264 Y3.7105 Z-0.3737
N14665 X1.4242 Y3.7116 Z-0.3738
N14670 X1.4218 Y3.7126 Z-0.3739
N14675 X1.4195 Y3.7135
N14680 X1.4171 Y3.7143 Z-0.374
N14685 X1.4147 Y3.715 Z-0.3741
N14690 X1.4123 Y3.7156 Z-0.3742
N14695 X1.4074 Y3.7164 Z-0.3744
N14700 X1.4049 Y3.7167 Z-0.3745
N14705 X1.4024 Y3.7169
N14710 X1.3999 Y3.717 Z-0.3746
N14715 X1.3974 Z-0.3747
N14720 X1.3949 Y3.7168 Z-0.3748
N14725 X1.3924 Y3.7166 Z-0.3749
N14730 X1.3899 Y3.7163 Z-0.375
N14735 X1.3875 Y3.7158 Z-0.3751
N14740 X1.3851 Y3.7153 Z-0.3752
N14745 X1.3827 Y3.7147
N14750 X1.3779 Y3.7131 Z-0.3754
N14755 X1.3756 Y3.7122 Z-0.3755
N14760 X1.3733 Y3.7112 Z-0.3756
N14765 X1.3711 Y3.7101 Z-0.3757
N14770 X1.3689 Y3.7088 Z-0.3758
N14775 X1.3668 Y3.7075 Z-0.3759
N14780 X1.3647 Y3.7062
N14785 X1.3627 Y3.7047 Z-0.376
N14790 X1.3607 Y3.7032 Z-0.3761
N14795 X1.3588 Y3.7015 Z-0.3762
N14800 X1.357 Y3.6998 Z-0.3763
N14805 X1.3553 Y3.6981 Z-0.3764
N14810 X1.3536 Y3.6962 Z-0.3765
N14815 X1.3505 Y3.6923 Z-0.3766
N14820 X1.349 Y3.6903 Z-0.3767
N14825 X1.3477 Y3.6882 Z-0.3768
N14830 X1.3464 Y3.686 Z-0.3769
N14835 X1.3453 Y3.6838 Z-0.377
N14840 X1.3442 Y3.6816 Z-0.3771
N14845 X1.3432 Y3.6793 Z-0.3772
N14850 X1.3423 Y3.6769
N14855 X1.3416 Y3.6746 Z-0.3773
N14860 X1.3409 Y3.6722 Z-0.3774
N14865 X1.3403 Y3.6697 Z-0.3775
N14870 X1.3394 Y3.6648 Z-0.3777
N14875 X1.3391 Y3.6624 Z-0.3778
N14880 X1.3389 Y3.6599 Z-0.3779
N14885 X1.3388 Y3.6574
N14890 X1.3389 Y3.6549 Z-0.378
N14895 X1.339 Y3.6525 Z-0.3781
N14900 X1.3392 Y3.65 Z-0.3782
N14905 X1.3395 Y3.6475 Z-0.3783
N14910 X1.34 Y3.6451 Z-0.3784
N14915 X1.3405 Y3.6427 Z-0.3785
N14920 X1.3411 Y3.6402
N14925 X1.3427 Y3.6355 Z-0.3787
N14930 X1.3436 Y3.6332 Z-0.3788
N14935 X1.3446 Y3.6309 Z-0.3789
N14940 X1.3457 Y3.6287 Z-0.379
N14945 X1.347 Y3.6265 Z-0.3791
N14950 X1.3482 Y3.6244 Z-0.3792
N14955 X1.3496 Y3.6224
N14960 X1.3511 Y3.6204 Z-0.3793
N14965 X1.3526 Y3.6184 Z-0.3794
N14970 X1.3542 Y3.6165 Z-0.3795
N14975 X1.3559 Y3.6147 Z-0.3796
N14980 X1.3577 Y3.613 Z-0.3797
N14985 X1.3595 Y3.6113 Z-0.3798
N14990 X1.3634 Y3.6082 Z-0.3799
N14995 X1.3655 Y3.6068 Z-0.38
N15000 X1.3676 Y3.6055 Z-0.3801
N15005 X1.3697 Y3.6042 Z-0.3802
N15010 X1.3719 Y3.6031 Z-0.3803
N15015 X1.3741 Y3.602 Z-0.3804
N15020 X1.3763 Y3.601 Z-0.3805
N15025 X1.3787 Y3.6002
N15030 X1.381 Y3.5994 Z-0.3806
N15035 X1.3834 Y3.5987 Z-0.3807
N15040 X1.3858 Y3.5981 Z-0.3808
N15045 X1.3907 Y3.5972 Z-0.381
N15050 X1.3931 Y3.5969 Z-0.3811
N15055 X1.3956 Y3.5967
N15060 X1.3981 Z-0.3812
N15065 X1.4005 Z-0.3813
N15070 X1.403 Y3.5968 Z-0.3814
N15075 X1.4055 Y3.597 Z-0.3815
N15080 X1.4079 Y3.5974 Z-0.3816
N15085 X1.4104 Y3.5978 Z-0.3817
N15090 X1.4128 Y3.5983
N15095 X1.4152 Y3.5989 Z-0.3818
N15100 X1.4199 Y3.6005 Z-0.382
N15105 X1.4221 Y3.6014 Z-0.3821
N15110 X1.4244 Y3.6024 Z-0.3822
N15115 X1.4266 Y3.6035 Z-0.3823
N15120 X1.4288 Y3.6047
N15125 X1.4309 Y3.606 Z-0.3824
N15130 X1.4329 Y3.6074 Z-0.3825
N15135 X1.4349 Y3.6088 Z-0.3826
N15140 X1.4369 Y3.6103 Z-0.3827
N15145 X1.4387 Y3.612 Z-0.3828
N15150 X1.4405 Y3.6136 Z-0.3829
N15155 X1.4439 Y3.6172 Z-0.383
N15160 X1.4455 Y3.6191 Z-0.3831
N15165 X1.447 Y3.6211 Z-0.3832
N15170 X1.4484 Y3.6231 Z-0.3833
N15175 X1.4497 Y3.6252 Z-0.3834
N15180 X1.451 Y3.6273 Z-0.3835
N15185 X1.4521 Y3.6295 Z-0.3836
N15190 X1.4532 Y3.6317
N15195 X1.4542 Y3.634 Z-0.3837
N15200 X1.455 Y3.6363 Z-0.3838
N15205 X1.4558 Y3.6386 Z-0.3839
N15210 X1.4565 Y3.641 Z-0.384
N15215 X1.4571 Y3.6434 Z-0.3841
N15220 X1.458 Y3.6482 Z-0.3842
N15225 X1.4582 Y3.6507 Z-0.3843
N15230 X1.4584 Y3.6531 Z-0.3844
N15235 X1.4585 Y3.6556 Z-0.3845
N15240 X1.4584 Y3.658 Z-0.3846
N15245 X1.4581 Y3.6629 Z-0.3848
N15250 X1.4574 Y3.6678 Z-0.3849
N15255 X1.4568 Y3.6702 Z-0.385
N15260 X1.4562 Y3.6726 Z-0.3851
N15265 X1.4546 Y3.6773 Z-0.3853
N15270 X1.4527 Y3.6818 Z-0.3854
N15275 X1.4505 Y3.6861 Z-0.3856
N15280 X1.4492 Y3.6882 Z-0.3857
N15285 X1.4478 Y3.6903 Z-0.3858
N15290 X1.4464 Y3.6923 Z-0.3859
N15295 X1.4449 Y3.6942 Z-0.386
N15300 X1.4433 Y3.696
N15305 X1.4416 Y3.6978 Z-0.3861
N15310 X1.4398 Y3.6996 Z-0.3862
N15315 X1.438 Y3.7012 Z-0.3863
N15320 X1.4342 Y3.7042 Z-0.3865
N15325 X1.4322 Y3.7056 Z-0.3866
N15330 X1.4301 Y3.707
N15335 X1.428 Y3.7082 Z-0.3867
N15340 X1.4258 Y3.7094 Z-0.3868
N15345 X1.4236 Y3.7104 Z-0.3869
N15350 X1.4214 Y3.7114 Z-0.387
N15355 X1.4191 Y3.7122 Z-0.3871
N15360 X1.4168 Y3.713 Z-0.3872
N15365 X1.4144 Y3.7137
N15370 X1.412 Y3.7143 Z-0.3873
N15375 X1.4072 Y3.7151 Z-0.3875
N15380 X1.4048 Y3.7154 Z-0.3876
N15385 X1.4024 Y3.7156 Z-0.3877
N15390 X1.3999 Y3.7157
N15395 X1.3975 Y3.7156 Z-0.3878
N15400 X1.395 Y3.7155 Z-0.3879
N15405 X1.3926 Y3.7153 Z-0.388
N15410 X1.3902 Y3.715 Z-0.3881
N15415 X1.3877 Y3.7146 Z-0.3882
N15420 X1.3854 Y3.714 Z-0.3883
N15425 X1.383 Y3.7134
N15430 X1.3784 Y3.7119 Z-0.3885
N15435 X1.3761 Y3.711 Z-0.3886
N15440 X1.3739 Y3.71 Z-0.3887
N15445 X1.3717 Y3.7089 Z-0.3888
N15450 X1.3695 Y3.7077 Z-0.3889
N15455 X1.3675 Y3.7064
N15460 X1.3654 Y3.7051 Z-0.389
N15465 X1.3635 Y3.7036 Z-0.3891
N15470 X1.3615 Y3.7021 Z-0.3892
N15475 X1.3597 Y3.7005 Z-0.3893
N15480 X1.3579 Y3.6989 Z-0.3894
N15485 X1.3562 Y3.6971 Z-0.3895
N15490 X1.3546 Y3.6953
N15495 X1.3515 Y3.6915 Z-0.3897
N15500 X1.3501 Y3.6895 Z-0.3898
N15505 X1.3488 Y3.6875 Z-0.3899
N15510 X1.3476 Y3.6853 Z-0.39
N15515 X1.3465 Y3.6832
N15520 X1.3454 Y3.681 Z-0.3901
N15525 X1.3445 Y3.6788 Z-0.3902
N15530 X1.3436 Y3.6765 Z-0.3903
N15535 X1.3428 Y3.6742 Z-0.3904
N15540 X1.3421 Y3.6718 Z-0.3905
N15545 X1.3416 Y3.6695 Z-0.3906
N15550 X1.3407 Y3.6647 Z-0.3907
N15555 X1.3404 Y3.6623 Z-0.3908
N15560 X1.3402 Y3.6598 Z-0.3909
N15565 Y3.6574 Z-0.391
N15570 Y3.655 Z-0.3911
N15575 X1.3403 Y3.6525 Z-0.3912
N15580 X1.3405 Y3.6501
N15585 X1.3409 Y3.6477 Z-0.3913
N15590 X1.3413 Y3.6453 Z-0.3914
N15595 X1.3418 Y3.6429 Z-0.3915
N15600 X1.3424 Y3.6406 Z-0.3916
N15605 X1.3439 Y3.636 Z-0.3917
N15610 X1.3448 Y3.6337 Z-0.3918
N15615 X1.3458 Y3.6315 Z-0.3919
N15620 X1.3469 Y3.6293 Z-0.392
N15625 X1.3481 Y3.6272 Z-0.3921
N15630 X1.3494 Y3.6251 Z-0.3922
N15635 X1.3507 Y3.6231 Z-0.3923
N15640 X1.3521 Y3.6212
N15645 X1.3536 Y3.6193 Z-0.3924
N15650 X1.3552 Y3.6174 Z-0.3925
N15655 X1.3569 Y3.6157 Z-0.3926
N15660 X1.3586 Y3.614 Z-0.3927
N15665 X1.3604 Y3.6123 Z-0.3928
N15670 X1.3642 Y3.6093 Z-0.3929
N15675 X1.3662 Y3.6079 Z-0.393
N15680 X1.3682 Y3.6066 Z-0.3931
N15685 X1.3703 Y3.6054 Z-0.3932
N15690 X1.3725 Y3.6043 Z-0.3933
N15695 X1.3746 Y3.6032 Z-0.3934
N15700 X1.3769 Y3.6023
N15705 X1.3803 Y3.601 Z-0.3936
N15710 X1.3821 Y3.6004
N15715 X1.3839 Y3.5999 Z-0.3937
N15720 X1.3841
N15725 X1.3853 Y3.5996
N15730 X1.3866 Y3.5993 Z-0.3938
N15735 X1.3891 Y3.5988 Z-0.3939
N15740 X1.3917 Y3.5984 Z-0.394
N15745 X1.3943 Y3.5982 Z-0.3941
N15750 X1.3969 Y3.598 Z-0.3942
N15755 X1.3995
N15760 X1.4021 Y3.5981 Z-0.3943
N15765 X1.4047 Y3.5983 Z-0.3944
N15770 X1.4073 Y3.5986 Z-0.3945
N15775 X1.4099 Y3.5991 Z-0.3946
N15780 X1.4125 Y3.5996 Z-0.3947
N15785 X1.4151 Y3.6003 Z-0.3948
N15790 X1.4176 Y3.6011 Z-0.3949
N15795 X1.42 Y3.602 Z-0.395
N15800 X1.4224 Y3.603 Z-0.3951
N15805 X1.4248 Y3.6041 Z-0.3952
N15810 X1.4271 Y3.6053
N15815 X1.4293 Y3.6066 Z-0.3953
N15820 X1.4315 Y3.608 Z-0.3954
N15825 X1.4337 Y3.6096 Z-0.3955
N15830 X1.4357 Y3.6112 Z-0.3956
N15835 X1.4377 Y3.6129 Z-0.3957
N15840 X1.4396 Y3.6147 Z-0.3958
N15845 X1.4415 Y3.6166 Z-0.3959
N15850 X1.4432 Y3.6185 Z-0.396
N15855 X1.4449 Y3.6205 Z-0.3961
N15860 X1.4464 Y3.6226 Z-0.3962
N15865 X1.4479 Y3.6248 Z-0.3963
N15870 X1.4493 Y3.627
N15875 X1.4505 Y3.6293 Z-0.3964
N15880 X1.4517 Y3.6317 Z-0.3965
N15885 X1.4527 Y3.6341 Z-0.3966
N15890 X1.4537 Y3.6365 Z-0.3967
N15895 X1.4545 Y3.639 Z-0.3968
N15900 X1.4552 Y3.6415 Z-0.3969
N15905 X1.4558 Y3.644 Z-0.397
N15910 X1.4563 Y3.6466 Z-0.3971
N15915 X1.4567 Y3.6492 Z-0.3972
N15920 X1.457 Y3.6519 Z-0.3973
N15925 X1.4571 Y3.6545 Z-0.3974
N15930 X1.457 Y3.6596 Z-0.3975
N15935 X1.4568 Y3.6622 Z-0.3976
N15940 X1.4565 Y3.6647 Z-0.3977
N15945 X1.4555 Y3.6699 Z-0.3979
N15950 X1.454 Y3.675 Z-0.3981
N15955 X1.4531 Y3.6774 Z-0.3982
N15960 X1.4521 Y3.6798 Z-0.3983
N15965 X1.4498 Y3.6845 Z-0.3984
N15970 X1.4485 Y3.6867 Z-0.3985
N15975 X1.4471 Y3.6889 Z-0.3986
N15980 X1.4456 Y3.691 Z-0.3987
N15985 X1.4441 Y3.693 Z-0.3988
N15990 X1.4424 Y3.695 Z-0.3989
N15995 X1.4406 Y3.6969 Z-0.399
N16000 X1.4387 Y3.6988 Z-0.3991
N16005 X1.4367 Y3.7005 Z-0.3992
N16010 X1.4347 Y3.7021 Z-0.3993
N16015 X1.4326 Y3.7037
N16020 X1.4305 Y3.7051 Z-0.3994
N16025 X1.4282 Y3.7065 Z-0.3995
N16030 X1.426 Y3.7077 Z-0.3996
N16035 X1.4236 Y3.7089 Z-0.3997
N16040 X1.4213 Y3.7099 Z-0.3998
N16045 X1.4188 Y3.7109 Z-0.3999
N16050 X1.4164 Y3.7117 Z-0.4
N16055 X1.4139 Y3.7124 Z-0.4001
N16060 X1.4114 Y3.713 Z-0.4002
N16065 X1.4088 Y3.7135 Z-0.4003
N16070 X1.4062 Y3.7139
N16075 X1.4036 Y3.7141 Z-0.4004
N16080 X1.401 Y3.7143 Z-0.4005
N16085 X1.3984 Z-0.4006
N16090 X1.3958 Y3.7142 Z-0.4007
N16095 X1.3933 Y3.714 Z-0.4008
N16100 X1.3907 Y3.7137 Z-0.4009
N16105 X1.3882 Y3.7132 Z-0.401
N16110 X1.3857 Y3.7127 Z-0.4011
N16115 X1.3832 Y3.712 Z-0.4012
N16120 X1.3807 Y3.7113
N16125 X1.3783 Y3.7104 Z-0.4013
N16130 X1.3759 Y3.7094 Z-0.4014
N16135 X1.3735 Y3.7083 Z-0.4015
N16140 X1.3713 Y3.7071 Z-0.4016
N16145 X1.369 Y3.7058 Z-0.4017
N16150 X1.3668 Y3.7044 Z-0.4018
N16155 X1.3647 Y3.7029 Z-0.4019
N16160 X1.3627 Y3.7013 Z-0.402
N16165 X1.3607 Y3.6996 Z-0.4021
N16170 X1.3588 Y3.6978
N16175 X1.357 Y3.696 Z-0.4022
N16180 X1.3553 Y3.694 Z-0.4023
N16185 X1.3536 Y3.692 Z-0.4024
N16190 X1.3521 Y3.6899 Z-0.4025
N16195 X1.3506 Y3.6878 Z-0.4026
N16200 X1.3493 Y3.6856 Z-0.4027
N16205 X1.348 Y3.6833 Z-0.4028
N16210 X1.3469 Y3.681 Z-0.4029
N16215 X1.3459 Y3.6786 Z-0.403
N16220 X1.3449 Y3.6762 Z-0.4031
N16225 X1.3441 Y3.6737
N16230 X1.3434 Y3.6712 Z-0.4032
N16235 X1.3428 Y3.6688 Z-0.4033
N16240 X1.3423 Y3.6662 Z-0.4034
N16245 X1.342 Y3.6637 Z-0.4035
N16250 X1.3417 Y3.6611 Z-0.4036
N16255 X1.3416 Y3.6585 Z-0.4037
N16260 X1.3415 Y3.6559 Z-0.4038
N16265 X1.3416 Y3.6533 Z-0.4039
N16270 X1.3418 Y3.6508 Z-0.404
N16275 X1.3422 Y3.6482
N16280 X1.3426 Y3.6457 Z-0.4041
N16285 X1.3431 Y3.6432 Z-0.4042
N16290 X1.3438 Y3.6408 Z-0.4043
N16295 X1.3446 Y3.6383 Z-0.4044
N16300 X1.3454 Y3.6359 Z-0.4045
N16305 X1.3464 Y3.6335 Z-0.4046
N16310 X1.3475 Y3.6312 Z-0.4047
N16315 X1.3487 Y3.6289 Z-0.4048
N16320 X1.35 Y3.6267
N16325 X1.3514 Y3.6245 Z-0.4049
N16330 X1.3529 Y3.6224 Z-0.405
N16335 X1.3545 Y3.6204 Z-0.4051
N16340 X1.3562 Y3.6184 Z-0.4052
N16345 X1.3579 Y3.6165 Z-0.4053
N16350 X1.3598 Y3.6147 Z-0.4054
N16355 X1.3617 Y3.613 Z-0.4055
N16360 X1.3637 Y3.6114 Z-0.4056
N16365 X1.3657 Y3.6099 Z-0.4057
N16370 X1.3679 Y3.6084
N16375 X1.3701 Y3.6071 Z-0.4058
N16380 X1.3723 Y3.6059 Z-0.4059
N16385 X1.3746 Y3.6047 Z-0.406
N16390 X1.377 Y3.6037 Z-0.4061
N16395 X1.3794 Y3.6027 Z-0.4062
N16400 X1.3819 Y3.6019 Z-0.4063
N16405 X1.3844 Y3.6012 Z-0.4064
N16410 X1.3869 Y3.6006 Z-0.4065
N16415 X1.3894 Y3.6001 Z-0.4066
N16420 X1.3919 Y3.5998
N16425 X1.3944 Y3.5995 Z-0.4067
N16430 X1.3969 Y3.5994 Z-0.4068
N16435 X1.3995 Z-0.4069
N16440 X1.402 Y3.5995 Z-0.407
N16445 X1.4046 Y3.5997 Z-0.4071
N16450 X1.4071 Y3.6 Z-0.4072
N16455 X1.4097 Y3.6004 Z-0.4073
N16460 X1.4122 Y3.601 Z-0.4074
N16465 X1.4147 Y3.6016
N16470 X1.4171 Y3.6024 Z-0.4075
N16475 X1.4195 Y3.6033 Z-0.4076
N16480 X1.4219 Y3.6042 Z-0.4077
N16485 X1.4242 Y3.6053 Z-0.4078
N16490 X1.4265 Y3.6065 Z-0.4079
N16495 X1.4287 Y3.6078 Z-0.408
N16500 X1.4308 Y3.6092 Z-0.4081
N16505 X1.4329 Y3.6107 Z-0.4082
N16510 X1.4349 Y3.6122
N16515 X1.4368 Y3.6139 Z-0.4083
N16520 X1.4387 Y3.6157 Z-0.4084
N16525 X1.4405 Y3.6175 Z-0.4085
N16530 X1.4422 Y3.6194 Z-0.4086
N16535 X1.4438 Y3.6214 Z-0.4087
N16540 X1.4454 Y3.6234 Z-0.4088
N16545 X1.4468 Y3.6256 Z-0.4089
N16550 X1.4481 Y3.6277 Z-0.409
N16555 X1.4493 Y3.63 Z-0.4091
N16560 X1.4505 Y3.6323
N16565 X1.4515 Y3.6346 Z-0.4092
N16570 X1.4524 Y3.637 Z-0.4093
N16575 X1.4532 Y3.6394 Z-0.4094
N16580 X1.4539 Y3.6418 Z-0.4095
N16585 X1.4545 Y3.6443 Z-0.4096
N16590 X1.455 Y3.6468 Z-0.4097
N16595 X1.4554 Y3.6494 Z-0.4098
N16600 X1.4556 Y3.6519 Z-0.4099
N16605 X1.4558 Y3.6545
N16610 X1.4557 Y3.6596 Z-0.4101
N16615 X1.4555 Y3.6621 Z-0.4102
N16620 X1.4552 Y3.6646 Z-0.4103
N16625 X1.4542 Y3.6696 Z-0.4105
N16630 X1.4527 Y3.6746 Z-0.4107
N16635 X1.4519 Y3.6769
N16640 X1.4509 Y3.6793 Z-0.4108
N16645 X1.4486 Y3.6838 Z-0.411
N16650 X1.4474 Y3.686 Z-0.4111
