%
O09725 (Thermocyler_Block_13)
(Using high feed G1 F500. instead of G0.)
(T8 D=0.125 CR=0. - ZMIN=-0.7087 - flat end mill)
N10 G90 G94 G17
N15 G20
N20 G53 G0 Z0.

(Ramp1)
N30 T8 M6
N35 S4000 M3
N40 G54
N45 M8
N60 G0 X0.2476 Y2.7986
N65 G43 Z0.5906 H8
N70 G0 Z0.0761
N75 G1 Z0. F8.
N80 G3 X0.2529 Y2.8211 I-0.002 J0.0123
N85 G1 X0.2489 Y2.824 Z-0.0002
N90 X0.2447 Y2.8267 Z-0.0003
N95 X0.2433 Y2.8275 Z-0.0004
N100 X0.2377 Y2.8303 Z-0.0006
N105 X0.233 Y2.8323 Z-0.0008
N110 X0.2321 Y2.8326
N115 X0.2265 Y2.8343 Z-0.001
N120 X0.2209 Y2.8356 Z-0.0012
N125 X0.2153 Y2.8364 Z-0.0014
N130 X0.2097 Y2.8369 Z-0.0016
N135 X0.2041 Z-0.0018
N140 X0.1986 Y2.8364 Z-0.002
N145 X0.193 Y2.8356 Z-0.0022
N150 X0.1874 Y2.8343 Z-0.0024
N155 X0.1818 Y2.8325 Z-0.0026
N160 X0.1811 Y2.8323
N165 X0.1762 Y2.8302 Z-0.0028
N170 X0.1706 Y2.8274 Z-0.0031
N175 X0.1693 Y2.8267
N180 X0.165 Y2.8239 Z-0.0033
N185 X0.1611 Y2.8211 Z-0.0035
N190 X0.1594 Y2.8198
N195 X0.1571 Y2.8177 Z-0.0036
N200 X0.1547 Y2.8155 Z-0.0038
N205 X0.1539 Y2.8146
N210 X0.1497 Y2.8099 Z-0.004
N215 X0.1483 Y2.8082 Z-0.0041
N220 X0.1455 Y2.8043 Z-0.0043
N225 X0.1427 Y2.7999 Z-0.0044
N230 X0.142 Y2.7987 Z-0.0045
N235 X0.1392 Y2.7931 Z-0.0047
N240 X0.1371 Y2.788 Z-0.0049
N245 X0.1369 Y2.7876
N250 X0.136 Y2.7848 Z-0.005
N255 X0.1351 Y2.782 Z-0.0051
N260 X0.1339 Y2.7764 Z-0.0053
N265 X0.133 Y2.7708 Z-0.0055
N270 X0.1326 Y2.7652 Z-0.0057
N275 Y2.7596 Z-0.0059
N280 X0.133 Y2.754 Z-0.0061
N285 X0.1339 Y2.7484 Z-0.0063
N290 X0.1352 Y2.7428 Z-0.0065
N295 X0.137 Y2.7373 Z-0.0067
N300 X0.1371 Y2.737
N305 X0.1393 Y2.7317 Z-0.0069
N310 X0.1421 Y2.7261 Z-0.0071
N315 X0.1427 Y2.7251 Z-0.0072
N320 X0.1456 Y2.7205 Z-0.0074
N325 X0.1483 Y2.7168 Z-0.0075
N330 X0.1498 Y2.7149 Z-0.0076
N335 X0.1539 Y2.7104 Z-0.0078
N340 X0.1549 Y2.7093 Z-0.0079
N345 X0.1594 Y2.7052 Z-0.0081
N350 X0.1614 Y2.7037 Z-0.0082
N355 X0.165 Y2.7011 Z-0.0083
N360 X0.1697 Y2.6981 Z-0.0085
N365 X0.1706 Y2.6976 Z-0.0086
N370 X0.1762 Y2.6948 Z-0.0088
N375 X0.1816 Y2.6925 Z-0.009
N380 X0.1818
N385 X0.1874 Y2.6907 Z-0.0092
N390 X0.193 Y2.6894 Z-0.0094
N395 X0.1986 Y2.6886 Z-0.0096
N400 X0.2041 Y2.6881 Z-0.0098
N405 X0.2097 Z-0.01
N410 X0.2153 Y2.6886 Z-0.0102
N415 X0.2209 Y2.6894 Z-0.0104
N420 X0.2265 Y2.6907 Z-0.0106
N425 X0.2321 Y2.6924 Z-0.0108
N430 X0.2324 Y2.6925
N435 X0.2377 Y2.6947 Z-0.011
N440 X0.2433 Y2.6975 Z-0.0112
N445 X0.2444 Y2.6981 Z-0.0113
N450 X0.2489 Y2.701 Z-0.0114
N455 X0.2527 Y2.7037 Z-0.0116
N460 X0.2544 Y2.7052 Z-0.0117
N465 X0.259 Y2.7093 Z-0.0119
N470 X0.26 Y2.7103 Z-0.012
N475 X0.2642 Y2.7149 Z-0.0122
N480 X0.2656 Y2.7167
N485 X0.2685 Y2.7205 Z-0.0124
N490 X0.2712 Y2.7248 Z-0.0126
N495 X0.2719 Y2.7261
N500 X0.2747 Y2.7317 Z-0.0129
N505 X0.2768 Y2.7367 Z-0.0131
N510 X0.277 Y2.7373
N515 X0.2788 Y2.7428 Z-0.0133
N520 X0.2801 Y2.7484 Z-0.0135
N525 X0.2809 Y2.754 Z-0.0137
N530 X0.2813 Y2.7596 Z-0.0139
N535 X0.2814 Y2.7652 Z-0.0141
N540 X0.2809 Y2.7708 Z-0.0143
N545 X0.2801 Y2.7764 Z-0.0145
N550 X0.2788 Y2.782 Z-0.0147
N555 X0.2771 Y2.7876 Z-0.0149
N560 X0.2768 Y2.7883
N565 X0.2748 Y2.7931 Z-0.0151
N570 X0.272 Y2.7987 Z-0.0153
N575 X0.2712 Y2.8002 Z-0.0154
N580 X0.2686 Y2.8043 Z-0.0155
N585 X0.2656 Y2.8083 Z-0.0157
N590 X0.2644 Y2.8099 Z-0.0158
N595 X0.26 Y2.8147 Z-0.016
N600 X0.2592 Y2.8155
N605 X0.2544 Y2.8198 Z-0.0163
N610 X0.2529 Y2.8211
N615 X0.2489 Y2.824 Z-0.0165
N620 X0.2447 Y2.8267 Z-0.0167
N625 X0.2433 Y2.8275
N630 X0.2377 Y2.8303 Z-0.0169
N635 X0.233 Y2.8323 Z-0.0171
N640 X0.2321 Y2.8326 Z-0.0172
N645 X0.2265 Y2.8343 Z-0.0174
N650 X0.2209 Y2.8356 Z-0.0176
N655 X0.2153 Y2.8364 Z-0.0178
N660 X0.2097 Y2.8369 Z-0.018
N665 X0.2041 Z-0.0182
N670 X0.1986 Y2.8364 Z-0.0183
N675 X0.193 Y2.8356 Z-0.0185
N680 X0.1874 Y2.8343 Z-0.0187
N685 X0.1818 Y2.8325 Z-0.019
N690 X0.1811 Y2.8323
N695 X0.1762 Y2.8302 Z-0.0192
N700 X0.1706 Y2.8274 Z-0.0194
N705 X0.1693 Y2.8267
N710 X0.165 Y2.8239 Z-0.0196
N715 X0.1611 Y2.8211 Z-0.0198
N720 X0.1594 Y2.8198 Z-0.0199
N725 X0.1571 Y2.8177 Z-0.02
N730 X0.1547 Y2.8155 Z-0.0201
N735 X0.1539 Y2.8146
N740 X0.1497 Y2.8099 Z-0.0203
N745 X0.1483 Y2.8082 Z-0.0204
N750 X0.1455 Y2.8043 Z-0.0206
N755 X0.1427 Y2.7999 Z-0.0208
N760 X0.142 Y2.7987
N765 X0.1392 Y2.7931 Z-0.021
N770 X0.1371 Y2.788 Z-0.0212
N775 X0.1369 Y2.7876
N780 X0.136 Y2.7848 Z-0.0213
N785 X0.1351 Y2.782 Z-0.0214
N790 X0.1339 Y2.7764 Z-0.0216
N795 X0.133 Y2.7708 Z-0.0218
N800 X0.1326 Y2.7652 Z-0.022
N805 Y2.7596 Z-0.0222
N810 X0.133 Y2.754 Z-0.0224
N815 X0.1339 Y2.7484 Z-0.0226
N820 X0.1352 Y2.7428 Z-0.0228
N825 X0.137 Y2.7373 Z-0.023
N830 X0.1371 Y2.737
N835 X0.1393 Y2.7317 Z-0.0232
N840 X0.1421 Y2.7261 Z-0.0235
N845 X0.1427 Y2.7251
N850 X0.1456 Y2.7205 Z-0.0237
N855 X0.1483 Y2.7168 Z-0.0239
N860 X0.1498 Y2.7149
N865 X0.1539 Y2.7104 Z-0.0241
N870 X0.1549 Y2.7093 Z-0.0242
N875 X0.1594 Y2.7052 Z-0.0244
N880 X0.1614 Y2.7037 Z-0.0245
N885 X0.165 Y2.7011 Z-0.0247
N890 X0.1697 Y2.6981 Z-0.0249
N895 X0.1706 Y2.6976
N900 X0.1762 Y2.6948 Z-0.0251
N905 X0.1816 Y2.6925 Z-0.0253
N910 X0.1818
N915 X0.1874 Y2.6907 Z-0.0255
N920 X0.193 Y2.6894 Z-0.0257
N925 X0.1986 Y2.6886 Z-0.0259
N930 X0.2041 Y2.6881 Z-0.0261
N935 X0.2097 Z-0.0263
N940 X0.2153 Y2.6886 Z-0.0265
N945 X0.2209 Y2.6894 Z-0.0267
N950 X0.2265 Y2.6907 Z-0.0269
N955 X0.2321 Y2.6924 Z-0.0271
N960 X0.2324 Y2.6925
N965 X0.2377 Y2.6947 Z-0.0273
N970 X0.2433 Y2.6975 Z-0.0275
N975 X0.2444 Y2.6981 Z-0.0276
N980 X0.2489 Y2.701 Z-0.0278
N985 X0.2527 Y2.7037 Z-0.0279
N990 X0.2544 Y2.7052 Z-0.028
N995 X0.259 Y2.7093 Z-0.0282
N1000 X0.26 Y2.7103 Z-0.0283
N1005 X0.2642 Y2.7149 Z-0.0285
N1010 X0.2656 Y2.7167 Z-0.0286
N1015 X0.2685 Y2.7205 Z-0.0287
N1020 X0.2712 Y2.7248 Z-0.0289
N1025 X0.2719 Y2.7261 Z-0.029
N1030 X0.2747 Y2.7317 Z-0.0292
N1035 X0.2768 Y2.7367 Z-0.0294
N1040 X0.277 Y2.7373
N1045 X0.2788 Y2.7428 Z-0.0296
N1050 X0.2801 Y2.7484 Z-0.0298
N1055 X0.2809 Y2.754 Z-0.03
N1060 X0.2813 Y2.7596 Z-0.0302
N1065 X0.2814 Y2.7652 Z-0.0304
N1070 X0.2809 Y2.7708 Z-0.0306
N1075 X0.2801 Y2.7764 Z-0.0308
N1080 X0.2788 Y2.782 Z-0.031
N1085 X0.2771 Y2.7876 Z-0.0312
N1090 X0.2768 Y2.7883
N1095 X0.2748 Y2.7931 Z-0.0314
N1100 X0.272 Y2.7987 Z-0.0316
N1105 X0.2712 Y2.8002 Z-0.0317
N1110 X0.2686 Y2.8043 Z-0.0318
N1115 X0.2656 Y2.8083 Z-0.032
N1120 X0.2644 Y2.8099 Z-0.0321
N1125 X0.26 Y2.8147 Z-0.0323
N1130 X0.2592 Y2.8155 Z-0.0324
N1135 X0.2544 Y2.8198 Z-0.0326
N1140 X0.2529 Y2.8211 Z-0.0327
N1145 X0.2489 Y2.824 Z-0.0328
N1150 X0.2447 Y2.8267 Z-0.033
N1155 X0.2433 Y2.8275 Z-0.0331
N1160 X0.2377 Y2.8303 Z-0.0333
N1165 X0.233 Y2.8323 Z-0.0335
N1170 X0.2321 Y2.8326
N1175 X0.2265 Y2.8343 Z-0.0337
N1180 X0.2209 Y2.8356 Z-0.0339
N1185 X0.2153 Y2.8364 Z-0.0341
N1190 X0.2097 Y2.8369 Z-0.0343
N1195 X0.2041 Z-0.0345
N1200 X0.1986 Y2.8364 Z-0.0347
N1205 X0.193 Y2.8356 Z-0.0349
N1210 X0.1874 Y2.8343 Z-0.0351
N1215 X0.1818 Y2.8325 Z-0.0353
N1220 X0.1811 Y2.8323
N1225 X0.1762 Y2.8302 Z-0.0355
N1230 X0.1706 Y2.8274 Z-0.0357
N1235 X0.1693 Y2.8267 Z-0.0358
N1240 X0.165 Y2.8239 Z-0.0359
N1245 X0.1611 Y2.8211 Z-0.0361
N1250 X0.1594 Y2.8198 Z-0.0362
N1255 X0.1571 Y2.8177 Z-0.0363
N1260 X0.1547 Y2.8155 Z-0.0364
N1265 X0.1539 Y2.8146
N1270 X0.1497 Y2.8099 Z-0.0367
N1275 X0.1483 Y2.8082
N1280 X0.1455 Y2.8043 Z-0.0369
N1285 X0.1427 Y2.7999 Z-0.0371
N1290 X0.142 Y2.7987
N1295 X0.1392 Y2.7931 Z-0.0374
N1300 X0.1371 Y2.788 Z-0.0375
N1305 X0.1369 Y2.7876 Z-0.0376
N1310 X0.136 Y2.7848 Z-0.0377
N1315 X0.1351 Y2.782 Z-0.0378
N1320 X0.1339 Y2.7764 Z-0.038
N1325 X0.133 Y2.7708 Z-0.0382
N1330 X0.1326 Y2.7652 Z-0.0384
N1335 Y2.7596 Z-0.0386
N1340 X0.133 Y2.754 Z-0.0388
N1345 X0.1339 Y2.7484 Z-0.039
N1350 X0.1352 Y2.7428 Z-0.0392
N1355 X0.137 Y2.7373 Z-0.0394
N1360 X0.1371 Y2.737
N1365 X0.1389 Y2.7324 Z-0.0395
N1370 X0.141 Y2.7281 Z-0.0397
N1375 X0.1434 Y2.7238 Z-0.0399
N1380 X0.1461 Y2.7197 Z-0.0401
N1385 X0.149 Y2.7159 Z-0.0402
N1390 X0.1522 Y2.7122 Z-0.0404
N1395 X0.1556 Y2.7087 Z-0.0406
N1400 X0.1592 Y2.7054 Z-0.0407
N1405 X0.1631 Y2.7024 Z-0.0409
N1410 X0.1671 Y2.6997 Z-0.0411
N1415 X0.1713 Y2.6972 Z-0.0412
N1420 X0.1756 Y2.695 Z-0.0414
N1425 X0.1801 Y2.6931 Z-0.0416
N1430 X0.1847 Y2.6915 Z-0.0417
N1435 X0.1894 Y2.6902 Z-0.0419
N1440 X0.1942 Y2.6892 Z-0.0421
N1445 X0.199 Y2.6885 Z-0.0423
N1450 X0.2039 Y2.6882 Z-0.0424
N1455 X0.2087 Y2.6881 Z-0.0426
N1460 X0.2136 Y2.6884 Z-0.0428
N1465 X0.2184 Y2.689 Z-0.0429
N1470 X0.2232 Y2.6899 Z-0.0431
N1475 X0.2279 Y2.691 Z-0.0433
N1480 X0.2326 Y2.6926 Z-0.0435
N1485 X0.2371 Y2.6944 Z-0.0436
N1490 X0.2414 Y2.6965 Z-0.0438
N1495 X0.2457 Y2.6989 Z-0.044
N1500 X0.2498 Y2.7016 Z-0.0441
N1505 X0.2537 Y2.7045 Z-0.0443
N1510 X0.2574 Y2.7077 Z-0.0445
N1515 X0.2608 Y2.7111 Z-0.0446
N1520 X0.2641 Y2.7147 Z-0.0448
N1525 X0.2671 Y2.7186 Z-0.045
N1530 X0.2698 Y2.7226 Z-0.0451
N1535 X0.2723 Y2.7268 Z-0.0453
N1540 X0.2745 Y2.7311 Z-0.0455
N1545 X0.2764 Y2.7356 Z-0.0457
N1550 X0.278 Y2.7402 Z-0.0458
N1555 X0.2793 Y2.7449 Z-0.046
N1560 X0.2803 Y2.7497 Z-0.0462
N1565 X0.281 Y2.7545 Z-0.0463
N1570 X0.2813 Y2.7594 Z-0.0465
N1575 X0.2814 Y2.7642 Z-0.0467
N1580 X0.2811 Y2.7691 Z-0.0468
N1585 X0.2806 Y2.7739 Z-0.047
N1590 X0.2796 Y2.7787 Z-0.0472
N1595 X0.2784 Y2.7834 Z-0.0474
N1600 X0.2769 Y2.788 Z-0.0475
N1605 X0.2751 Y2.7926 Z-0.0477
N1610 X0.2729 Y2.797 Z-0.0479
N1615 X0.2706 Y2.8012 Z-0.048
N1620 X0.2679 Y2.8053 Z-0.0482
N1625 X0.265 Y2.8092 Z-0.0484
N1630 X0.2618 Y2.8129 Z-0.0485
N1635 X0.2584 Y2.8163 Z-0.0487
N1640 X0.2547 Y2.8196 Z-0.0489
N1645 X0.2509 Y2.8226 Z-0.0491
N1650 X0.2469 Y2.8253 Z-0.0492
N1655 X0.2427 Y2.8278 Z-0.0494
N1660 X0.2384 Y2.83 Z-0.0496
N1665 X0.2339 Y2.8319 Z-0.0497
N1670 X0.2293 Y2.8335 Z-0.0499
N1675 X0.2246 Y2.8348 Z-0.0501
N1680 X0.2198 Y2.8358 Z-0.0502
N1685 X0.215 Y2.8365 Z-0.0504
N1690 X0.2101 Y2.8369 Z-0.0506
N1695 X0.2053 Z-0.0508
N1700 X0.2004 Y2.8366 Z-0.0509
N1705 X0.1956 Y2.836 Z-0.0511
N1710 X0.1908 Y2.8351 Z-0.0513
N1715 X0.1861 Y2.8339 Z-0.0514
N1720 X0.1815 Y2.8324 Z-0.0516
N1725 X0.1769 Y2.8306 Z-0.0518
N1730 X0.1725 Y2.8285 Z-0.0519
N1735 X0.1683 Y2.8261 Z-0.0521
N1740 X0.1642 Y2.8234 Z-0.0523
N1745 X0.1603 Y2.8205 Z-0.0525
N1750 X0.1567 Y2.8173 Z-0.0526
N1755 X0.1532 Y2.8139 Z-0.0528
N1760 X0.1499 Y2.8102 Z-0.053
N1765 X0.1469 Y2.8064 Z-0.0531
N1770 X0.1442 Y2.8024 Z-0.0533
N1775 X0.1417 Y2.7982 Z-0.0535
N1780 X0.1395 Y2.7938 Z-0.0536
N1785 X0.1376 Y2.7894 Z-0.0538
N1790 X0.136 Y2.7848 Z-0.054
N1795 X0.1347 Y2.7801 Z-0.0542
N1800 X0.1337 Y2.7753 Z-0.0543
N1805 X0.133 Y2.7705 Z-0.0545
N1810 X0.1326 Y2.7656 Z-0.0547
N1815 Y2.7608 Z-0.0548
N1820 X0.1329 Y2.7559 Z-0.055
N1825 X0.1335 Y2.7511 Z-0.0552
N1830 X0.1344 Y2.7463 Z-0.0553
N1835 X0.1356 Y2.7416 Z-0.0555
N1840 X0.1371 Y2.737 Z-0.0557
N1845 X0.1389 Y2.7324 Z-0.0559
N1850 X0.141 Y2.7281 Z-0.056
N1855 X0.1434 Y2.7238 Z-0.0562
N1860 X0.1461 Y2.7197 Z-0.0564
N1865 X0.149 Y2.7159 Z-0.0565
N1870 X0.1522 Y2.7122 Z-0.0567
N1875 X0.1556 Y2.7087 Z-0.0569
N1880 X0.1592 Y2.7054 Z-0.057
N1885 X0.1631 Y2.7024 Z-0.0572
N1890 X0.1671 Y2.6997 Z-0.0574
N1895 X0.1713 Y2.6972 Z-0.0576
N1900 X0.1756 Y2.695 Z-0.0577
N1905 X0.1801 Y2.6931 Z-0.0579
N1910 X0.1847 Y2.6915 Z-0.0581
N1915 X0.1894 Y2.6902 Z-0.0582
N1920 X0.1942 Y2.6892 Z-0.0584
N1925 X0.199 Y2.6885 Z-0.0586
N1930 X0.2039 Y2.6882 Z-0.0587
N1935 X0.2087 Y2.6881 Z-0.0589
N1940 X0.2136 Y2.6884 Z-0.0591
N1945 X0.2184 Y2.689 Z-0.0593
N1950 X0.2232 Y2.6899 Z-0.0594
N1955 X0.2279 Y2.691 Z-0.0596
N1960 X0.2326 Y2.6926 Z-0.0598
N1965 X0.2371 Y2.6944 Z-0.0599
N1970 X0.2414 Y2.6965 Z-0.0601
N1975 X0.2457 Y2.6989 Z-0.0603
N1980 X0.2498 Y2.7016 Z-0.0604
N1985 X0.2537 Y2.7045 Z-0.0606
N1990 X0.2574 Y2.7077 Z-0.0608
N1995 X0.2608 Y2.7111 Z-0.061
N2000 X0.2641 Y2.7147 Z-0.0611
N2005 X0.2671 Y2.7186 Z-0.0613
N2010 X0.2698 Y2.7226 Z-0.0615
N2015 X0.2723 Y2.7268 Z-0.0616
N2020 X0.2745 Y2.7311 Z-0.0618
N2025 X0.2764 Y2.7356 Z-0.062
N2030 X0.278 Y2.7402 Z-0.0621
N2035 X0.2793 Y2.7449 Z-0.0623
N2040 X0.2803 Y2.7497 Z-0.0625
N2045 X0.281 Y2.7545 Z-0.0627
N2050 X0.2813 Y2.7594 Z-0.0628
N2055 X0.2814 Y2.7642 Z-0.063
N2060 X0.2811 Y2.7691 Z-0.0632
N2065 X0.2806 Y2.7739 Z-0.0633
N2070 X0.2796 Y2.7787 Z-0.0635
N2075 X0.2784 Y2.7834 Z-0.0637
N2080 X0.2769 Y2.788 Z-0.0638
N2085 X0.2751 Y2.7926 Z-0.064
N2090 X0.2729 Y2.797 Z-0.0642
N2095 X0.2706 Y2.8012 Z-0.0644
N2100 X0.2679 Y2.8053 Z-0.0645
N2105 X0.265 Y2.8092 Z-0.0647
N2110 X0.2618 Y2.8129 Z-0.0649
N2115 X0.2584 Y2.8163 Z-0.065
N2120 X0.2547 Y2.8196 Z-0.0652
N2125 X0.2509 Y2.8226 Z-0.0654
N2130 X0.2469 Y2.8253 Z-0.0655
N2135 X0.2427 Y2.8278 Z-0.0657
N2140 X0.2384 Y2.83 Z-0.0659
N2145 X0.2339 Y2.8319 Z-0.0661
N2150 X0.2293 Y2.8335 Z-0.0662
N2155 X0.2246 Y2.8348 Z-0.0664
N2160 X0.2198 Y2.8358 Z-0.0666
N2165 X0.215 Y2.8365 Z-0.0667
N2170 X0.2101 Y2.8369 Z-0.0669
N2175 X0.2053 Z-0.0671
N2180 X0.2004 Y2.8366 Z-0.0672
N2185 X0.1956 Y2.836 Z-0.0674
N2190 X0.1908 Y2.8351 Z-0.0676
N2195 X0.1861 Y2.8339 Z-0.0678
N2200 X0.1815 Y2.8324 Z-0.0679
N2205 X0.1769 Y2.8306 Z-0.0681
N2210 X0.1725 Y2.8285 Z-0.0683
N2215 X0.1683 Y2.8261 Z-0.0684
N2220 X0.1642 Y2.8234 Z-0.0686
N2225 X0.1603 Y2.8205 Z-0.0688
N2230 X0.1567 Y2.8173 Z-0.0689
N2235 X0.1532 Y2.8139 Z-0.0691
N2240 X0.1499 Y2.8102 Z-0.0693
N2245 X0.1469 Y2.8064 Z-0.0695
N2250 X0.1442 Y2.8024 Z-0.0696
N2255 X0.1417 Y2.7982 Z-0.0698
N2260 X0.1395 Y2.7938 Z-0.07
N2265 X0.1376 Y2.7894 Z-0.0701
N2270 X0.136 Y2.7848 Z-0.0703
N2275 X0.1347 Y2.7801 Z-0.0705
N2280 X0.1337 Y2.7753 Z-0.0706
N2285 X0.133 Y2.7705 Z-0.0708
N2290 X0.1326 Y2.7656 Z-0.071
N2295 Y2.7608 Z-0.0712
N2300 X0.1329 Y2.7559 Z-0.0713
N2305 X0.1335 Y2.7511 Z-0.0715
N2310 X0.1344 Y2.7463 Z-0.0717
N2315 X0.1356 Y2.7416 Z-0.0718
N2320 X0.1371 Y2.737 Z-0.072
N2325 X0.1389 Y2.7324 Z-0.0722
N2330 X0.141 Y2.7281 Z-0.0723
N2335 X0.1434 Y2.7238 Z-0.0725
N2340 X0.1461 Y2.7197 Z-0.0727
N2345 X0.149 Y2.7159 Z-0.0729
N2350 X0.1522 Y2.7122 Z-0.073
N2355 X0.1556 Y2.7087 Z-0.0732
N2360 X0.1592 Y2.7054 Z-0.0734
N2365 X0.1631 Y2.7024 Z-0.0735
N2370 X0.1671 Y2.6997 Z-0.0737
N2375 X0.1713 Y2.6972 Z-0.0739
N2380 X0.1756 Y2.695 Z-0.074
N2385 X0.1801 Y2.6931 Z-0.0742
N2390 X0.1847 Y2.6915 Z-0.0744
N2395 X0.1894 Y2.6902 Z-0.0746
N2400 X0.1942 Y2.6892 Z-0.0747
N2405 X0.199 Y2.6885 Z-0.0749
N2410 X0.2039 Y2.6882 Z-0.0751
N2415 X0.2087 Y2.6881 Z-0.0752
N2420 X0.2136 Y2.6884 Z-0.0754
N2425 X0.2184 Y2.689 Z-0.0756
N2430 X0.2232 Y2.6899 Z-0.0757
N2435 X0.2279 Y2.691 Z-0.0759
N2440 X0.2326 Y2.6926 Z-0.0761
N2445 X0.2371 Y2.6944 Z-0.0763
N2450 X0.2414 Y2.6965 Z-0.0764
N2455 X0.2457 Y2.6989 Z-0.0766
N2460 X0.2498 Y2.7016 Z-0.0768
N2465 X0.2537 Y2.7045 Z-0.0769
N2470 X0.2574 Y2.7077 Z-0.0771
N2475 X0.2608 Y2.7111 Z-0.0773
N2480 X0.2641 Y2.7147 Z-0.0774
N2485 X0.2671 Y2.7186 Z-0.0776
N2490 X0.2698 Y2.7226 Z-0.0778
N2495 X0.2723 Y2.7268 Z-0.078
N2500 X0.2745 Y2.7311 Z-0.0781
N2505 X0.2764 Y2.7356 Z-0.0783
N2510 X0.278 Y2.7402 Z-0.0785
N2515 X0.2791 Y2.744 Z-0.0786
N2520 X0.2799 Y2.7477 Z-0.0787
N2525 X0.28 Y2.7479
N2530 X0.2804 Y2.7503 Z-0.0788
N2535 X0.2808 Y2.7527 Z-0.0789
N2540 X0.2813 Y2.7576 Z-0.0791
N2545 X0.2815 Y2.7625 Z-0.0793
N2550 X0.2813 Y2.7673 Z-0.0794
N2555 X0.2808 Y2.7722 Z-0.0796
N2560 X0.28 Y2.777 Z-0.0798
N2565 X0.2789 Y2.7817 Z-0.0799
N2570 X0.2775 Y2.7864 Z-0.0801
N2575 X0.2758 Y2.791 Z-0.0803
N2580 X0.2738 Y2.7954 Z-0.0804
N2585 X0.2715 Y2.7997 Z-0.0806
N2590 X0.2689 Y2.8038 Z-0.0808
N2595 X0.2661 Y2.8078 Z-0.081
N2600 X0.263 Y2.8115 Z-0.0811
N2605 X0.2596 Y2.8151 Z-0.0813
N2610 X0.2561 Y2.8184 Z-0.0815
N2615 X0.2523 Y2.8215 Z-0.0816
N2620 X0.2484 Y2.8244 Z-0.0818
N2625 X0.2442 Y2.8269 Z-0.082
N2630 X0.2399 Y2.8292 Z-0.0821
N2635 X0.2355 Y2.8312 Z-0.0823
N2640 X0.231 Y2.8329 Z-0.0825
N2645 X0.2263 Y2.8344 Z-0.0826
N2650 X0.2216 Y2.8355 Z-0.0828
N2655 X0.2168 Y2.8363 Z-0.083
N2660 X0.2119 Y2.8368 Z-0.0832
N2665 X0.207 Y2.8369 Z-0.0833
N2670 X0.2022 Y2.8367 Z-0.0835
N2675 X0.1973 Y2.8363 Z-0.0837
N2680 X0.1925 Y2.8355 Z-0.0838
N2685 X0.1878 Y2.8344 Z-0.084
N2690 X0.1831 Y2.833 Z-0.0842
N2695 X0.1785 Y2.8313 Z-0.0843
N2700 X0.1741 Y2.8293 Z-0.0845
N2705 X0.1698 Y2.827 Z-0.0847
N2710 X0.1657 Y2.8244 Z-0.0849
N2715 X0.1617 Y2.8215 Z-0.085
N2720 X0.158 Y2.8185 Z-0.0852
N2725 X0.1544 Y2.8152 Z-0.0854
N2730 X0.151 Y2.8116 Z-0.0855
N2735 X0.148 Y2.8078 Z-0.0857
N2740 X0.1451 Y2.8039 Z-0.0859
N2745 X0.1426 Y2.7997 Z-0.086
N2750 X0.1403 Y2.7954 Z-0.0862
N2755 X0.1383 Y2.791 Z-0.0864
N2760 X0.1365 Y2.7865 Z-0.0866
N2765 X0.1351 Y2.7818 Z-0.0867
N2770 X0.134 Y2.7771 Z-0.0869
N2775 X0.1332 Y2.7722 Z-0.0871
N2780 X0.1328 Y2.7674 Z-0.0872
N2785 X0.1326 Y2.7625 Z-0.0874
N2790 X0.1328 Y2.7577 Z-0.0876
N2795 X0.1332 Y2.7528 Z-0.0877
N2800 X0.134 Y2.748 Z-0.0879
N2805 X0.1351 Y2.7433 Z-0.0881
N2810 X0.1365 Y2.7386 Z-0.0883
N2815 X0.1382 Y2.7341 Z-0.0884
N2820 X0.1402 Y2.7296 Z-0.0886
N2825 X0.1425 Y2.7253 Z-0.0888
N2830 X0.1451 Y2.7212 Z-0.0889
N2835 X0.1479 Y2.7172 Z-0.0891
N2840 X0.151 Y2.7134 Z-0.0893
N2845 X0.1543 Y2.7099 Z-0.0894
N2850 X0.1579 Y2.7066 Z-0.0896
N2855 X0.1617 Y2.7035 Z-0.0898
N2860 X0.1656 Y2.7007 Z-0.09
N2865 X0.1698 Y2.6981 Z-0.0901
N2870 X0.174 Y2.6958 Z-0.0903
N2875 X0.1785 Y2.6937 Z-0.0905
N2880 X0.183 Y2.692 Z-0.0906
N2885 X0.1877 Y2.6906 Z-0.0908
N2890 X0.1924 Y2.6895 Z-0.091
N2895 X0.1972 Y2.6887 Z-0.0911
N2900 X0.2021 Y2.6883 Z-0.0913
N2905 X0.207 Y2.6881 Z-0.0915
N2910 X0.2118 Y2.6882 Z-0.0917
N2915 X0.2167 Y2.6887 Z-0.0918
N2920 X0.2215 Y2.6895 Z-0.092
N2925 X0.2262 Y2.6906 Z-0.0922
N2930 X0.2309 Y2.692 Z-0.0923
N2935 X0.2354 Y2.6937 Z-0.0925
N2940 X0.2399 Y2.6957 Z-0.0927
N2945 X0.2442 Y2.698 Z-0.0928
N2950 X0.2483 Y2.7006 Z-0.093
N2955 X0.2523 Y2.7034 Z-0.0932
N2960 X0.256 Y2.7065 Z-0.0934
N2965 X0.2596 Y2.7099 Z-0.0935
N2970 X0.2629 Y2.7134 Z-0.0937
N2975 X0.266 Y2.7172 Z-0.0939
N2980 X0.2689 Y2.7211 Z-0.094
N2985 X0.2714 Y2.7252 Z-0.0942
N2990 X0.2737 Y2.7295 Z-0.0944
N2995 X0.2757 Y2.734 Z-0.0945
N3000 X0.2774 Y2.7385 Z-0.0947
N3005 X0.2789 Y2.7432 Z-0.0949
N3010 X0.28 Y2.7479 Z-0.0951
N3015 X0.2808 Y2.7527 Z-0.0952
N3020 X0.2813 Y2.7576 Z-0.0954
N3025 X0.2815 Y2.7625 Z-0.0956
N3030 X0.2813 Y2.7673 Z-0.0957
N3035 X0.2808 Y2.7722 Z-0.0959
N3040 X0.28 Y2.777 Z-0.0961
N3045 X0.2789 Y2.7817 Z-0.0962
N3050 X0.2775 Y2.7864 Z-0.0964
N3055 X0.2758 Y2.791 Z-0.0966
N3060 X0.2738 Y2.7954 Z-0.0968
N3065 X0.2715 Y2.7997 Z-0.0969
N3070 X0.2689 Y2.8038 Z-0.0971
N3075 X0.2661 Y2.8078 Z-0.0973
N3080 X0.263 Y2.8115 Z-0.0974
N3085 X0.2596 Y2.8151 Z-0.0976
N3090 X0.2561 Y2.8184 Z-0.0978
N3095 X0.2523 Y2.8215 Z-0.0979
N3100 X0.2484 Y2.8244 Z-0.0981
N3105 X0.2442 Y2.8269 Z-0.0983
N3110 X0.2399 Y2.8292 Z-0.0985
N3115 X0.2355 Y2.8312 Z-0.0986
N3120 X0.231 Y2.8329 Z-0.0988
N3125 X0.2263 Y2.8344 Z-0.099
N3130 X0.2216 Y2.8355 Z-0.0991
N3135 X0.2168 Y2.8363 Z-0.0993
N3140 X0.2119 Y2.8368 Z-0.0995
N3145 X0.207 Y2.8369 Z-0.0996
N3150 X0.2022 Y2.8367 Z-0.0998
N3155 X0.1973 Y2.8363 Z-0.1
N3160 X0.1925 Y2.8355 Z-0.1002
N3165 X0.1878 Y2.8344 Z-0.1003
N3170 X0.1831 Y2.833 Z-0.1005
N3175 X0.1785 Y2.8313 Z-0.1007
N3180 X0.1741 Y2.8293 Z-0.1008
N3185 X0.1698 Y2.827 Z-0.101
N3190 X0.1657 Y2.8244 Z-0.1012
N3195 X0.1617 Y2.8215 Z-0.1013
N3200 X0.158 Y2.8185 Z-0.1015
N3205 X0.1544 Y2.8152 Z-0.1017
N3210 X0.151 Y2.8116 Z-0.1019
N3215 X0.148 Y2.8078 Z-0.102
N3220 X0.1451 Y2.8039 Z-0.1022
N3225 X0.1426 Y2.7997 Z-0.1024
N3230 X0.1403 Y2.7954 Z-0.1025
N3235 X0.1383 Y2.791 Z-0.1027
N3240 X0.1365 Y2.7865 Z-0.1029
N3245 X0.1351 Y2.7818 Z-0.103
N3250 X0.134 Y2.7771 Z-0.1032
N3255 X0.1332 Y2.7722 Z-0.1034
N3260 X0.1328 Y2.7674 Z-0.1036
N3265 X0.1326 Y2.7625 Z-0.1037
N3270 X0.1328 Y2.7577 Z-0.1039
N3275 X0.1332 Y2.7528 Z-0.1041
N3280 X0.134 Y2.748 Z-0.1042
N3285 X0.1351 Y2.7433 Z-0.1044
N3290 X0.1365 Y2.7386 Z-0.1046
N3295 X0.1382 Y2.7341 Z-0.1047
N3300 X0.1402 Y2.7296 Z-0.1049
N3305 X0.1425 Y2.7253 Z-0.1051
N3310 X0.1451 Y2.7212 Z-0.1053
N3315 X0.1479 Y2.7172 Z-0.1054
N3320 X0.151 Y2.7134 Z-0.1056
N3325 X0.1543 Y2.7099 Z-0.1058
N3330 X0.1579 Y2.7066 Z-0.1059
N3335 X0.1617 Y2.7035 Z-0.1061
N3340 X0.1656 Y2.7007 Z-0.1063
N3345 X0.1698 Y2.6981 Z-0.1064
N3350 X0.174 Y2.6958 Z-0.1066
N3355 X0.1785 Y2.6937 Z-0.1068
N3360 X0.183 Y2.692 Z-0.107
N3365 X0.1877 Y2.6906 Z-0.1071
N3370 X0.1924 Y2.6895 Z-0.1073
N3375 X0.1972 Y2.6887 Z-0.1075
N3380 X0.2021 Y2.6883 Z-0.1076
N3385 X0.207 Y2.6881 Z-0.1078
N3390 X0.2118 Y2.6882 Z-0.108
N3395 X0.2167 Y2.6887 Z-0.1081
N3400 X0.2215 Y2.6895 Z-0.1083
N3405 X0.2262 Y2.6906 Z-0.1085
N3410 X0.2309 Y2.692 Z-0.1087
N3415 X0.2354 Y2.6937 Z-0.1088
N3420 X0.2399 Y2.6957 Z-0.109
N3425 X0.2442 Y2.698 Z-0.1092
N3430 X0.2483 Y2.7006 Z-0.1093
N3435 X0.2523 Y2.7034 Z-0.1095
N3440 X0.256 Y2.7065 Z-0.1097
N3445 X0.2596 Y2.7099 Z-0.1098
N3450 X0.2629 Y2.7134 Z-0.11
N3455 X0.266 Y2.7172 Z-0.1102
N3460 X0.2689 Y2.7211 Z-0.1104
N3465 X0.2714 Y2.7252 Z-0.1105
N3470 X0.2737 Y2.7295 Z-0.1107
N3475 X0.2757 Y2.734 Z-0.1109
N3480 X0.2774 Y2.7385 Z-0.111
N3485 X0.2789 Y2.7432 Z-0.1112
N3490 X0.28 Y2.7479 Z-0.1114
N3495 X0.2808 Y2.7527 Z-0.1115
N3500 X0.2813 Y2.7576 Z-0.1117
N3505 X0.2815 Y2.7625 Z-0.1119
N3510 X0.2813 Y2.7673 Z-0.1121
N3515 X0.2808 Y2.7722 Z-0.1122
N3520 X0.28 Y2.777 Z-0.1124
N3525 X0.2789 Y2.7817 Z-0.1126
N3530 X0.2775 Y2.7864 Z-0.1127
N3535 X0.2758 Y2.791 Z-0.1129
N3540 X0.2738 Y2.7954 Z-0.1131
N3545 X0.2715 Y2.7997 Z-0.1132
N3550 X0.2689 Y2.8038 Z-0.1134
N3555 X0.2661 Y2.8078 Z-0.1136
N3560 X0.263 Y2.8115 Z-0.1138
N3565 X0.2596 Y2.8151 Z-0.1139
N3570 X0.2561 Y2.8184 Z-0.1141
N3575 X0.2523 Y2.8215 Z-0.1143
N3580 X0.2484 Y2.8244 Z-0.1144
N3585 X0.2442 Y2.8269 Z-0.1146
N3590 X0.2399 Y2.8292 Z-0.1148
N3595 X0.2355 Y2.8312 Z-0.1149
N3600 X0.231 Y2.8329 Z-0.1151
N3605 X0.2263 Y2.8344 Z-0.1153
N3610 X0.2216 Y2.8355 Z-0.1155
N3615 X0.2168 Y2.8363 Z-0.1156
N3620 X0.2119 Y2.8368 Z-0.1158
N3625 X0.207 Y2.8369 Z-0.116
N3630 X0.2022 Y2.8367 Z-0.1161
N3635 X0.1973 Y2.8363 Z-0.1163
N3640 X0.1925 Y2.8355 Z-0.1165
N3645 X0.1878 Y2.8344 Z-0.1166
N3650 X0.1831 Y2.833 Z-0.1168
N3655 X0.1785 Y2.8313 Z-0.117
N3660 X0.1741 Y2.8293 Z-0.1172
N3665 X0.1698 Y2.827 Z-0.1173
N3670 X0.1657 Y2.8244 Z-0.1175
N3675 X0.1617 Y2.8215 Z-0.1177
N3680 X0.158 Y2.8185 Z-0.1178
N3685 X0.1551 Y2.8158 Z-0.118
N3690 X0.1524 Y2.813 Z-0.1181
N3695 X0.1522 Y2.8129
N3700 X0.1514 Y2.812 Z-0.1182
N3705 X0.1506 Y2.8111
N3710 X0.1491 Y2.8092 Z-0.1183
N3715 X0.1461 Y2.8053 Z-0.1185
N3720 X0.1435 Y2.8012 Z-0.1186
N3725 X0.141 Y2.797 Z-0.1188
N3730 X0.1389 Y2.7926 Z-0.119
N3735 X0.1371 Y2.7881 Z-0.1191
N3740 X0.1356 Y2.7835 Z-0.1193
N3745 X0.1344 Y2.7788 Z-0.1195
N3750 X0.1335 Y2.774 Z-0.1196
N3755 X0.1329 Y2.7691 Z-0.1198
N3760 X0.1326 Y2.7643 Z-0.12
N3765 Y2.7594 Z-0.1201
N3770 X0.133 Y2.7546 Z-0.1203
N3775 X0.1337 Y2.7497 Z-0.1205
N3780 X0.1347 Y2.745 Z-0.1207
N3785 X0.136 Y2.7403 Z-0.1208
N3790 X0.1376 Y2.7357 Z-0.121
N3795 X0.1395 Y2.7312 Z-0.1212
N3800 X0.1417 Y2.7268 Z-0.1213
N3805 X0.1441 Y2.7226 Z-0.1215
N3810 X0.1469 Y2.7186 Z-0.1217
N3815 X0.1499 Y2.7148 Z-0.1218
N3820 X0.1531 Y2.7112 Z-0.122
N3825 X0.1566 Y2.7078 Z-0.1222
N3830 X0.1603 Y2.7046 Z-0.1224
N3835 X0.1642 Y2.7016 Z-0.1225
N3840 X0.1682 Y2.6989 Z-0.1227
N3845 X0.1725 Y2.6966 Z-0.1229
N3850 X0.1769 Y2.6945 Z-0.123
N3855 X0.1814 Y2.6926 Z-0.1232
N3860 X0.186 Y2.6911 Z-0.1234
N3865 X0.1907 Y2.6899 Z-0.1235
N3870 X0.1955 Y2.689 Z-0.1237
N3875 X0.2003 Y2.6884 Z-0.1239
N3880 X0.2052 Y2.6881 Z-0.1241
N3885 X0.2101 Z-0.1242
N3890 X0.2149 Y2.6885 Z-0.1244
N3895 X0.2198 Y2.6892 Z-0.1246
N3900 X0.2245 Y2.6902 Z-0.1247
N3905 X0.2292 Y2.6915 Z-0.1249
N3910 X0.2338 Y2.6931 Z-0.1251
N3915 X0.2383 Y2.695 Z-0.1252
N3920 X0.2427 Y2.6972 Z-0.1254
N3925 X0.2468 Y2.6997 Z-0.1256
N3930 X0.2509 Y2.7024 Z-0.1258
N3935 X0.2547 Y2.7054 Z-0.1259
N3940 X0.2583 Y2.7086 Z-0.1261
N3945 X0.2618 Y2.7121 Z-0.1263
N3950 X0.265 Y2.7158 Z-0.1264
N3955 X0.2679 Y2.7197 Z-0.1266
N3960 X0.2705 Y2.7238 Z-0.1268
N3965 X0.2729 Y2.728 Z-0.1269
N3970 X0.275 Y2.7324 Z-0.1271
N3975 X0.2769 Y2.7369 Z-0.1273
N3980 X0.2784 Y2.7415 Z-0.1275
N3985 X0.2796 Y2.7462 Z-0.1276
N3990 X0.2806 Y2.751 Z-0.1278
N3995 X0.2811 Y2.7559 Z-0.128
N4000 X0.2814 Y2.7607 Z-0.1281
N4005 X0.2813 Y2.7656 Z-0.1283
N4010 X0.281 Y2.7704 Z-0.1285
N4015 X0.2803 Y2.7753 Z-0.1286
N4020 X0.2793 Y2.78 Z-0.1288
N4025 X0.2781 Y2.7847 Z-0.129
N4030 X0.2764 Y2.7893 Z-0.1292
N4035 X0.2745 Y2.7938 Z-0.1293
N4040 X0.2723 Y2.7982 Z-0.1295
N4045 X0.2698 Y2.8023 Z-0.1297
N4050 X0.2671 Y2.8064 Z-0.1298
N4055 X0.2641 Y2.8102 Z-0.13
N4060 X0.2609 Y2.8139 Z-0.1302
N4065 X0.2574 Y2.8173 Z-0.1303
N4070 X0.2537 Y2.8204 Z-0.1305
N4075 X0.2498 Y2.8234 Z-0.1307
N4080 X0.2457 Y2.826 Z-0.1309
N4085 X0.2415 Y2.8284 Z-0.131
N4090 X0.2371 Y2.8306 Z-0.1312
N4095 X0.2326 Y2.8324 Z-0.1314
N4100 X0.228 Y2.8339 Z-0.1315
N4105 X0.2233 Y2.8351 Z-0.1317
N4110 X0.2185 Y2.836 Z-0.1319
N4115 X0.2136 Y2.8366 Z-0.132
N4120 X0.2088 Y2.8369 Z-0.1322
N4125 X0.2039 Y2.8368 Z-0.1324
N4130 X0.1991 Y2.8365 Z-0.1326
N4135 X0.1942 Y2.8358 Z-0.1327
N4140 X0.1895 Y2.8348 Z-0.1329
N4145 X0.1848 Y2.8335 Z-0.1331
N4150 X0.1802 Y2.8319 Z-0.1332
N4155 X0.1757 Y2.83 Z-0.1334
N4160 X0.1713 Y2.8278 Z-0.1336
N4165 X0.1671 Y2.8253 Z-0.1337
N4170 X0.1631 Y2.8226 Z-0.1339
N4175 X0.1593 Y2.8196 Z-0.1341
N4180 X0.1556 Y2.8164 Z-0.1343
N4185 X0.1522 Y2.8129 Z-0.1344
N4190 X0.1491 Y2.8092 Z-0.1346
N4195 X0.1461 Y2.8053 Z-0.1348
N4200 X0.1435 Y2.8012 Z-0.1349
N4205 X0.141 Y2.797 Z-0.1351
N4210 X0.1389 Y2.7926 Z-0.1353
N4215 X0.1371 Y2.7881 Z-0.1354
N4220 X0.1356 Y2.7835 Z-0.1356
N4225 X0.1344 Y2.7788 Z-0.1358
N4230 X0.1335 Y2.774 Z-0.136
N4235 X0.1329 Y2.7691 Z-0.1361
N4240 X0.1326 Y2.7643 Z-0.1363
N4245 Y2.7594 Z-0.1365
N4250 X0.133 Y2.7546 Z-0.1366
N4255 X0.1337 Y2.7497 Z-0.1368
N4260 X0.1347 Y2.745 Z-0.137
N4265 X0.136 Y2.7403 Z-0.1371
N4270 X0.1376 Y2.7357 Z-0.1373
N4275 X0.1395 Y2.7312 Z-0.1375
N4280 X0.1417 Y2.7268 Z-0.1377
N4285 X0.1441 Y2.7226 Z-0.1378
N4290 X0.1469 Y2.7186 Z-0.138
N4295 X0.1499 Y2.7148 Z-0.1382
N4300 X0.1531 Y2.7112 Z-0.1383
N4305 X0.1566 Y2.7078 Z-0.1385
N4310 X0.1603 Y2.7046 Z-0.1387
N4315 X0.1642 Y2.7016 Z-0.1388
N4320 X0.1682 Y2.6989 Z-0.139
N4325 X0.1725 Y2.6966 Z-0.1392
N4330 X0.1769 Y2.6945 Z-0.1394
N4335 X0.1814 Y2.6926 Z-0.1395
N4340 X0.186 Y2.6911 Z-0.1397
N4345 X0.1907 Y2.6899 Z-0.1399
N4350 X0.1955 Y2.689 Z-0.14
N4355 X0.2003 Y2.6884 Z-0.1402
N4360 X0.2052 Y2.6881 Z-0.1404
N4365 X0.2101 Z-0.1405
N4370 X0.2149 Y2.6885 Z-0.1407
N4375 X0.2198 Y2.6892 Z-0.1409
N4380 X0.2245 Y2.6902 Z-0.1411
N4385 X0.2292 Y2.6915 Z-0.1412
N4390 X0.2338 Y2.6931 Z-0.1414
N4395 X0.2383 Y2.695 Z-0.1416
N4400 X0.2427 Y2.6972 Z-0.1417
N4405 X0.2468 Y2.6997 Z-0.1419
N4410 X0.2509 Y2.7024 Z-0.1421
N4415 X0.2547 Y2.7054 Z-0.1422
N4420 X0.2583 Y2.7086 Z-0.1424
N4425 X0.2618 Y2.7121 Z-0.1426
N4430 X0.265 Y2.7158 Z-0.1428
N4435 X0.2679 Y2.7197 Z-0.1429
N4440 X0.2705 Y2.7238 Z-0.1431
N4445 X0.2729 Y2.728 Z-0.1433
N4450 X0.275 Y2.7324 Z-0.1434
N4455 X0.2769 Y2.7369 Z-0.1436
N4460 X0.2784 Y2.7415 Z-0.1438
N4465 X0.2796 Y2.7462 Z-0.1439
N4470 X0.2806 Y2.751 Z-0.1441
N4475 X0.2811 Y2.7559 Z-0.1443
N4480 X0.2814 Y2.7607 Z-0.1445
N4485 X0.2813 Y2.7656 Z-0.1446
N4490 X0.281 Y2.7704 Z-0.1448
N4495 X0.2803 Y2.7753 Z-0.145
N4500 X0.2793 Y2.78 Z-0.1451
N4505 X0.2781 Y2.7847 Z-0.1453
N4510 X0.2764 Y2.7893 Z-0.1455
N4515 X0.2745 Y2.7938 Z-0.1456
N4520 X0.2723 Y2.7982 Z-0.1458
N4525 X0.2698 Y2.8023 Z-0.146
N4530 X0.2671 Y2.8064 Z-0.1462
N4535 X0.2641 Y2.8102 Z-0.1463
N4540 X0.2609 Y2.8139 Z-0.1465
N4545 X0.2574 Y2.8173 Z-0.1467
N4550 X0.2537 Y2.8204 Z-0.1468
N4555 X0.2498 Y2.8234 Z-0.147
N4560 X0.2457 Y2.826 Z-0.1472
N4565 X0.2415 Y2.8284 Z-0.1473
N4570 X0.2371 Y2.8306 Z-0.1475
N4575 X0.2326 Y2.8324 Z-0.1477
N4580 X0.228 Y2.8339 Z-0.1479
N4585 X0.2233 Y2.8351 Z-0.148
N4590 X0.2185 Y2.836 Z-0.1482
N4595 X0.2136 Y2.8366 Z-0.1484
N4600 X0.2088 Y2.8369 Z-0.1485
N4605 X0.2039 Y2.8368 Z-0.1487
N4610 X0.1991 Y2.8365 Z-0.1489
N4615 X0.1942 Y2.8358 Z-0.149
N4620 X0.1895 Y2.8348 Z-0.1492
N4625 X0.1848 Y2.8335 Z-0.1494
N4630 X0.1802 Y2.8319 Z-0.1496
N4635 X0.1757 Y2.83 Z-0.1497
N4640 X0.1713 Y2.8278 Z-0.1499
N4645 X0.1671 Y2.8253 Z-0.1501
N4650 X0.1631 Y2.8226 Z-0.1502
N4655 X0.1593 Y2.8196 Z-0.1504
N4660 X0.1556 Y2.8164 Z-0.1506
N4665 X0.1522 Y2.8129 Z-0.1507
N4670 X0.1491 Y2.8092 Z-0.1509
N4675 X0.1461 Y2.8053 Z-0.1511
N4680 X0.1435 Y2.8012 Z-0.1513
N4685 X0.141 Y2.797 Z-0.1514
N4690 X0.1389 Y2.7926 Z-0.1516
N4695 X0.1371 Y2.7881 Z-0.1518
N4700 X0.1356 Y2.7835 Z-0.1519
N4705 X0.1344 Y2.7788 Z-0.1521
N4710 X0.1335 Y2.774 Z-0.1523
N4715 X0.1329 Y2.7691 Z-0.1524
N4720 X0.1326 Y2.7643 Z-0.1526
N4725 Y2.7594 Z-0.1528
N4730 X0.133 Y2.7546 Z-0.153
N4735 X0.1337 Y2.7497 Z-0.1531
N4740 X0.1347 Y2.745 Z-0.1533
N4745 X0.136 Y2.7403 Z-0.1535
N4750 X0.1376 Y2.7357 Z-0.1536
N4755 X0.1395 Y2.7312 Z-0.1538
N4760 X0.1417 Y2.7268 Z-0.154
N4765 X0.1441 Y2.7226 Z-0.1541
N4770 X0.1469 Y2.7186 Z-0.1543
N4775 X0.1499 Y2.7148 Z-0.1545
N4780 X0.1531 Y2.7112 Z-0.1547
N4785 X0.1566 Y2.7078 Z-0.1548
N4790 X0.1603 Y2.7046 Z-0.155
N4795 X0.1642 Y2.7016 Z-0.1552
N4800 X0.1682 Y2.6989 Z-0.1553
N4805 X0.1725 Y2.6966 Z-0.1555
N4810 X0.1769 Y2.6945 Z-0.1557
N4815 X0.1814 Y2.6926 Z-0.1558
N4820 X0.186 Y2.6911 Z-0.156
N4825 X0.1907 Y2.6899 Z-0.1562
N4830 X0.1955 Y2.689 Z-0.1564
N4835 X0.2003 Y2.6884 Z-0.1565
N4840 X0.2052 Y2.6881 Z-0.1567
N4845 X0.2101 Z-0.1569
N4850 X0.2149 Y2.6885 Z-0.157
N4855 X0.2198 Y2.6892 Z-0.1572
N4860 X0.2236 Y2.69 Z-0.1573
N4865 X0.2274 Y2.6909 Z-0.1575
N4870 X0.2276 Y2.691
N4875 X0.2275
N4880 X0.2276
N4885 X0.2277
N4890 X0.2279
N4895 X0.2323 Y2.6925 Z-0.1577
N4900 X0.2369 Y2.6944 Z-0.1578
N4905 X0.2414 Y2.6965 Z-0.158
N4910 X0.2457 Y2.699 Z-0.1582
N4915 X0.2499 Y2.7017 Z-0.1583
N4920 X0.2538 Y2.7047 Z-0.1585
N4925 X0.2576 Y2.7079 Z-0.1587
N4930 X0.2612 Y2.7114 Z-0.1589
N4935 X0.2644 Y2.7152 Z-0.159
N4940 X0.2674 Y2.7191 Z-0.1592
N4945 X0.2702 Y2.7232 Z-0.1594
N4950 X0.2727 Y2.7276 Z-0.1596
N4955 X0.2749 Y2.732 Z-0.1597
N4960 X0.2768 Y2.7366 Z-0.1599
N4965 X0.2783 Y2.7413 Z-0.1601
N4970 X0.2796 Y2.7461 Z-0.1603
N4975 X0.2806 Y2.751 Z-0.1604
N4980 X0.2811 Y2.756 Z-0.1606
N4985 X0.2814 Y2.761 Z-0.1608
N4990 X0.2813 Y2.7659 Z-0.161
N4995 X0.2809 Y2.7709 Z-0.1611
N5000 X0.2802 Y2.7757 Z-0.1613
N5005 X0.2791 Y2.7806 Z-0.1615
N5010 X0.2778 Y2.7854 Z-0.1616
N5015 X0.2761 Y2.7901 Z-0.1618
N5020 X0.2741 Y2.7947 Z-0.162
N5025 X0.2718 Y2.7991 Z-0.1622
N5030 X0.2692 Y2.8033 Z-0.1623
N5035 X0.2663 Y2.8074 Z-0.1625
N5040 X0.2632 Y2.8113 Z-0.1627
N5045 X0.2598 Y2.8149 Z-0.1629
N5050 X0.2562 Y2.8183 Z-0.163
N5055 X0.2543 Y2.8199 Z-0.1631
N5060 X0.2524 Y2.8214 Z-0.1632
N5065 X0.2483 Y2.8244 Z-0.1634
N5070 X0.2462 Y2.8257 Z-0.1635
N5075 X0.2441 Y2.827 Z-0.1636
N5080 X0.2397 Y2.8293 Z-0.1637
N5085 X0.2375 Y2.8304 Z-0.1638
N5090 X0.2352 Y2.8313 Z-0.1639
N5095 X0.2305 Y2.8331 Z-0.1641
N5100 X0.2281 Y2.8338 Z-0.1642
N5105 X0.2257 Y2.8345
N5110 X0.2209 Y2.8356 Z-0.1644
N5115 X0.2184 Y2.836 Z-0.1645
N5120 X0.216 Y2.8363 Z-0.1646
N5125 X0.211 Y2.8367 Z-0.1648
N5130 X0.2086 Y2.8368
N5135 X0.2061 Z-0.1649
N5140 X0.2011 Y2.8366 Z-0.1651
N5145 X0.1986 Y2.8364 Z-0.1652
N5150 X0.1962 Y2.836 Z-0.1653
N5155 X0.1913 Y2.8352 Z-0.1655
N5160 X0.1889 Y2.8346
N5165 X0.1865 Y2.8339 Z-0.1656
N5170 X0.1818 Y2.8324 Z-0.1658
N5175 X0.1794 Y2.8315 Z-0.1659
N5180 X0.1771 Y2.8306 Z-0.166
N5185 X0.1727 Y2.8284 Z-0.1661
N5190 X0.1705 Y2.8272 Z-0.1662
N5195 X0.1683 Y2.826 Z-0.1663
N5200 X0.1642 Y2.8232 Z-0.1665
N5205 X0.1622 Y2.8218 Z-0.1666
N5210 X0.1602 Y2.8202 Z-0.1667
N5215 X0.1565 Y2.817 Z-0.1668
N5220 X0.1547 Y2.8153 Z-0.1669
N5225 X0.153 Y2.8135 Z-0.167
N5230 X0.1497 Y2.8097 Z-0.1672
N5235 X0.1481 Y2.8078 Z-0.1673
N5240 X0.1466 Y2.8058 Z-0.1674
N5245 X0.1439 Y2.8017 Z-0.1675
N5250 X0.1426 Y2.7995 Z-0.1676
N5255 X0.1414 Y2.7974 Z-0.1677
N5260 X0.1392 Y2.7929 Z-0.1679
N5265 X0.1383 Y2.7906 Z-0.168
N5270 X0.1374 Y2.7883 Z-0.1681
N5275 X0.1358 Y2.7836 Z-0.1682
N5280 X0.1351 Y2.7812 Z-0.1683
N5285 X0.1345 Y2.7788 Z-0.1684
N5290 X0.1336 Y2.774 Z-0.1686
N5295 X0.1333 Y2.7715 Z-0.1687
N5300 X0.133 Y2.769
N5305 X0.1328 Y2.764 Z-0.1689
N5310 Y2.7616 Z-0.169
N5315 Y2.7591 Z-0.1691
N5320 X0.1332 Y2.7542 Z-0.1693
N5325 X0.1335 Y2.7517
N5330 X0.1339 Y2.7492 Z-0.1694
N5335 X0.135 Y2.7444 Z-0.1696
N5340 X0.1357 Y2.742 Z-0.1697
N5345 X0.1364 Y2.7396 Z-0.1698
N5350 X0.1381 Y2.735 Z-0.17
N5355 X0.1401 Y2.7304 Z-0.1701
N5360 X0.1412 Y2.7282 Z-0.1702
N5365 X0.1424 Y2.726 Z-0.1703
N5370 X0.1449 Y2.7218 Z-0.1705
N5375 X0.1464 Y2.7197 Z-0.1706
N5380 X0.1478 Y2.7177
N5385 X0.1509 Y2.7139 Z-0.1708
N5390 X0.1526 Y2.7121 Z-0.1709
N5395 X0.1543 Y2.7103 Z-0.171
N5400 X0.1579 Y2.7069 Z-0.1712
N5405 X0.1598 Y2.7053
N5410 X0.1617 Y2.7037 Z-0.1713
N5415 X0.1658 Y2.7008 Z-0.1715
N5420 X0.1679 Y2.6995 Z-0.1716
N5425 X0.17 Y2.6982 Z-0.1717
N5430 X0.1744 Y2.6959 Z-0.1719
N5435 X0.1766 Y2.6949
N5440 X0.1789 Y2.6939 Z-0.172
N5445 X0.1836 Y2.6922 Z-0.1722
N5450 X0.1859 Y2.6914 Z-0.1723
N5455 X0.1883 Y2.6908 Z-0.1724
N5460 X0.1931 Y2.6897 Z-0.1725
N5465 X0.1956 Y2.6893 Z-0.1726
N5470 X0.198 Y2.6889 Z-0.1727
N5475 X0.203 Y2.6885 Z-0.1729
N5480 X0.2054 Y2.6884 Z-0.173
N5485 X0.2079 Z-0.1731
N5490 X0.2129 Y2.6886 Z-0.1732
N5495 X0.2153 Y2.6889 Z-0.1733
N5500 X0.2178 Y2.6892 Z-0.1734
N5505 X0.2227 Y2.6901 Z-0.1736
N5510 X0.2251 Y2.6907 Z-0.1737
N5515 X0.2275 Y2.6913
N5520 X0.2322 Y2.6928 Z-0.1739
N5525 X0.2345 Y2.6937 Z-0.174
N5530 X0.2368 Y2.6947 Z-0.1741
N5535 X0.2412 Y2.6968 Z-0.1743
N5540 X0.2434 Y2.698 Z-0.1744
N5545 X0.2455 Y2.6992
N5550 X0.2497 Y2.702 Z-0.1746
N5555 X0.2516 Y2.7034 Z-0.1747
N5560 X0.2536 Y2.705 Z-0.1748
N5565 X0.2573 Y2.7082 Z-0.175
N5570 X0.2591 Y2.7099
N5575 X0.2609 Y2.7117 Z-0.1751
N5580 X0.2641 Y2.7154 Z-0.1753
N5585 X0.2657 Y2.7174 Z-0.1754
N5590 X0.2671 Y2.7193 Z-0.1755
N5595 X0.2699 Y2.7235 Z-0.1756
N5600 X0.2711 Y2.7256 Z-0.1757
N5605 X0.2723 Y2.7277 Z-0.1758
N5610 X0.2745 Y2.7322 Z-0.176
N5615 X0.2755 Y2.7344 Z-0.1761
N5620 X0.2764 Y2.7367 Z-0.1762
N5625 X0.2779 Y2.7414 Z-0.1763
N5630 X0.2786 Y2.7438 Z-0.1764
N5635 X0.2792 Y2.7462 Z-0.1765
N5640 X0.2801 Y2.7511 Z-0.1767
N5645 X0.2804 Y2.7535 Z-0.1768
N5650 X0.2807 Y2.756 Z-0.1769
N5655 X0.281 Y2.761 Z-0.177
N5660 X0.2809 Y2.7659 Z-0.1772
N5665 X0.2804 Y2.7708 Z-0.1774
N5670 X0.2797 Y2.7757 Z-0.1775
N5675 X0.2787 Y2.7805 Z-0.1777
N5680 X0.2773 Y2.7853 Z-0.1779
N5685 X0.2756 Y2.7899 Z-0.1781
N5690 X0.2736 Y2.7944 Z-0.1782
N5695 X0.2713 Y2.7988 Z-0.1784
N5700 X0.2688 Y2.803 Z-0.1786
N5705 X0.2674 Y2.8051 Z-0.1787
N5710 X0.2659 Y2.8071
N5715 X0.2628 Y2.8109 Z-0.1789
N5720 X0.2612 Y2.8127 Z-0.179
N5725 X0.2595 Y2.8145 Z-0.1791
N5730 X0.2559 Y2.8179 Z-0.1793
N5735 X0.254 Y2.8195
N5740 X0.252 Y2.821 Z-0.1794
N5745 X0.248 Y2.8239 Z-0.1796
N5750 X0.246 Y2.8252 Z-0.1797
N5755 X0.2438 Y2.8265 Z-0.1798
N5760 X0.2395 Y2.8288 Z-0.18
N5765 X0.2372 Y2.8299
N5770 X0.235 Y2.8308 Z-0.1801
N5775 X0.2304 Y2.8325 Z-0.1803
N5780 X0.228 Y2.8333 Z-0.1804
N5785 X0.2256 Y2.8339 Z-0.1805
N5790 X0.2208 Y2.835 Z-0.1806
N5795 X0.2184 Y2.8354 Z-0.1807
N5800 X0.2159 Y2.8358 Z-0.1808
N5805 X0.211 Y2.8362 Z-0.181
N5810 X0.2085 Y2.8363 Z-0.1811
N5815 X0.2061 Z-0.1812
N5820 X0.2011 Y2.8361 Z-0.1813
N5825 X0.1987 Y2.8358 Z-0.1814
N5830 X0.1963 Y2.8355 Z-0.1815
N5835 X0.1914 Y2.8346 Z-0.1817
N5840 X0.189 Y2.834 Z-0.1818
N5845 X0.1866 Y2.8334
N5850 X0.1819 Y2.8319 Z-0.182
N5855 X0.1796 Y2.831 Z-0.1821
N5860 X0.1774 Y2.83 Z-0.1822
N5865 X0.1729 Y2.8279 Z-0.1824
N5870 X0.1708 Y2.8267
N5875 X0.1686 Y2.8255 Z-0.1825
N5880 X0.1645 Y2.8228 Z-0.1827
N5885 X0.1625 Y2.8213 Z-0.1828
N5890 X0.1606 Y2.8198 Z-0.1829
N5895 X0.1569 Y2.8166 Z-0.183
N5900 X0.1551 Y2.8148 Z-0.1831
N5905 X0.1534 Y2.8131 Z-0.1832
N5910 X0.1501 Y2.8094 Z-0.1834
N5915 X0.1486 Y2.8074 Z-0.1835
N5920 X0.1471 Y2.8055 Z-0.1836
N5925 X0.1444 Y2.8014 Z-0.1837
N5930 X0.1431 Y2.7993 Z-0.1838
N5935 X0.1419 Y2.7971 Z-0.1839
N5940 X0.1398 Y2.7927 Z-0.1841
N5945 X0.1388 Y2.7904 Z-0.1842
N5950 X0.1379 Y2.7881
N5955 X0.1364 Y2.7834 Z-0.1844
N5960 X0.1357 Y2.7811 Z-0.1845
N5965 X0.1351 Y2.7787 Z-0.1846
N5970 X0.1342 Y2.7739 Z-0.1848
N5975 X0.1339 Y2.7714
N5980 X0.1336 Y2.769 Z-0.1849
N5985 X0.1334 Y2.764 Z-0.1851
N5990 Y2.7616 Z-0.1852
N5995 Y2.7591 Z-0.1853
N6000 X0.1338 Y2.7542 Z-0.1854
N6005 X0.1342 Y2.7518 Z-0.1855
N6010 X0.1346 Y2.7494 Z-0.1856
N6015 X0.1356 Y2.7445 Z-0.1858
N6020 X0.1363 Y2.7422 Z-0.1859
N6025 X0.137 Y2.7398 Z-0.186
N6030 X0.1387 Y2.7352 Z-0.1861
N6035 X0.1406 Y2.7307 Z-0.1863
N6040 X0.1417 Y2.7285 Z-0.1864
N6045 X0.1429 Y2.7263 Z-0.1865
N6050 X0.1455 Y2.7221 Z-0.1867
N6055 X0.1469 Y2.7201
N6060 X0.1483 Y2.7181 Z-0.1868
N6065 X0.1514 Y2.7143 Z-0.187
N6070 X0.1531 Y2.7125 Z-0.1871
N6075 X0.1548 Y2.7107 Z-0.1872
N6080 X0.1583 Y2.7073 Z-0.1873
N6085 X0.1602 Y2.7058 Z-0.1874
N6090 X0.1621 Y2.7042 Z-0.1875
N6095 X0.1661 Y2.7014 Z-0.1877
N6100 X0.1682 Y2.7 Z-0.1878
N6105 X0.1703 Y2.6988 Z-0.1879
N6110 X0.1747 Y2.6965 Z-0.188
N6115 X0.1769 Y2.6954 Z-0.1881
N6120 X0.1791 Y2.6945 Z-0.1882
N6125 X0.1838 Y2.6928 Z-0.1884
N6130 X0.1861 Y2.692 Z-0.1885
N6135 X0.1885 Y2.6914
N6140 X0.1933 Y2.6903 Z-0.1887
N6145 X0.1957 Y2.6899 Z-0.1888
N6150 X0.1981 Y2.6896 Z-0.1889
N6155 X0.203 Y2.6891 Z-0.1891
N6160 X0.2054 Y2.689
N6165 X0.2079 Z-0.1892
N6170 X0.2128 Y2.6893 Z-0.1894
N6175 X0.2153 Y2.6895 Z-0.1895
N6180 X0.2177 Y2.6898 Z-0.1896
N6185 X0.2225 Y2.6907 Z-0.1897
N6190 X0.2249 Y2.6913 Z-0.1898
N6195 X0.2273 Y2.6919 Z-0.1899
N6200 X0.2319 Y2.6934 Z-0.1901
N6205 X0.2342 Y2.6943 Z-0.1902
N6210 X0.2365 Y2.6953
N6215 X0.2409 Y2.6974 Z-0.1904
N6220 X0.2431 Y2.6986 Z-0.1905
N6225 X0.2452 Y2.6998 Z-0.1906
N6230 X0.2493 Y2.7025 Z-0.1908
N6235 X0.2513 Y2.7039
N6240 X0.2532 Y2.7055 Z-0.1909
N6245 X0.2569 Y2.7087 Z-0.1911
N6250 X0.2587 Y2.7104 Z-0.1912
N6255 X0.2604 Y2.7121 Z-0.1913
N6260 X0.2636 Y2.7158 Z-0.1914
N6265 X0.2651 Y2.7177 Z-0.1915
N6270 X0.2666 Y2.7197 Z-0.1916
N6275 X0.2693 Y2.7238 Z-0.1918
N6280 X0.2706 Y2.7259 Z-0.1919
N6285 X0.2718 Y2.728 Z-0.192
N6290 X0.2739 Y2.7324 Z-0.1921
N6295 X0.2749 Y2.7347 Z-0.1922
N6300 X0.2758 Y2.737 Z-0.1923
N6305 X0.2773 Y2.7416 Z-0.1925
N6310 X0.278 Y2.744 Z-0.1926
N6315 X0.2786 Y2.7464
N6320 X0.2795 Y2.7512 Z-0.1928
N6325 X0.2798 Y2.7536 Z-0.1929
N6330 X0.2801 Y2.7561 Z-0.193
N6335 X0.2803 Y2.761 Z-0.1932
N6340 X0.2802 Y2.7659 Z-0.1933
N6345 X0.2798 Y2.7707 Z-0.1935
N6350 X0.2791 Y2.7756 Z-0.1937
N6355 X0.278 Y2.7804 Z-0.1938
N6360 X0.2767 Y2.7851 Z-0.194
N6365 X0.275 Y2.7897 Z-0.1942
N6370 X0.273 Y2.7942 Z-0.1944
N6375 X0.2708 Y2.7985 Z-0.1945
N6380 X0.2683 Y2.8027 Z-0.1947
N6385 X0.2669 Y2.8047 Z-0.1948
N6390 X0.2654 Y2.8067 Z-0.1949
N6395 X0.2623 Y2.8105 Z-0.195
N6400 X0.2607 Y2.8123 Z-0.1951
N6405 X0.259 Y2.8141 Z-0.1952
N6410 X0.2554 Y2.8174 Z-0.1954
N6415 X0.2536 Y2.819 Z-0.1955
N6420 X0.2517 Y2.8205 Z-0.1956
N6425 X0.2477 Y2.8234 Z-0.1957
N6430 X0.2456 Y2.8247 Z-0.1958
N6435 X0.2435 Y2.8259 Z-0.1959
N6440 X0.2392 Y2.8282 Z-0.1961
N6445 X0.237 Y2.8293 Z-0.1962
N6450 X0.2347 Y2.8302
N6455 X0.2301 Y2.8319 Z-0.1964
N6460 X0.2278 Y2.8327 Z-0.1965
N6465 X0.2255 Y2.8333 Z-0.1966
N6470 X0.2207 Y2.8344 Z-0.1967
N6475 X0.2178 Y2.8349 Z-0.1968
N6480 X0.2176 Z-0.1969
N6485 X0.217 Y2.835
N6490 X0.2164 Y2.8351
N6495 X0.2151 Y2.8352
N6500 X0.2127 Y2.8354 Z-0.197
N6505 X0.2077 Y2.8357 Z-0.1972
N6510 X0.2052 Y2.8356 Z-0.1973
N6515 X0.2027 Y2.8355 Z-0.1974
N6520 X0.1977 Y2.8351 Z-0.1975
N6525 X0.1952 Y2.8347 Z-0.1976
N6530 X0.1928 Y2.8342 Z-0.1977
N6535 X0.1879 Y2.8331 Z-0.1979
N6540 X0.1855 Y2.8324 Z-0.198
N6545 X0.1832 Y2.8316 Z-0.1981
N6550 X0.1785 Y2.8298 Z-0.1982
N6555 X0.1762 Y2.8288 Z-0.1983
N6560 X0.174 Y2.8277 Z-0.1984
N6565 X0.1717 Y2.8265 Z-0.1985
N6570 X0.1696 Y2.8253 Z-0.1986
N6575 X0.1654 Y2.8226 Z-0.1988
N6580 X0.1634 Y2.8212 Z-0.1989
N6585 X0.1614 Y2.8197
N6590 X0.1576 Y2.8164 Z-0.1991
N6595 X0.1558 Y2.8147 Z-0.1992
N6600 X0.1541 Y2.8129 Z-0.1993
N6605 X0.1507 Y2.8091 Z-0.1995
N6610 X0.1492 Y2.8072 Z-0.1996
N6615 X0.1477 Y2.8052
N6620 X0.1449 Y2.801 Z-0.1998
N6625 X0.1436 Y2.7989 Z-0.1999
N6630 X0.1424 Y2.7967 Z-0.2
N6635 X0.1403 Y2.7922 Z-0.2002
N6640 X0.1393 Y2.7899
N6645 X0.1384 Y2.7875 Z-0.2003
N6650 X0.1369 Y2.7828 Z-0.2005
N6655 X0.1362 Y2.7804 Z-0.2006
N6660 X0.1356 Y2.778 Z-0.2007
N6665 X0.1348 Y2.7731 Z-0.2009
N6670 X0.1345 Y2.7707
N6675 X0.1342 Y2.7682 Z-0.201
N6680 X0.134 Y2.7632 Z-0.2012
N6685 Y2.7607 Z-0.2013
N6690 X0.1341 Y2.7582 Z-0.2014
N6695 X0.1346 Y2.7532 Z-0.2016
N6700 X0.135 Y2.7508
N6705 X0.1354 Y2.7483 Z-0.2017
N6710 X0.1365 Y2.7435 Z-0.2019
N6715 X0.1373 Y2.7411 Z-0.202
N6720 X0.138 Y2.7387 Z-0.2021
N6725 X0.1398 Y2.7341 Z-0.2022
N6730 X0.1408 Y2.7318 Z-0.2023
N6735 X0.1419 Y2.7296 Z-0.2024
N6740 X0.1443 Y2.7252 Z-0.2026
N6745 X0.1456 Y2.7231 Z-0.2027
N6750 X0.147 Y2.721 Z-0.2028
N6755 X0.1485 Y2.719 Z-0.2029
N6760 X0.15 Y2.717
N6765 X0.1533 Y2.7132 Z-0.2031
N6770 X0.155 Y2.7114 Z-0.2032
N6775 X0.1567 Y2.7097 Z-0.2033
N6780 X0.1604 Y2.7064 Z-0.2035
N6785 X0.1624 Y2.7048 Z-0.2036
N6790 X0.1644 Y2.7033
N6795 X0.1685 Y2.7006 Z-0.2038
N6800 X0.1707 Y2.6993 Z-0.2039
N6805 X0.1729 Y2.6981 Z-0.204
N6810 X0.1774 Y2.6959 Z-0.2042
N6815 X0.1796 Y2.695
N6820 X0.1819 Y2.6941 Z-0.2043
N6825 X0.1867 Y2.6925 Z-0.2045
N6830 X0.1891 Y2.6919 Z-0.2046
N6835 X0.1915 Y2.6913 Z-0.2047
N6840 X0.1964 Y2.6904 Z-0.2049
N6845 X0.1989 Y2.6901
N6850 X0.2014 Y2.6899 Z-0.205
N6855 X0.2063 Y2.6897 Z-0.2052
N6860 X0.2088 Z-0.2053
N6865 X0.2113 Y2.6898 Z-0.2054
N6870 X0.2162 Y2.6903 Z-0.2055
N6875 X0.2187 Y2.6906 Z-0.2056
N6880 X0.2211 Y2.6911 Z-0.2057
N6885 X0.226 Y2.6922 Z-0.2059
N6890 X0.2284 Y2.6929 Z-0.206
N6895 X0.2307 Y2.6937 Z-0.2061
N6900 X0.2354 Y2.6954 Z-0.2062
N6905 X0.2376 Y2.6965 Z-0.2063
N6910 X0.2399 Y2.6976 Z-0.2064
N6915 X0.2443 Y2.7 Z-0.2066
N6920 X0.2463 Y2.7013 Z-0.2067
N6925 X0.2484 Y2.7026 Z-0.2068
N6930 X0.2504 Y2.7041
N6935 X0.2524 Y2.7056 Z-0.2069
N6940 X0.2561 Y2.7088 Z-0.2071
N6945 X0.258 Y2.7106 Z-0.2072
N6950 X0.2597 Y2.7123 Z-0.2073
N6955 X0.263 Y2.7161 Z-0.2075
N6960 X0.2646 Y2.718
N6965 X0.266 Y2.72 Z-0.2076
N6970 X0.2688 Y2.7241 Z-0.2078
N6975 X0.2701 Y2.7262 Z-0.2079
N6980 X0.2713 Y2.7284 Z-0.208
N6985 X0.2734 Y2.7329 Z-0.2081
N6990 X0.2744 Y2.7352 Z-0.2082
N6995 X0.2753 Y2.7375 Z-0.2083
N7000 X0.2768 Y2.7422 Z-0.2085
N7005 X0.2775 Y2.7446 Z-0.2086
N7010 X0.278 Y2.747 Z-0.2087
N7015 X0.2789 Y2.7519 Z-0.2088
N7020 X0.2792 Y2.7544 Z-0.2089
N7025 X0.2795 Y2.7568 Z-0.209
N7030 X0.2797 Y2.7618 Z-0.2092
N7035 X0.2795 Y2.7668 Z-0.2094
N7040 X0.2791 Y2.7717 Z-0.2095
N7045 X0.2783 Y2.7765 Z-0.2097
N7050 X0.2771 Y2.7814 Z-0.2099
N7055 X0.2757 Y2.7862 Z-0.2101
N7060 X0.2739 Y2.7908 Z-0.2102
N7065 X0.2718 Y2.7953 Z-0.2104
N7070 X0.2694 Y2.7997 Z-0.2106
N7075 X0.2681 Y2.8018 Z-0.2107
N7080 X0.2667 Y2.8038
N7085 X0.2653 Y2.8058 Z-0.2108
N7090 X0.2638 Y2.8078 Z-0.2109
N7095 X0.2605 Y2.8116 Z-0.2111
N7100 X0.2588 Y2.8134 Z-0.2112
N7105 X0.2571 Y2.8151 Z-0.2113
N7110 X0.2533 Y2.8184 Z-0.2114
N7115 X0.2514 Y2.8199 Z-0.2115
N7120 X0.2494 Y2.8214 Z-0.2116
N7125 X0.2453 Y2.8242 Z-0.2118
N7130 X0.2432 Y2.8254 Z-0.2119
N7135 X0.241 Y2.8266 Z-0.212
N7140 X0.2365 Y2.8288 Z-0.2121
N7145 X0.2343 Y2.8297 Z-0.2122
N7150 X0.232 Y2.8306 Z-0.2123
N7155 X0.2273 Y2.8322 Z-0.2125
N7160 X0.2249 Y2.8328 Z-0.2126
N7165 X0.2224 Y2.8334
N7170 X0.2175 Y2.8343 Z-0.2128
N7175 X0.2151 Y2.8346 Z-0.2129
N7180 X0.2126 Y2.8348 Z-0.213
N7185 X0.2077 Y2.835 Z-0.2132
N7190 X0.2052
N7195 X0.2027 Y2.8349 Z-0.2133
N7200 X0.1978 Y2.8344 Z-0.2135
N7205 X0.1953 Y2.8341 Z-0.2136
N7210 X0.1929 Y2.8336 Z-0.2137
N7215 X0.1881 Y2.8325 Z-0.2139
N7220 X0.1857 Y2.8318
N7225 X0.1834 Y2.831 Z-0.214
N7230 X0.1787 Y2.8292 Z-0.2142
N7235 X0.1765 Y2.8282 Z-0.2143
N7240 X0.1743 Y2.8271 Z-0.2144
N7245 X0.1721 Y2.826 Z-0.2145
N7250 X0.1699 Y2.8247
N7255 X0.1658 Y2.8221 Z-0.2147
N7260 X0.1638 Y2.8206 Z-0.2148
N7265 X0.1618 Y2.8191 Z-0.2149
N7270 X0.1581 Y2.8159 Z-0.2151
N7275 X0.1563 Y2.8142
N7280 X0.1545 Y2.8124 Z-0.2152
N7285 X0.1513 Y2.8087 Z-0.2154
N7290 X0.1497 Y2.8068 Z-0.2155
N7295 X0.1482 Y2.8048 Z-0.2156
N7300 X0.1455 Y2.8007 Z-0.2158
N7305 X0.1442 Y2.7985
N7310 X0.143 Y2.7964 Z-0.2159
N7315 X0.1409 Y2.7919 Z-0.2161
N7320 X0.1399 Y2.7896 Z-0.2162
N7325 X0.139 Y2.7873 Z-0.2163
N7330 X0.1375 Y2.7827 Z-0.2164
N7335 X0.1369 Y2.7803 Z-0.2165
N7340 X0.1363 Y2.7779 Z-0.2166
N7345 X0.1354 Y2.773 Z-0.2168
N7350 X0.1351 Y2.7706 Z-0.2169
N7355 X0.1349 Y2.7681 Z-0.217
N7360 X0.1347 Y2.7632 Z-0.2171
N7365 Y2.7607 Z-0.2172
N7370 X0.1348 Y2.7582 Z-0.2173
N7375 X0.1353 Y2.7533 Z-0.2175
N7380 X0.1357 Y2.7509 Z-0.2176
N7385 X0.1361 Y2.7485
N7390 X0.1372 Y2.7437 Z-0.2178
N7395 X0.1379 Y2.7413 Z-0.2179
N7400 X0.1387 Y2.7389 Z-0.218
N7405 X0.1405 Y2.7343 Z-0.2182
N7410 X0.1415 Y2.7321
N7415 X0.1426 Y2.7299 Z-0.2183
N7420 X0.1449 Y2.7255 Z-0.2185
N7425 X0.1462 Y2.7235 Z-0.2186
N7430 X0.1476 Y2.7214 Z-0.2187
N7435 X0.1491 Y2.7194 Z-0.2188
N7440 X0.1506 Y2.7174
N7445 X0.1538 Y2.7137 Z-0.219
N7450 X0.1555 Y2.7119 Z-0.2191
N7455 X0.1572 Y2.7102 Z-0.2192
N7460 X0.1609 Y2.707 Z-0.2194
N7465 X0.1628 Y2.7054 Z-0.2195
N7470 X0.1648 Y2.7039
N7475 X0.1689 Y2.7012 Z-0.2197
N7480 X0.171 Y2.6999 Z-0.2198
N7485 X0.1732 Y2.6987 Z-0.2199
N7490 X0.1776 Y2.6966 Z-0.2201
N7495 X0.1799 Y2.6956
N7500 X0.1822 Y2.6948 Z-0.2202
N7505 X0.1869 Y2.6932 Z-0.2204
N7510 X0.1893 Y2.6926 Z-0.2205
N7515 X0.1917 Y2.692 Z-0.2206
N7520 X0.1965 Y2.6912 Z-0.2207
N7525 X0.199 Y2.6909 Z-0.2208
N7530 X0.2014 Y2.6906 Z-0.2209
N7535 X0.2063 Y2.6904 Z-0.2211
N7540 X0.2088 Z-0.2212
N7545 X0.2112 Y2.6905 Z-0.2213
N7550 X0.2161 Y2.691 Z-0.2214
N7555 X0.2186 Y2.6914 Z-0.2215
N7560 X0.221 Y2.6918 Z-0.2216
N7565 X0.2258 Y2.6929 Z-0.2218
N7570 X0.2281 Y2.6936 Z-0.2219
N7575 X0.2305 Y2.6944
N7580 X0.2351 Y2.6962 Z-0.2221
N7585 X0.2373 Y2.6972 Z-0.2222
N7590 X0.2395 Y2.6982 Z-0.2223
N7595 X0.2438 Y2.7006 Z-0.2225
N7600 X0.2459 Y2.7019
N7605 X0.248 Y2.7033 Z-0.2226
N7610 X0.25 Y2.7047 Z-0.2227
N7615 X0.2519 Y2.7062 Z-0.2228
N7620 X0.2556 Y2.7094 Z-0.223
N7625 X0.2574 Y2.7111 Z-0.2231
N7630 X0.2591 Y2.7129
N7635 X0.2624 Y2.7166 Z-0.2233
N7640 X0.2639 Y2.7185 Z-0.2234
N7645 X0.2654 Y2.7204 Z-0.2235
N7650 X0.2681 Y2.7245 Z-0.2237
N7655 X0.2694 Y2.7266
N7660 X0.2706 Y2.7288 Z-0.2238
N7665 X0.2727 Y2.7332 Z-0.224
N7670 X0.2737 Y2.7355 Z-0.2241
N7675 X0.2745 Y2.7378 Z-0.2242
N7680 X0.2761 Y2.7424 Z-0.2243
N7685 X0.2767 Y2.7448 Z-0.2244
N7690 X0.2773 Y2.7472 Z-0.2245
N7695 X0.2781 Y2.752 Z-0.2247
N7700 X0.2784 Y2.7545 Z-0.2248
N7705 X0.2787 Y2.7569 Z-0.2249
N7710 X0.2789 Y2.7618 Z-0.225
N7715 X0.2787 Y2.7667 Z-0.2252
N7720 X0.2783 Y2.7716 Z-0.2254
N7725 X0.2775 Y2.7764 Z-0.2255
N7730 X0.2763 Y2.7812 Z-0.2257
N7735 X0.2749 Y2.7859 Z-0.2259
N7740 X0.2731 Y2.7905 Z-0.2261
N7745 X0.2711 Y2.7949 Z-0.2262
N7750 X0.2687 Y2.7992 Z-0.2264
N7755 X0.2674 Y2.8013 Z-0.2265
N7760 X0.266 Y2.8033 Z-0.2266
N7765 X0.2646 Y2.8053 Z-0.2267
N7770 X0.2631 Y2.8073
N7775 X0.2599 Y2.811 Z-0.2269
N7780 X0.2582 Y2.8128 Z-0.227
N7785 X0.2565 Y2.8145 Z-0.2271
N7790 X0.2528 Y2.8177 Z-0.2273
N7795 X0.2509 Y2.8193
N7800 X0.2489 Y2.8207 Z-0.2274
N7805 X0.2448 Y2.8234 Z-0.2276
N7810 X0.2427 Y2.8247 Z-0.2277
N7815 X0.2406 Y2.8259 Z-0.2278
N7820 X0.2362 Y2.828 Z-0.2279
N7825 X0.2339 Y2.829 Z-0.228
N7830 X0.2317 Y2.8298 Z-0.2281
N7835 X0.227 Y2.8313 Z-0.2283
N7840 X0.2246 Y2.832 Z-0.2284
N7845 X0.2222 Y2.8325
N7850 X0.2174 Y2.8334 Z-0.2286
N7855 X0.215 Y2.8337 Z-0.2287
N7860 X0.2126 Y2.8339 Z-0.2288
N7865 X0.2077 Y2.8342 Z-0.229
N7870 X0.2052 Y2.8341
N7875 X0.2028 Y2.834 Z-0.2291
N7880 X0.1979 Y2.8336 Z-0.2293
N7885 X0.1955 Y2.8332 Z-0.2294
N7890 X0.1931 Y2.8328 Z-0.2295
N7895 X0.1883 Y2.8316 Z-0.2296
N7900 X0.186 Y2.831 Z-0.2297
N7905 X0.1837 Y2.8302 Z-0.2298
N7910 X0.1791 Y2.8284 Z-0.23
N7915 X0.1769 Y2.8274 Z-0.2301
N7920 X0.1747 Y2.8264 Z-0.2302
N7925 X0.1725 Y2.8252
N7930 X0.1704 Y2.824 Z-0.2303
N7935 X0.1663 Y2.8214 Z-0.2305
N7940 X0.1643 Y2.8199 Z-0.2306
N7945 X0.1624 Y2.8184 Z-0.2307
N7950 X0.1587 Y2.8152 Z-0.2308
N7955 X0.1569 Y2.8136 Z-0.2309
N7960 X0.1552 Y2.8118 Z-0.231
N7965 X0.1519 Y2.8082 Z-0.2312
N7970 X0.1504 Y2.8062 Z-0.2313
N7975 X0.1489 Y2.8043
N7980 X0.1462 Y2.8002 Z-0.2315
N7985 X0.145 Y2.7981 Z-0.2316
N7990 X0.1438 Y2.796 Z-0.2317
N7995 X0.1417 Y2.7916 Z-0.2319
N8000 X0.1407 Y2.7893
N8005 X0.1399 Y2.7871 Z-0.232
N8010 X0.1384 Y2.7824 Z-0.2322
N8015 X0.1377 Y2.7801 Z-0.2323
N8020 X0.1372 Y2.7777 Z-0.2324
N8025 X0.1363 Y2.7729 Z-0.2325
N8030 X0.136 Y2.7705 Z-0.2326
N8035 X0.1358 Y2.7681 Z-0.2327
N8040 X0.1356 Y2.7632 Z-0.2329
N8045 Y2.7607 Z-0.233
N8050 X0.1357 Y2.7583 Z-0.2331
N8055 X0.1362 Y2.7534 Z-0.2332
N8060 X0.1365 Y2.751 Z-0.2333
N8065 X0.137 Y2.7486 Z-0.2334
N8070 X0.1381 Y2.7439 Z-0.2336
N8075 X0.1387 Y2.7415
N8080 X0.1395 Y2.7392 Z-0.2337
N8085 X0.1413 Y2.7347 Z-0.2339
N8090 X0.1423 Y2.7325 Z-0.234
N8095 X0.1433 Y2.7303 Z-0.2341
N8100 X0.1457 Y2.726 Z-0.2342
N8105 X0.147 Y2.7239 Z-0.2343
N8110 X0.1483 Y2.7219 Z-0.2344
N8115 X0.1497 Y2.7199 Z-0.2345
N8120 X0.1512 Y2.718 Z-0.2346
N8125 X0.1544 Y2.7143 Z-0.2348
N8130 X0.1561 Y2.7125
N8135 X0.1578 Y2.7108 Z-0.2349
N8140 X0.1615 Y2.7076 Z-0.2351
N8145 X0.1634 Y2.7061 Z-0.2352
N8150 X0.1653 Y2.7046 Z-0.2353
N8155 X0.1694 Y2.7019 Z-0.2354
N8160 X0.1715 Y2.7007 Z-0.2355
N8165 X0.1736 Y2.6995 Z-0.2356
N8170 X0.178 Y2.6974 Z-0.2358
N8175 X0.1802 Y2.6964 Z-0.2359
N8180 X0.1825 Y2.6956
N8185 X0.1871 Y2.6941 Z-0.2361
N8190 X0.1901 Y2.6933 Z-0.2362
N8195 X0.1903 Y2.6932
N8200 X0.1909 Y2.6931
N8205 X0.1915 Y2.6929 Z-0.2363
N8210 X0.1927 Y2.6927
N8215 X0.1952 Y2.6922 Z-0.2364
N8220 X0.2002 Y2.6916 Z-0.2366
N8225 X0.2028 Y2.6914 Z-0.2367
N8230 X0.2054 Y2.6913 Z-0.2368
N8235 X0.2079
N8240 X0.2105 Y2.6914 Z-0.2369
N8245 X0.2155 Y2.6918 Z-0.2371
N8250 X0.218 Y2.6922 Z-0.2372
N8255 X0.2205 Y2.6926 Z-0.2373
N8260 X0.2255 Y2.6937 Z-0.2375
N8265 X0.2279 Y2.6945 Z-0.2376
N8270 X0.2303 Y2.6953
N8275 X0.2327 Y2.6961 Z-0.2377
N8280 X0.2351 Y2.6971 Z-0.2378
N8285 X0.2397 Y2.6993 Z-0.238
N8290 X0.2419 Y2.7005 Z-0.2381
N8295 X0.2441 Y2.7018 Z-0.2382
N8300 X0.2483 Y2.7046 Z-0.2383
N8305 X0.2504 Y2.7061 Z-0.2384
N8310 X0.2523 Y2.7077 Z-0.2385
N8315 X0.2543 Y2.7094 Z-0.2386
N8320 X0.2562 Y2.7111 Z-0.2387
N8325 X0.2597 Y2.7147 Z-0.2389
N8330 X0.2613 Y2.7166 Z-0.239
N8335 X0.2629 Y2.7186 Z-0.2391
N8340 X0.2659 Y2.7227 Z-0.2392
N8345 X0.2673 Y2.7248 Z-0.2393
N8350 X0.2686 Y2.727 Z-0.2394
N8355 X0.2709 Y2.7315 Z-0.2396
N8360 X0.272 Y2.7338 Z-0.2397
N8365 X0.273 Y2.7361 Z-0.2398
N8370 X0.2739 Y2.7385 Z-0.2399
N8375 X0.2747 Y2.7409
N8380 X0.2761 Y2.7458 Z-0.2401
N8385 X0.2766 Y2.7483 Z-0.2402
N8390 X0.2771 Y2.7508 Z-0.2403
N8395 X0.2777 Y2.7558 Z-0.2405
N8400 X0.278 Y2.7609 Z-0.2407
N8405 X0.2779 Y2.766 Z-0.2408
N8410 X0.2775 Y2.771 Z-0.241
N8415 X0.2767 Y2.7759 Z-0.2412
N8420 X0.2755 Y2.7809 Z-0.2414
N8425 X0.274 Y2.7857 Z-0.2415
N8430 X0.2731 Y2.7881 Z-0.2416
N8435 X0.2722 Y2.7905 Z-0.2417
N8440 X0.27 Y2.7951 Z-0.2419
N8445 X0.2675 Y2.7995 Z-0.2421
N8450 X0.2647 Y2.8037 Z-0.2422
N8455 X0.2632 Y2.8057 Z-0.2423
N8460 X0.2616 Y2.8077 Z-0.2424
N8465 X0.26 Y2.8096 Z-0.2425
N8470 X0.2583 Y2.8115 Z-0.2426
N8475 X0.2546 Y2.815 Z-0.2428
N8480 X0.2527 Y2.8167 Z-0.2429
N8485 X0.2508 Y2.8182
N8490 X0.2467 Y2.8212 Z-0.2431
N8495 X0.2446 Y2.8226 Z-0.2432
N8500 X0.2424 Y2.8239 Z-0.2433
N8505 X0.2379 Y2.8263 Z-0.2435
N8510 X0.2356 Y2.8273 Z-0.2436
N8515 X0.2333 Y2.8283 Z-0.2437
N8520 X0.2309 Y2.8292
N8525 X0.2285 Y2.83 Z-0.2438
N8530 X0.2236 Y2.8314 Z-0.244
N8535 X0.2212 Y2.8319 Z-0.2441
N8540 X0.2187 Y2.8323 Z-0.2442
N8545 X0.2137 Y2.833 Z-0.2444
N8550 X0.2112 Y2.8332
N8555 X0.2086 Y2.8333 Z-0.2445
N8560 X0.2061 Z-0.2446
N8565 X0.2036 Y2.8332 Z-0.2447
N8570 X0.1985 Y2.8328 Z-0.2449
N8575 X0.196 Y2.8324 Z-0.245
N8580 X0.1936 Y2.832 Z-0.2451
N8585 X0.1886 Y2.8308 Z-0.2452
N8590 X0.1862 Y2.8301 Z-0.2453
N8595 X0.1838 Y2.8293 Z-0.2454
N8600 X0.1814 Y2.8285 Z-0.2455
N8605 X0.1791 Y2.8275 Z-0.2456
N8610 X0.1745 Y2.8253 Z-0.2458
N8615 X0.1723 Y2.8241 Z-0.2459
N8620 X0.1701 Y2.8229
N8625 X0.1659 Y2.8201 Z-0.2461
N8630 X0.1639 Y2.8186 Z-0.2462
N8635 X0.162 Y2.817 Z-0.2463
N8640 X0.1601 Y2.8154 Z-0.2464
N8645 X0.1582 Y2.8137 Z-0.2465
N8650 X0.1547 Y2.81 Z-0.2467
N8655 X0.153 Y2.8081
N8660 X0.1514 Y2.8062 Z-0.2468
N8665 X0.1485 Y2.8021 Z-0.247
N8670 X0.1471 Y2.8 Z-0.2471
N8675 X0.1458 Y2.7978 Z-0.2472
N8680 X0.1434 Y2.7933 Z-0.2474
N8685 X0.1424 Y2.7911
N8690 X0.1414 Y2.7887 Z-0.2475
N8695 X0.1405 Y2.7864 Z-0.2476
N8700 X0.1397 Y2.784 Z-0.2477
N8705 X0.1384 Y2.7791 Z-0.2479
N8710 X0.1378 Y2.7766 Z-0.248
N8715 X0.1374 Y2.7742 Z-0.2481
N8720 X0.1367 Y2.7692 Z-0.2482
N8725 X0.1365 Y2.7667 Z-0.2483
N8730 X0.1364 Y2.7641 Z-0.2484
N8735 Y2.7616 Z-0.2485
N8740 X0.1365 Y2.7591 Z-0.2486
N8745 X0.1369 Y2.7541 Z-0.2488
N8750 X0.1373 Y2.7516
N8755 X0.1377 Y2.7491 Z-0.2489
N8760 X0.1389 Y2.7442 Z-0.2491
N8765 X0.1396 Y2.7418 Z-0.2492
N8770 X0.1404 Y2.7394 Z-0.2493
N8775 X0.1412 Y2.737 Z-0.2494
N8780 X0.1422 Y2.7347 Z-0.2495
N8785 X0.1443 Y2.7301 Z-0.2496
N8790 X0.1455 Y2.7279 Z-0.2497
N8795 X0.1468 Y2.7257 Z-0.2498
N8800 X0.1496 Y2.7216 Z-0.25
N8805 X0.1511 Y2.7195 Z-0.2501
N8810 X0.1527 Y2.7176 Z-0.2502
N8815 X0.156 Y2.7138 Z-0.2503
N8820 X0.1578 Y2.7121 Z-0.2504
N8825 X0.1596 Y2.7103 Z-0.2505
N8830 X0.1615 Y2.7087 Z-0.2506
N8835 X0.1635 Y2.7071 Z-0.2507
N8840 X0.1675 Y2.7041 Z-0.2509
N8845 X0.1697 Y2.7028 Z-0.251
N8850 X0.1718 Y2.7015
N8855 X0.1762 Y2.6991 Z-0.2512
N8860 X0.1785 Y2.6981 Z-0.2513
N8865 X0.1808 Y2.6971 Z-0.2514
N8870 X0.1832 Y2.6962 Z-0.2515
N8875 X0.1856 Y2.6954 Z-0.2516
N8880 X0.1905 Y2.6941 Z-0.2517
N8885 X0.1929 Y2.6935 Z-0.2518
N8890 X0.1954 Y2.6931 Z-0.2519
N8895 X0.2003 Y2.6924 Z-0.2521
N8900 X0.2028 Y2.6922 Z-0.2522
N8905 X0.2054 Y2.6921 Z-0.2523
N8910 X0.2079 Z-0.2524
N8915 X0.2104 Y2.6922
N8920 X0.2154 Y2.6926 Z-0.2526
N8925 X0.2179 Y2.693 Z-0.2527
N8930 X0.2203 Y2.6934 Z-0.2528
N8935 X0.2252 Y2.6946 Z-0.253
N8940 X0.2277 Y2.6953 Z-0.2531
N8945 X0.23 Y2.6961
N8950 X0.2324 Y2.6969 Z-0.2532
N8955 X0.2347 Y2.6979 Z-0.2533
N8960 X0.2393 Y2.7 Z-0.2535
N8965 X0.2415 Y2.7012 Z-0.2536
N8970 X0.2436 Y2.7025 Z-0.2537
N8975 X0.2478 Y2.7053 Z-0.2538
N8980 X0.2498 Y2.7068 Z-0.2539
N8985 X0.2518 Y2.7083 Z-0.254
N8990 X0.2556 Y2.7117 Z-0.2542
N8995 X0.2573 Y2.7134 Z-0.2543
N9000 X0.259 Y2.7153 Z-0.2544
N9005 X0.2607 Y2.7172 Z-0.2545
N9010 X0.2622 Y2.7191
N9015 X0.2652 Y2.7232 Z-0.2547
N9020 X0.2665 Y2.7253 Z-0.2548
N9025 X0.2678 Y2.7274 Z-0.2549
N9030 X0.2702 Y2.7318 Z-0.2551
N9035 X0.2712 Y2.7341 Z-0.2552
N9040 X0.2722 Y2.7364
N9045 X0.2731 Y2.7388 Z-0.2553
N9050 X0.2739 Y2.7412 Z-0.2554
N9055 X0.2752 Y2.746 Z-0.2556
N9060 X0.2758 Y2.7484 Z-0.2557
N9065 X0.2762 Y2.7509 Z-0.2558
N9070 X0.2769 Y2.7559 Z-0.2559
N9075 X0.277 Y2.7584 Z-0.256
N9080 X0.2771 Y2.7609 Z-0.2561
N9085 X0.277 Y2.7659 Z-0.2563
N9090 X0.2766 Y2.7709 Z-0.2565
N9095 X0.2758 Y2.7758 Z-0.2566
N9100 X0.2747 Y2.7807 Z-0.2568
N9105 X0.2732 Y2.7855 Z-0.257
N9110 X0.2723 Y2.7878 Z-0.2571
N9115 X0.2714 Y2.7901 Z-0.2572
N9120 X0.2692 Y2.7947 Z-0.2573
N9125 X0.2668 Y2.799 Z-0.2575
N9130 X0.264 Y2.8032 Z-0.2577
N9135 X0.2625 Y2.8052 Z-0.2578
N9140 X0.261 Y2.8071 Z-0.2579
N9145 X0.2593 Y2.809 Z-0.258
N9150 X0.2576 Y2.8109
N9155 X0.254 Y2.8143 Z-0.2582
N9160 X0.2522 Y2.816 Z-0.2583
N9165 X0.2502 Y2.8175 Z-0.2584
N9170 X0.2462 Y2.8205 Z-0.2586
N9175 X0.2441 Y2.8218
N9180 X0.2419 Y2.8231 Z-0.2587
N9185 X0.2375 Y2.8255 Z-0.2589
N9190 X0.2353 Y2.8265 Z-0.259
N9195 X0.233 Y2.8274 Z-0.2591
N9200 X0.2306 Y2.8283 Z-0.2592
N9205 X0.2282 Y2.8291 Z-0.2593
N9210 X0.2234 Y2.8305 Z-0.2594
N9215 X0.221 Y2.831 Z-0.2595
N9220 X0.2185 Y2.8315 Z-0.2596
N9225 X0.2136 Y2.8321 Z-0.2598
N9230 X0.2111 Y2.8323 Z-0.2599
N9235 X0.2086 Y2.8324 Z-0.26
N9240 X0.2061
N9245 X0.2036 Y2.8323 Z-0.2601
N9250 X0.1987 Y2.8319 Z-0.2603
N9255 X0.1962 Y2.8315 Z-0.2604
N9260 X0.1937 Y2.8311 Z-0.2605
N9265 X0.1889 Y2.83 Z-0.2606
N9270 X0.1865 Y2.8292 Z-0.2607
N9275 X0.1841 Y2.8285 Z-0.2608
N9280 X0.1818 Y2.8276 Z-0.2609
N9285 X0.1795 Y2.8267 Z-0.261
N9290 X0.175 Y2.8245 Z-0.2612
N9295 X0.1728 Y2.8233 Z-0.2613
N9300 X0.1706 Y2.8221
N9305 X0.1665 Y2.8193 Z-0.2615
N9310 X0.1645 Y2.8178 Z-0.2616
N9315 X0.1625 Y2.8163 Z-0.2617
N9320 X0.1607 Y2.8147 Z-0.2618
N9325 X0.1588 Y2.813 Z-0.2619
N9330 X0.1554 Y2.8094 Z-0.262
N9335 X0.1537 Y2.8075 Z-0.2621
N9340 X0.1522 Y2.8056 Z-0.2622
N9345 X0.1492 Y2.8015 Z-0.2624
N9350 X0.1479 Y2.7995 Z-0.2625
N9355 X0.1466 Y2.7973 Z-0.2626
N9360 X0.1443 Y2.7929 Z-0.2627
N9365 X0.1433 Y2.7907 Z-0.2628
N9370 X0.1423 Y2.7884 Z-0.2629
N9375 X0.1414 Y2.786 Z-0.263
N9380 X0.1406 Y2.7837 Z-0.2631
N9385 X0.1393 Y2.7789 Z-0.2633
N9390 X0.1388 Y2.7764
N9395 X0.1383 Y2.774 Z-0.2634
N9400 X0.1377 Y2.7691 Z-0.2636
N9405 X0.1375 Y2.7666 Z-0.2637
N9410 X0.1374 Y2.7641 Z-0.2638
N9415 Y2.7616 Z-0.2639
N9420 X0.1375 Y2.7591
N9425 X0.1379 Y2.7542 Z-0.2641
N9430 X0.1382 Y2.7517 Z-0.2642
N9435 X0.1387 Y2.7493 Z-0.2643
N9440 X0.1398 Y2.7444 Z-0.2645
N9445 X0.1405 Y2.7421 Z-0.2646
N9450 X0.1413 Y2.7397
N9455 X0.1421 Y2.7374 Z-0.2647
N9460 X0.1431 Y2.7351 Z-0.2648
N9465 X0.1452 Y2.7306 Z-0.265
N9470 X0.1464 Y2.7284 Z-0.2651
N9475 X0.1477 Y2.7263 Z-0.2652
N9480 X0.1504 Y2.7221 Z-0.2653
N9485 X0.1519 Y2.7202 Z-0.2654
N9490 X0.1534 Y2.7182 Z-0.2655
N9495 X0.1567 Y2.7145 Z-0.2657
N9500 X0.1585 Y2.7128 Z-0.2658
N9505 X0.1603 Y2.7111 Z-0.2659
N9510 X0.1622 Y2.7094
N9515 X0.1641 Y2.7079 Z-0.266
N9520 X0.1681 Y2.705 Z-0.2662
N9525 X0.1702 Y2.7036 Z-0.2663
N9530 X0.1723 Y2.7023 Z-0.2664
N9535 X0.1767 Y2.7 Z-0.2665
N9540 X0.1789 Y2.699 Z-0.2666
N9545 X0.1812 Y2.698 Z-0.2667
N9550 X0.1836 Y2.6972 Z-0.2668
N9555 X0.1859 Y2.6964 Z-0.2669
N9560 X0.1907 Y2.695 Z-0.2671
N9565 X0.1931 Y2.6945 Z-0.2672
N9570 X0.1955 Y2.6941
N9575 X0.2004 Y2.6934 Z-0.2674
N9580 X0.2029 Y2.6933 Z-0.2675
N9585 X0.2054 Y2.6932 Z-0.2676
N9590 X0.2079 Z-0.2677
N9595 X0.2103 Z-0.2678
N9600 X0.2153 Y2.6937 Z-0.2679
N9605 X0.2177 Y2.694 Z-0.268
N9610 X0.2202 Y2.6944 Z-0.2681
N9615 X0.225 Y2.6956 Z-0.2683
N9620 X0.2274 Y2.6963 Z-0.2684
N9625 X0.2297 Y2.697
N9630 X0.232 Y2.6979 Z-0.2685
N9635 X0.2343 Y2.6988 Z-0.2686
N9640 X0.2388 Y2.7009 Z-0.2688
N9645 X0.241 Y2.7021 Z-0.2689
N9650 X0.2431 Y2.7034 Z-0.269
N9655 X0.2472 Y2.7061 Z-0.2691
N9660 X0.2492 Y2.7076 Z-0.2692
N9665 X0.2511 Y2.7091 Z-0.2693
N9670 X0.2548 Y2.7124 Z-0.2695
N9675 X0.2566 Y2.7142 Z-0.2696
N9680 X0.2582 Y2.716 Z-0.2697
N9685 X0.2599 Y2.7178
N9690 X0.2614 Y2.7197 Z-0.2698
N9695 X0.2643 Y2.7237 Z-0.27
N9700 X0.2657 Y2.7258 Z-0.2701
N9705 X0.2669 Y2.7279 Z-0.2702
N9710 X0.2692 Y2.7323 Z-0.2703
N9715 X0.2703 Y2.7345 Z-0.2704
N9720 X0.2712 Y2.7368 Z-0.2705
N9725 X0.2721 Y2.7391 Z-0.2706
N9730 X0.2729 Y2.7415 Z-0.2707
N9735 X0.2742 Y2.7462 Z-0.2709
N9740 X0.2747 Y2.7487
N9745 X0.2752 Y2.7511 Z-0.271
N9750 X0.2758 Y2.756 Z-0.2712
N9755 X0.2761 Y2.7609 Z-0.2714
N9760 X0.276 Y2.7658 Z-0.2715
N9765 X0.2755 Y2.7707 Z-0.2717
N9770 X0.2748 Y2.7756 Z-0.2719
N9775 X0.2737 Y2.7804 Z-0.2721
N9780 X0.2722 Y2.7851 Z-0.2722
N9785 X0.2713 Y2.7874 Z-0.2723
N9790 X0.2704 Y2.7897 Z-0.2724
N9795 X0.2683 Y2.7942 Z-0.2726
N9800 X0.2659 Y2.7985 Z-0.2728
N9805 X0.2632 Y2.8026 Z-0.2729
N9810 X0.2617 Y2.8045 Z-0.273
N9815 X0.2602 Y2.8065 Z-0.2731
N9820 X0.2585 Y2.8083 Z-0.2732
N9825 X0.2569 Y2.8101 Z-0.2733
N9830 X0.2533 Y2.8136 Z-0.2734
N9835 X0.2515 Y2.8152 Z-0.2735
N9840 X0.2496 Y2.8167 Z-0.2736
N9845 X0.2456 Y2.8196 Z-0.2738
N9850 X0.2435 Y2.8209 Z-0.2739
N9855 X0.2414 Y2.8222 Z-0.274
N9860 X0.2371 Y2.8245 Z-0.2741
N9865 X0.2348 Y2.8255 Z-0.2742
N9870 X0.2326 Y2.8265 Z-0.2743
N9875 X0.2303 Y2.8273 Z-0.2744
N9880 X0.2279 Y2.8281 Z-0.2745
N9885 X0.2232 Y2.8294 Z-0.2746
N9890 X0.2208 Y2.83 Z-0.2747
N9895 X0.2184 Y2.8304 Z-0.2748
N9900 X0.2135 Y2.831 Z-0.275
N9905 X0.211 Y2.8312 Z-0.2751
N9910 X0.2086 Y2.8313 Z-0.2752
N9915 X0.2061
N9920 X0.2037 Y2.8312 Z-0.2753
N9925 X0.2 Y2.831 Z-0.2755
N9930 X0.1963 Y2.8305 Z-0.2756
N9935 X0.1961 Y2.8304
N9940 X0.1954 Y2.8303
N9945 X0.1948 Y2.8302
N9950 X0.1935 Y2.83 Z-0.2757
N9955 X0.191 Y2.8294 Z-0.2758
N9960 X0.186 Y2.828 Z-0.276
N9965 X0.1836 Y2.8272
N9970 X0.1812 Y2.8262 Z-0.2761
N9975 X0.1789 Y2.8252 Z-0.2762
N9980 X0.1765 Y2.8241 Z-0.2763
N9985 X0.172 Y2.8217 Z-0.2765
N9990 X0.1698 Y2.8203 Z-0.2766
N9995 X0.1677 Y2.8189 Z-0.2767
N10000 X0.1656 Y2.8174 Z-0.2768
N10005 X0.1636 Y2.8158
N10010 X0.1598 Y2.8124 Z-0.277
N10015 X0.1579 Y2.8106 Z-0.2771
N10020 X0.1562 Y2.8087 Z-0.2772
N10025 X0.1545 Y2.8068 Z-0.2773
N10030 X0.1529 Y2.8048 Z-0.2774
N10035 X0.1499 Y2.8006 Z-0.2776
N10040 X0.1485 Y2.7984 Z-0.2777
N10045 X0.1472 Y2.7962
N10050 X0.146 Y2.7939 Z-0.2778
N10055 X0.1449 Y2.7916 Z-0.2779
N10060 X0.1429 Y2.7869 Z-0.2781
N10065 X0.142 Y2.7845 Z-0.2782
N10070 X0.1412 Y2.782 Z-0.2783
N10075 X0.1405 Y2.7796 Z-0.2784
N10080 X0.14 Y2.7771 Z-0.2785
N10085 X0.1391 Y2.772 Z-0.2786
N10090 X0.1388 Y2.7695 Z-0.2787
N10095 X0.1386 Y2.7669 Z-0.2788
N10100 X0.1385 Y2.7644 Z-0.2789
N10105 X0.1384 Y2.7618 Z-0.279
N10110 X0.1387 Y2.7567 Z-0.2792
N10115 X0.139 Y2.7541 Z-0.2793
N10120 X0.1393 Y2.7516 Z-0.2794
N10125 X0.1398 Y2.7491
N10130 X0.1403 Y2.7466 Z-0.2795
N10135 X0.1417 Y2.7416 Z-0.2797
N10140 X0.1426 Y2.7392 Z-0.2798
N10145 X0.1435 Y2.7369 Z-0.2799
N10150 X0.1445 Y2.7345 Z-0.28
N10155 X0.1456 Y2.7322 Z-0.2801
N10160 X0.148 Y2.7277 Z-0.2802
N10165 X0.1494 Y2.7255 Z-0.2803
N10170 X0.1508 Y2.7234 Z-0.2804
N10175 X0.1523 Y2.7213 Z-0.2805
N10180 X0.1539 Y2.7193 Z-0.2806
N10185 X0.1573 Y2.7154 Z-0.2808
N10190 X0.1591 Y2.7136 Z-0.2809
N10195 X0.161 Y2.7118 Z-0.281
N10200 X0.1629 Y2.7102 Z-0.2811
N10205 X0.1649 Y2.7086
N10210 X0.169 Y2.7056 Z-0.2813
N10215 X0.1712 Y2.7042 Z-0.2814
N10220 X0.1734 Y2.7029 Z-0.2815
N10225 X0.1756 Y2.7017 Z-0.2816
N10230 X0.1779 Y2.7006 Z-0.2817
N10235 X0.1827 Y2.6986 Z-0.2819
N10240 X0.1851 Y2.6977
N10245 X0.1875 Y2.697 Z-0.282
N10250 X0.19 Y2.6963 Z-0.2821
N10255 X0.1925 Y2.6957 Z-0.2822
N10260 X0.1975 Y2.6948 Z-0.2824
N10265 X0.2 Y2.6945 Z-0.2825
N10270 X0.2026 Y2.6943 Z-0.2826
N10275 X0.2051 Y2.6942 Z-0.2827
N10280 X0.2077
N10285 X0.2128 Y2.6944 Z-0.2829
N10290 X0.2153 Y2.6947 Z-0.283
N10295 X0.2178 Y2.6951 Z-0.2831
N10300 X0.2204 Y2.6955 Z-0.2832
N10305 X0.2229 Y2.6961 Z-0.2833
N10310 X0.2278 Y2.6975 Z-0.2835
N10315 X0.2302 Y2.6983 Z-0.2836
N10320 X0.2326 Y2.6992
N10325 X0.2349 Y2.7002 Z-0.2837
N10330 X0.2372 Y2.7013 Z-0.2838
N10335 X0.2417 Y2.7038 Z-0.284
N10340 X0.2439 Y2.7051 Z-0.2841
N10345 X0.246 Y2.7065 Z-0.2842
N10350 X0.248 Y2.708 Z-0.2843
N10355 X0.25 Y2.7096 Z-0.2844
N10360 X0.2539 Y2.713 Z-0.2845
N10365 X0.2557 Y2.7148 Z-0.2846
N10370 X0.2574 Y2.7166 Z-0.2847
N10375 X0.2591 Y2.7186 Z-0.2848
N10380 X0.2607 Y2.7205 Z-0.2849
N10385 X0.2637 Y2.7247 Z-0.2851
N10390 X0.2651 Y2.7268 Z-0.2852
N10395 X0.2664 Y2.729
N10400 X0.2676 Y2.7313 Z-0.2853
N10405 X0.2687 Y2.7336 Z-0.2854
N10410 X0.2707 Y2.7382 Z-0.2856
N10415 X0.2715 Y2.7407 Z-0.2857
N10420 X0.2723 Y2.7431 Z-0.2858
N10425 X0.273 Y2.7456 Z-0.2859
N10430 X0.2735 Y2.7481 Z-0.286
N10435 X0.2744 Y2.753 Z-0.2861
N10440 X0.2747 Y2.7555 Z-0.2862
N10445 X0.2749 Y2.758 Z-0.2863
N10450 X0.275 Y2.7606 Z-0.2864
N10455 X0.2751 Y2.7632 Z-0.2865
N10460 X0.2748 Y2.7683 Z-0.2867
N10465 X0.2741 Y2.7733 Z-0.2868
N10470 X0.2731 Y2.7784 Z-0.287
N10475 X0.2717 Y2.7832 Z-0.2872
N10480 X0.27 Y2.7879 Z-0.2874
N10485 X0.2679 Y2.7926 Z-0.2875
N10490 X0.2655 Y2.7971 Z-0.2877
N10495 X0.2642 Y2.7992 Z-0.2878
N10500 X0.2628 Y2.8013 Z-0.2879
N10505 X0.2613 Y2.8034 Z-0.288
N10510 X0.2597 Y2.8054 Z-0.2881
N10515 X0.2563 Y2.8092 Z-0.2883
N10520 X0.2545 Y2.811
N10525 X0.2527 Y2.8127 Z-0.2884
N10530 X0.2508 Y2.8144 Z-0.2885
N10535 X0.2488 Y2.816 Z-0.2886
N10540 X0.2447 Y2.819 Z-0.2888
N10545 X0.2426 Y2.8203 Z-0.2889
N10550 X0.2404 Y2.8216 Z-0.289
N10555 X0.2381 Y2.8228 Z-0.2891
N10560 X0.2358 Y2.8239
N10565 X0.2311 Y2.8259 Z-0.2893
N10570 X0.2287 Y2.8268 Z-0.2894
N10575 X0.2263 Y2.8275 Z-0.2895
N10580 X0.2239 Y2.8282 Z-0.2896
N10585 X0.2214 Y2.8288 Z-0.2897
N10590 X0.2164 Y2.8297 Z-0.2899
N10595 X0.2139 Y2.83
N10600 X0.2114 Y2.8302 Z-0.29
N10605 X0.2088 Y2.8303 Z-0.2901
N10610 X0.2063 Z-0.2902
N10615 X0.2012 Y2.83 Z-0.2904
N10620 X0.1987 Y2.8298 Z-0.2905
N10625 X0.1962 Y2.8294 Z-0.2906
N10630 X0.1937 Y2.8289
N10635 X0.1912 Y2.8284 Z-0.2907
N10640 X0.1863 Y2.827 Z-0.2909
N10645 X0.184 Y2.8262 Z-0.291
N10650 X0.1816 Y2.8253 Z-0.2911
N10655 X0.1793 Y2.8243 Z-0.2912
N10660 X0.177 Y2.8232 Z-0.2913
N10665 X0.1725 Y2.8208 Z-0.2914
N10670 X0.1704 Y2.8195 Z-0.2915
N10675 X0.1683 Y2.818 Z-0.2916
N10680 X0.1663 Y2.8165 Z-0.2917
N10685 X0.1643 Y2.815 Z-0.2918
N10690 X0.1605 Y2.8117 Z-0.292
N10695 X0.1587 Y2.8099 Z-0.2921
N10700 X0.1569 Y2.808
N10705 X0.1553 Y2.8061 Z-0.2922
N10710 X0.1537 Y2.8041 Z-0.2923
N10715 X0.1507 Y2.8 Z-0.2925
N10720 X0.1494 Y2.7979 Z-0.2926
N10725 X0.1481 Y2.7957 Z-0.2927
N10730 X0.1469 Y2.7935 Z-0.2928
N10735 X0.1458 Y2.7912 Z-0.2929
N10740 X0.1438 Y2.7866 Z-0.293
N10745 X0.143 Y2.7842 Z-0.2931
N10750 X0.1422 Y2.7818 Z-0.2932
N10755 X0.1415 Y2.7793 Z-0.2933
N10760 X0.141 Y2.7768 Z-0.2934
N10765 X0.1401 Y2.7719 Z-0.2936
N10770 X0.1398 Y2.7694
N10775 X0.1396 Y2.7669 Z-0.2937
N10780 X0.1395 Y2.7643 Z-0.2938
N10785 Y2.7618 Z-0.2939
N10790 X0.1397 Y2.7568 Z-0.2941
N10795 X0.14 Y2.7543 Z-0.2942
N10800 X0.1404 Y2.7518 Z-0.2943
N10805 X0.1408 Y2.7493 Z-0.2944
N10810 X0.1413 Y2.7468
N10815 X0.1427 Y2.742 Z-0.2946
N10820 X0.1435 Y2.7396 Z-0.2947
N10825 X0.1444 Y2.7372 Z-0.2948
N10830 X0.1454 Y2.7349 Z-0.2949
N10835 X0.1465 Y2.7326 Z-0.295
N10840 X0.1489 Y2.7282 Z-0.2951
N10845 X0.1502 Y2.7261 Z-0.2952
N10850 X0.1517 Y2.724 Z-0.2953
N10855 X0.1531 Y2.7219 Z-0.2954
N10860 X0.1547 Y2.7199 Z-0.2955
N10865 X0.158 Y2.7161 Z-0.2957
N10870 X0.1598 Y2.7143 Z-0.2958
N10875 X0.1617 Y2.7126
N10880 X0.1636 Y2.711 Z-0.2959
N10885 X0.1655 Y2.7094 Z-0.296
N10890 X0.1696 Y2.7065 Z-0.2962
N10895 X0.1717 Y2.7051 Z-0.2963
N10900 X0.1739 Y2.7038 Z-0.2964
N10905 X0.1761 Y2.7026 Z-0.2965
N10910 X0.1784 Y2.7015 Z-0.2966
N10915 X0.183 Y2.6996 Z-0.2967
N10920 X0.1854 Y2.6987 Z-0.2968
N10925 X0.1878 Y2.698 Z-0.2969
N10930 X0.1902 Y2.6973 Z-0.297
N10935 X0.1927 Y2.6967 Z-0.2971
N10940 X0.1976 Y2.6958 Z-0.2973
N10945 X0.2001 Y2.6956
N10950 X0.2026 Y2.6954 Z-0.2974
N10955 X0.2052 Y2.6952 Z-0.2975
N10960 X0.2077 Z-0.2976
N10965 X0.2127 Y2.6955 Z-0.2978
N10970 X0.2152 Y2.6957 Z-0.2979
N10975 X0.2177 Y2.6961 Z-0.298
N10980 X0.2202 Y2.6966
N10985 X0.2226 Y2.6971 Z-0.2981
N10990 X0.2275 Y2.6985 Z-0.2983
N10995 X0.2299 Y2.6993 Z-0.2984
N11000 X0.2322 Y2.7002 Z-0.2985
N11005 X0.2345 Y2.7012 Z-0.2986
N11010 X0.2368 Y2.7023 Z-0.2987
N11015 X0.2412 Y2.7047 Z-0.2988
N11020 X0.2433 Y2.706 Z-0.2989
N11025 X0.2454 Y2.7074 Z-0.299
N11030 X0.2474 Y2.7089 Z-0.2991
N11035 X0.2494 Y2.7104 Z-0.2992
N11040 X0.2531 Y2.7137 Z-0.2994
N11045 X0.2549 Y2.7155
N11050 X0.2567 Y2.7173 Z-0.2995
N11055 X0.2583 Y2.7192 Z-0.2996
N11060 X0.2599 Y2.7212 Z-0.2997
N11065 X0.2628 Y2.7253 Z-0.2999
N11070 X0.2642 Y2.7274 Z-0.3
N11075 X0.2654 Y2.7296 Z-0.3001
N11080 X0.2666 Y2.7318
N11085 X0.2677 Y2.734 Z-0.3002
N11090 X0.2697 Y2.7386 Z-0.3004
N11095 X0.2705 Y2.741 Z-0.3005
N11100 X0.2713 Y2.7434 Z-0.3006
N11105 X0.2719 Y2.7458 Z-0.3007
N11110 X0.2725 Y2.7483 Z-0.3008
N11115 X0.2734 Y2.7532 Z-0.3009
N11120 X0.2736 Y2.7557 Z-0.301
N11125 X0.2738 Y2.7581 Z-0.3011
N11130 X0.274 Y2.7607 Z-0.3012
N11135 Y2.7632 Z-0.3013
N11140 X0.2737 Y2.7682 Z-0.3015
N11145 X0.2731 Y2.7732 Z-0.3016
N11150 X0.2721 Y2.7781 Z-0.3018
N11155 X0.2707 Y2.7829 Z-0.302
N11160 X0.269 Y2.7875 Z-0.3022
N11165 X0.267 Y2.7921 Z-0.3023
N11170 X0.2646 Y2.7965 Z-0.3025
N11175 X0.2633 Y2.7987 Z-0.3026
N11180 X0.2619 Y2.8007 Z-0.3027
N11185 X0.2604 Y2.8027 Z-0.3028
N11190 X0.2588 Y2.8047 Z-0.3029
N11195 X0.2555 Y2.8085 Z-0.303
N11200 X0.2538 Y2.8102 Z-0.3031
N11205 X0.2519 Y2.8119 Z-0.3032
N11210 X0.2501 Y2.8136 Z-0.3033
N11215 X0.2481 Y2.8152 Z-0.3034
N11220 X0.2441 Y2.8181 Z-0.3035
N11225 X0.242 Y2.8194 Z-0.3036
N11230 X0.2398 Y2.8207 Z-0.3037
N11235 X0.2376 Y2.8218 Z-0.3038
N11240 X0.2354 Y2.8229 Z-0.3039
N11245 X0.2307 Y2.8249 Z-0.3041
N11250 X0.2284 Y2.8257 Z-0.3042
N11255 X0.226 Y2.8265
N11260 X0.2236 Y2.8271 Z-0.3043
N11265 X0.2212 Y2.8277 Z-0.3044
N11270 X0.2163 Y2.8286 Z-0.3046
N11275 X0.2138 Y2.8289 Z-0.3047
N11280 X0.2113 Y2.829 Z-0.3048
N11285 X0.2088 Y2.8292 Z-0.3049
N11290 X0.2063
N11295 X0.2013 Y2.8289 Z-0.3051
N11300 X0.1989 Y2.8287 Z-0.3052
N11305 X0.1964 Y2.8283 Z-0.3053
N11310 X0.1939 Y2.8278 Z-0.3054
N11315 X0.1915 Y2.8273 Z-0.3055
N11320 X0.1867 Y2.826 Z-0.3056
N11325 X0.1843 Y2.8251 Z-0.3057
N11330 X0.182 Y2.8242 Z-0.3058
N11335 X0.1797 Y2.8233 Z-0.3059
N11340 X0.1775 Y2.8222 Z-0.306
N11345 X0.1731 Y2.8198 Z-0.3062
N11350 X0.171 Y2.8185
N11355 X0.1689 Y2.8171 Z-0.3063
N11360 X0.1669 Y2.8156 Z-0.3064
N11365 X0.165 Y2.8141 Z-0.3065
N11370 X0.1612 Y2.8108 Z-0.3067
N11375 X0.1595 Y2.8091 Z-0.3068
N11380 X0.1578 Y2.8072 Z-0.3069
N11385 X0.1561 Y2.8054
N11390 X0.1546 Y2.8034 Z-0.307
N11395 X0.1517 Y2.7994 Z-0.3072
N11400 X0.1503 Y2.7973 Z-0.3073
N11405 X0.1491 Y2.7951 Z-0.3074
N11410 X0.1479 Y2.793 Z-0.3075
N11415 X0.1468 Y2.7907
N11420 X0.1449 Y2.7861 Z-0.3077
N11425 X0.1441 Y2.7838 Z-0.3078
N11430 X0.1433 Y2.7814 Z-0.3079
N11435 X0.1427 Y2.779 Z-0.308
N11440 X0.1421 Y2.7766 Z-0.3081
N11445 X0.1412 Y2.7717 Z-0.3082
N11450 X0.1409 Y2.7693 Z-0.3083
N11455 X0.1408 Y2.7668 Z-0.3084
N11460 X0.1406 Y2.7643 Z-0.3085
N11465 Y2.7618 Z-0.3086
N11470 X0.1409 Y2.7569 Z-0.3088
N11475 X0.1411 Y2.7544
N11480 X0.1415 Y2.7519 Z-0.3089
N11485 X0.142 Y2.7495 Z-0.309
N11490 X0.1425 Y2.7471 Z-0.3091
N11495 X0.1438 Y2.7423 Z-0.3093
N11500 X0.1446 Y2.74 Z-0.3094
N11505 X0.1455 Y2.7377 Z-0.3095
N11510 X0.1465 Y2.7354
N11515 X0.1476 Y2.7331 Z-0.3096
N11520 X0.1499 Y2.7288 Z-0.3098
N11525 X0.1512 Y2.7267 Z-0.3099
N11530 X0.1526 Y2.7246 Z-0.31
N11535 X0.1541 Y2.7226 Z-0.3101
N11540 X0.1556 Y2.7207
N11545 X0.1589 Y2.717 Z-0.3103
N11550 X0.1607 Y2.7152 Z-0.3104
N11555 X0.1625 Y2.7135 Z-0.3105
N11560 X0.1643 Y2.7119 Z-0.3106
N11565 X0.1663 Y2.7103 Z-0.3107
N11570 X0.1703 Y2.7074 Z-0.3108
N11575 X0.1724 Y2.7061 Z-0.3109
N11580 X0.1745 Y2.7049 Z-0.311
N11585 X0.1767 Y2.7037 Z-0.3111
N11590 X0.1789 Y2.7026 Z-0.3112
N11595 X0.1835 Y2.7007 Z-0.3114
N11600 X0.1858 Y2.6999
N11605 X0.1882 Y2.6991 Z-0.3115
N11610 X0.1905 Y2.6985 Z-0.3116
N11615 X0.1929 Y2.6979 Z-0.3117
N11620 X0.1978 Y2.697 Z-0.3119
N11625 X0.2003 Y2.6967 Z-0.312
N11630 X0.2027 Y2.6966
N11635 X0.2052 Y2.6964 Z-0.3121
N11640 X0.2077 Z-0.3122
N11645 X0.2126 Y2.6967 Z-0.3124
N11650 X0.2151 Y2.6969 Z-0.3125
N11655 X0.2175 Y2.6973 Z-0.3126
N11660 X0.2199 Y2.6977
N11665 X0.2223 Y2.6983 Z-0.3127
N11670 X0.2271 Y2.6996 Z-0.3129
N11675 X0.2294 Y2.7004 Z-0.313
N11680 X0.2317 Y2.7013 Z-0.3131
N11685 X0.234 Y2.7023 Z-0.3132
N11690 X0.2362 Y2.7033 Z-0.3133
N11695 X0.2406 Y2.7057 Z-0.3134
N11700 X0.2427 Y2.707 Z-0.3135
N11705 X0.2447 Y2.7084 Z-0.3136
N11710 X0.2467 Y2.7098 Z-0.3137
N11715 X0.2486 Y2.7114 Z-0.3138
N11720 X0.2523 Y2.7146 Z-0.3139
N11725 X0.2541 Y2.7164 Z-0.314
N11730 X0.2558 Y2.7182 Z-0.3141
N11735 X0.2574 Y2.72 Z-0.3142
N11740 X0.2589 Y2.7219 Z-0.3143
N11745 X0.2618 Y2.7259 Z-0.3145
N11750 X0.2631 Y2.728
N11755 X0.2644 Y2.7301 Z-0.3146
N11760 X0.2655 Y2.7322 Z-0.3147
N11765 X0.2666 Y2.7344 Z-0.3148
N11770 X0.2684 Y2.7387 Z-0.315
N11775 X0.2685 Y2.7389
N11780 X0.2686 Y2.7392
N11785 X0.2687 Y2.7395
N11790 X0.2694 Y2.7414 Z-0.3151
N11795 X0.2701 Y2.7438
N11800 X0.2708 Y2.7464 Z-0.3152
N11805 X0.2714 Y2.7489 Z-0.3153
N11810 X0.2719 Y2.7514 Z-0.3154
N11815 X0.2723 Y2.7539 Z-0.3155
N11820 X0.2727 Y2.759 Z-0.3157
N11825 X0.2728 Y2.7616 Z-0.3158
N11830 X0.2727 Y2.7642 Z-0.3159
N11835 X0.2724 Y2.7694 Z-0.316
N11840 X0.2716 Y2.7745 Z-0.3162
N11845 X0.2705 Y2.7796 Z-0.3164
N11850 X0.2697 Y2.7821 Z-0.3165
N11855 X0.2689 Y2.7846 Z-0.3166
N11860 X0.2669 Y2.7894 Z-0.3168
N11865 X0.2646 Y2.794 Z-0.3169
N11870 X0.262 Y2.7984 Z-0.3171
N11875 X0.2606 Y2.8005 Z-0.3172
N11880 X0.259 Y2.8026 Z-0.3173
N11885 X0.2574 Y2.8046 Z-0.3174
N11890 X0.2557 Y2.8065 Z-0.3175
N11895 X0.2539 Y2.8084 Z-0.3176
N11900 X0.2521 Y2.8102 Z-0.3177
N11905 X0.2483 Y2.8135 Z-0.3178
N11910 X0.2462 Y2.8151 Z-0.3179
N11915 X0.2441 Y2.8166 Z-0.318
N11920 X0.242 Y2.818 Z-0.3181
N11925 X0.2398 Y2.8193 Z-0.3182
N11930 X0.2375 Y2.8205 Z-0.3183
N11935 X0.2352 Y2.8217 Z-0.3184
N11940 X0.2304 Y2.8237 Z-0.3186
N11945 X0.228 Y2.8246 Z-0.3187
N11950 X0.2255 Y2.8254
N11955 X0.2231 Y2.826 Z-0.3188
N11960 X0.2205 Y2.8266 Z-0.3189
N11965 X0.218 Y2.8271 Z-0.319
N11970 X0.2155 Y2.8275 Z-0.3191
N11975 X0.2104 Y2.8279 Z-0.3193
N11980 X0.2078 Y2.828 Z-0.3194
N11985 X0.2052 Y2.8279 Z-0.3195
N11990 X0.2026 Y2.8278
N11995 X0.2001 Y2.8276 Z-0.3196
N12000 X0.1975 Y2.8273 Z-0.3197
N12005 X0.195 Y2.8268 Z-0.3198
N12010 X0.19 Y2.8257 Z-0.32
N12015 X0.1875 Y2.825 Z-0.3201
N12020 X0.1851 Y2.8241 Z-0.3202
N12025 X0.1827 Y2.8232 Z-0.3203
N12030 X0.1803 Y2.8222 Z-0.3204
N12035 X0.178 Y2.8211
N12040 X0.1757 Y2.8199 Z-0.3205
N12045 X0.1713 Y2.8173 Z-0.3207
N12050 X0.1692 Y2.8158 Z-0.3208
N12055 X0.1672 Y2.8143 Z-0.3209
N12060 X0.1652 Y2.8127 Z-0.321
N12065 X0.1632 Y2.811 Z-0.3211
N12070 X0.1614 Y2.8093 Z-0.3212
N12075 X0.1596 Y2.8074
N12080 X0.1562 Y2.8036 Z-0.3214
N12085 X0.1546 Y2.8015 Z-0.3215
N12090 X0.1532 Y2.7994 Z-0.3216
N12095 X0.1518 Y2.7973 Z-0.3217
N12100 X0.1504 Y2.7951 Z-0.3218
N12105 X0.1492 Y2.7929 Z-0.3219
N12110 X0.1481 Y2.7906 Z-0.322
N12115 X0.1461 Y2.7858 Z-0.3221
N12120 X0.1452 Y2.7834 Z-0.3222
N12125 X0.1444 Y2.781 Z-0.3223
N12130 X0.1438 Y2.7785 Z-0.3224
N12135 X0.1432 Y2.776 Z-0.3225
N12140 X0.1427 Y2.7735 Z-0.3226
N12145 X0.1423 Y2.771 Z-0.3227
N12150 X0.1419 Y2.7659 Z-0.3229
N12155 X0.1418 Y2.7633
N12160 Y2.7607 Z-0.323
N12165 X0.142 Y2.7582 Z-0.3231
N12170 X0.1422 Y2.7556 Z-0.3232
N12175 X0.1425 Y2.7531 Z-0.3233
N12180 X0.1429 Y2.7506 Z-0.3234
N12185 X0.1441 Y2.7456 Z-0.3236
N12190 X0.1448 Y2.7431 Z-0.3237
N12195 X0.1456 Y2.7407 Z-0.3238
N12200 X0.1466 Y2.7383
N12205 X0.1476 Y2.7359 Z-0.3239
N12210 X0.1487 Y2.7336 Z-0.324
N12215 X0.1498 Y2.7314 Z-0.3241
N12220 X0.1525 Y2.727 Z-0.3243
N12225 X0.1539 Y2.7249 Z-0.3244
N12230 X0.1554 Y2.7229 Z-0.3245
N12235 X0.157 Y2.7209 Z-0.3246
N12240 X0.1587 Y2.719
N12245 X0.1604 Y2.7171 Z-0.3247
N12250 X0.1623 Y2.7153 Z-0.3248
N12255 X0.1661 Y2.7119 Z-0.325
N12260 X0.1681 Y2.7104 Z-0.3251
N12265 X0.1702 Y2.7089 Z-0.3252
N12270 X0.1724 Y2.7075 Z-0.3253
N12275 X0.1745 Y2.7062 Z-0.3254
N12280 X0.1768 Y2.705
N12285 X0.1791 Y2.7038 Z-0.3255
N12290 X0.1838 Y2.7018 Z-0.3257
N12295 X0.1862 Y2.701 Z-0.3258
N12300 X0.1886 Y2.7002 Z-0.3259
N12305 X0.1911 Y2.6995 Z-0.326
N12310 X0.1936 Y2.699 Z-0.3261
N12315 X0.1961 Y2.6985 Z-0.3262
N12320 X0.1986 Y2.6981
N12325 X0.2036 Y2.6977 Z-0.3264
N12330 X0.2062 Y2.6976 Z-0.3265
N12335 X0.2087 Z-0.3266
N12340 X0.2113 Y2.6978 Z-0.3267
N12345 X0.2138 Y2.698 Z-0.3268
N12350 X0.2164 Y2.6983 Z-0.3269
N12355 X0.2189 Y2.6987 Z-0.327
N12360 X0.2238 Y2.6999 Z-0.3271
N12365 X0.2263 Y2.7006 Z-0.3272
N12370 X0.2287 Y2.7014 Z-0.3273
N12375 X0.2311 Y2.7023 Z-0.3274
N12380 X0.2334 Y2.7033 Z-0.3275
N12385 X0.2357 Y2.7044 Z-0.3276
N12390 X0.238 Y2.7056 Z-0.3277
N12395 X0.2423 Y2.7082 Z-0.3278
N12400 X0.2444 Y2.7096 Z-0.3279
N12405 X0.2465 Y2.7111 Z-0.328
N12410 X0.2484 Y2.7127 Z-0.3281
N12415 X0.2503 Y2.7144 Z-0.3282
N12420 X0.2522 Y2.7161 Z-0.3283
N12425 X0.254 Y2.718 Z-0.3284
N12430 X0.2573 Y2.7218 Z-0.3286
N12435 X0.2589 Y2.7238
N12440 X0.2603 Y2.7259 Z-0.3287
N12445 X0.2617 Y2.728 Z-0.3288
N12450 X0.263 Y2.7302 Z-0.3289
N12455 X0.2643 Y2.7324 Z-0.329
N12460 X0.2654 Y2.7347 Z-0.3291
N12465 X0.2674 Y2.7394 Z-0.3293
N12470 X0.2682 Y2.7418 Z-0.3294
N12475 X0.269 Y2.7442
N12480 X0.2697 Y2.7466 Z-0.3295
N12485 X0.2702 Y2.7491 Z-0.3296
N12490 X0.2707 Y2.7516 Z-0.3297
N12495 X0.2711 Y2.7541 Z-0.3298
N12500 X0.2715 Y2.7591 Z-0.33
N12505 X0.2716 Y2.7617 Z-0.3301
N12510 Y2.7642
N12515 X0.2712 Y2.7693 Z-0.3303
N12520 X0.2704 Y2.7743 Z-0.3305
N12525 X0.2693 Y2.7793 Z-0.3307
N12530 X0.2686 Y2.7817 Z-0.3308
N12535 X0.2678 Y2.7841 Z-0.3309
N12540 X0.2658 Y2.7889 Z-0.331
N12545 X0.2636 Y2.7934 Z-0.3312
N12550 X0.261 Y2.7977 Z-0.3314
N12555 X0.2596 Y2.7998 Z-0.3315
N12560 X0.2581 Y2.8018 Z-0.3316
N12565 X0.2565 Y2.8038 Z-0.3317
N12570 X0.2548 Y2.8057
N12575 X0.2531 Y2.8075 Z-0.3318
N12580 X0.2513 Y2.8093 Z-0.3319
N12585 X0.2475 Y2.8126 Z-0.3321
N12590 X0.2455 Y2.8142 Z-0.3322
N12595 X0.2434 Y2.8156 Z-0.3323
N12600 X0.2413 Y2.817 Z-0.3324
N12605 X0.2392 Y2.8183
N12610 X0.2369 Y2.8195 Z-0.3325
N12615 X0.2347 Y2.8206 Z-0.3326
N12620 X0.23 Y2.8226 Z-0.3328
N12625 X0.2276 Y2.8235 Z-0.3329
N12630 X0.2252 Y2.8242 Z-0.333
N12635 X0.2228 Y2.8249 Z-0.3331
N12640 X0.2203 Y2.8255 Z-0.3332
N12645 X0.2178 Y2.8259
N12650 X0.2153 Y2.8263 Z-0.3333
N12655 X0.2103 Y2.8267 Z-0.3335
N12660 X0.2078 Y2.8268 Z-0.3336
N12665 X0.2053 Z-0.3337
N12670 X0.2027 Y2.8266 Z-0.3338
N12675 X0.2002 Y2.8264 Z-0.3339
N12680 X0.1977 Y2.8261
N12685 X0.1952 Y2.8257 Z-0.334
N12690 X0.1903 Y2.8246 Z-0.3342
N12695 X0.1879 Y2.8238 Z-0.3343
N12700 X0.1855 Y2.823 Z-0.3344
N12705 X0.1831 Y2.8221 Z-0.3345
N12710 X0.1808 Y2.8211 Z-0.3346
N12715 X0.1785 Y2.8201
N12720 X0.1763 Y2.8189 Z-0.3347
N12725 X0.172 Y2.8163 Z-0.3349
N12730 X0.1699 Y2.8149 Z-0.335
N12735 X0.1679 Y2.8134 Z-0.3351
N12740 X0.1659 Y2.8118 Z-0.3352
N12745 X0.164 Y2.8102 Z-0.3353
N12750 X0.1622 Y2.8084 Z-0.3354
N12755 X0.1604 Y2.8066
N12760 X0.1571 Y2.8028 Z-0.3356
N12765 X0.1556 Y2.8008 Z-0.3357
N12770 X0.1541 Y2.7988 Z-0.3358
N12775 X0.1528 Y2.7967 Z-0.3359
N12780 X0.1515 Y2.7945 Z-0.336
N12785 X0.1502 Y2.7923 Z-0.3361
N12790 X0.1491 Y2.79
N12795 X0.1471 Y2.7854 Z-0.3363
N12800 X0.1463 Y2.783 Z-0.3364
N12805 X0.1456 Y2.7806 Z-0.3365
N12810 X0.1449 Y2.7782 Z-0.3366
N12815 X0.1443 Y2.7757 Z-0.3367
N12820 X0.1439 Y2.7733 Z-0.3368
N12825 X0.1435 Y2.7708
N12830 X0.1431 Y2.7658 Z-0.337
N12835 X0.143 Y2.7633 Z-0.3371
N12840 Y2.7608 Z-0.3372
N12845 X0.1431 Y2.7583 Z-0.3373
N12850 X0.1434 Y2.7557 Z-0.3374
N12855 X0.1437 Y2.7533 Z-0.3375
N12860 X0.1441 Y2.7508
N12865 X0.1452 Y2.7459 Z-0.3377
N12870 X0.1459 Y2.7435 Z-0.3378
N12875 X0.1467 Y2.7411 Z-0.3379
N12880 X0.1476 Y2.7387 Z-0.338
N12885 X0.1486 Y2.7364 Z-0.3381
N12890 X0.1497 Y2.7341 Z-0.3382
N12895 X0.1509 Y2.7319
N12900 X0.1534 Y2.7276 Z-0.3384
N12905 X0.1549 Y2.7256 Z-0.3385
N12910 X0.1563 Y2.7236 Z-0.3386
N12915 X0.1579 Y2.7216 Z-0.3387
N12920 X0.1596 Y2.7197 Z-0.3388
N12925 X0.1613 Y2.7179 Z-0.3389
N12930 X0.1631 Y2.7161
N12935 X0.1669 Y2.7128 Z-0.3391
N12940 X0.1688 Y2.7113 Z-0.3392
N12945 X0.1709 Y2.7099 Z-0.3393
N12950 X0.173 Y2.7085 Z-0.3394
N12955 X0.1751 Y2.7072 Z-0.3395
N12960 X0.1773 Y2.706 Z-0.3396
N12965 X0.1796 Y2.7049
N12970 X0.1842 Y2.7029 Z-0.3398
N12975 X0.1866 Y2.7021 Z-0.3399
N12980 X0.1889 Y2.7013 Z-0.34
N12985 X0.1914 Y2.7007 Z-0.3401
N12990 X0.1938 Y2.7001 Z-0.3402
N12995 X0.1963 Y2.6997 Z-0.3403
N13000 X0.1987 Y2.6993
N13005 X0.2037 Y2.6989 Z-0.3405
N13010 X0.2062 Y2.6988 Z-0.3406
N13015 X0.2087 Z-0.3407
N13020 X0.2112 Y2.6989 Z-0.3408
N13025 X0.2137 Y2.6992 Z-0.3409
N13030 X0.2162 Y2.6995 Z-0.341
N13035 X0.2187 Y2.6999
N13040 X0.2235 Y2.701 Z-0.3412
N13045 X0.2259 Y2.7017 Z-0.3413
N13050 X0.2283 Y2.7025 Z-0.3414
N13055 X0.2306 Y2.7034 Z-0.3415
N13060 X0.2329 Y2.7044 Z-0.3416
N13065 X0.2352 Y2.7055 Z-0.3417
N13070 X0.2374 Y2.7066
N13075 X0.2417 Y2.7092 Z-0.3419
N13080 X0.2437 Y2.7106 Z-0.342
N13085 X0.2457 Y2.7121 Z-0.3421
N13090 X0.2477 Y2.7136 Z-0.3422
N13095 X0.2496 Y2.7153 Z-0.3423
N13100 X0.2514 Y2.717 Z-0.3424
N13105 X0.2531 Y2.7188
N13110 X0.2564 Y2.7225 Z-0.3426
N13115 X0.2579 Y2.7245 Z-0.3427
N13120 X0.2594 Y2.7266 Z-0.3428
N13125 X0.2607 Y2.7286 Z-0.3429
N13130 X0.262 Y2.7308 Z-0.343
N13135 X0.2632 Y2.733
N13140 X0.2643 Y2.7352 Z-0.3431
N13145 X0.2663 Y2.7398 Z-0.3433
N13150 X0.2671 Y2.7421 Z-0.3434
N13155 X0.2679 Y2.7445 Z-0.3435
N13160 X0.2685 Y2.7469 Z-0.3436
N13165 X0.2691 Y2.7494 Z-0.3437
N13170 X0.2695 Y2.7518
N13175 X0.2699 Y2.7543 Z-0.3438
N13180 X0.2703 Y2.7592 Z-0.344
N13185 X0.2704 Y2.7617 Z-0.3441
N13190 X0.2703 Y2.7642 Z-0.3442
N13195 X0.27 Y2.7692 Z-0.3444
N13200 X0.2693 Y2.7741 Z-0.3445
N13205 X0.2682 Y2.779 Z-0.3447
N13210 X0.2674 Y2.7813 Z-0.3448
N13215 X0.2666 Y2.7837 Z-0.3449
N13220 X0.2648 Y2.7883 Z-0.345
N13225 X0.2625 Y2.7928 Z-0.3452
N13230 X0.26 Y2.797 Z-0.3454
N13235 X0.2586 Y2.7991 Z-0.3455
N13240 X0.2571 Y2.8011 Z-0.3456
N13245 X0.2556 Y2.803 Z-0.3457
N13250 X0.2539 Y2.8049
N13255 X0.2522 Y2.8067 Z-0.3458
N13260 X0.2505 Y2.8084 Z-0.3459
N13265 X0.2467 Y2.8117 Z-0.3461
N13270 X0.2448 Y2.8132 Z-0.3462
N13275 X0.2427 Y2.8146 Z-0.3463
N13280 X0.2407 Y2.816
N13285 X0.2385 Y2.8172 Z-0.3464
N13290 X0.2364 Y2.8184 Z-0.3465
N13295 X0.2341 Y2.8195 Z-0.3466
N13300 X0.2296 Y2.8215 Z-0.3468
N13305 X0.2272 Y2.8223 Z-0.3469
N13310 X0.2249 Y2.8231 Z-0.347
N13315 X0.2225 Y2.8237
N13320 X0.2201 Y2.8243 Z-0.3471
N13325 X0.2176 Y2.8247 Z-0.3472
N13330 X0.2152 Y2.8251 Z-0.3473
N13335 X0.2102 Y2.8255 Z-0.3475
N13340 X0.2078 Y2.8256 Z-0.3476
N13345 X0.2053 Y2.8255
N13350 X0.2028 Y2.8254 Z-0.3477
N13355 X0.2003 Y2.8252 Z-0.3478
N13360 X0.1979 Y2.8249 Z-0.3479
N13365 X0.1955 Y2.8245 Z-0.348
N13370 X0.1906 Y2.8234 Z-0.3482
N13375 X0.1883 Y2.8227
N13380 X0.1859 Y2.8219 Z-0.3483
N13385 X0.1836 Y2.821 Z-0.3484
N13390 X0.1813 Y2.82 Z-0.3485
N13395 X0.1791 Y2.819 Z-0.3486
N13400 X0.1769 Y2.8178 Z-0.3487
N13405 X0.1726 Y2.8153 Z-0.3489
N13410 X0.1706 Y2.8139
N13415 X0.1686 Y2.8124 Z-0.349
N13420 X0.1667 Y2.8108 Z-0.3491
N13425 X0.1649 Y2.8092 Z-0.3492
N13430 X0.1631 Y2.8075 Z-0.3493
N13435 X0.1613 Y2.8058 Z-0.3494
N13440 X0.1581 Y2.802 Z-0.3495
N13445 X0.1566 Y2.8001 Z-0.3496
N13450 X0.1551 Y2.7981 Z-0.3497
N13455 X0.1538 Y2.796 Z-0.3498
N13460 X0.1525 Y2.7939 Z-0.3499
N13465 X0.1513 Y2.7917 Z-0.35
N13470 X0.1502 Y2.7895 Z-0.3501
N13475 X0.1483 Y2.785 Z-0.3502
N13480 X0.1475 Y2.7826 Z-0.3503
N13485 X0.1468 Y2.7803 Z-0.3504
N13490 X0.1461 Y2.7779 Z-0.3505
N13495 X0.1456 Y2.7755 Z-0.3506
N13500 X0.1451 Y2.7731 Z-0.3507
N13505 X0.1447 Y2.7706
N13510 X0.1443 Y2.7657 Z-0.3509
N13515 X0.1442 Y2.7633 Z-0.351
N13520 X0.1443 Y2.7608 Z-0.3511
N13525 X0.1444 Y2.7583 Z-0.3512
N13530 X0.1446 Y2.7559 Z-0.3513
N13535 X0.1449 Y2.7534
N13540 X0.1453 Y2.751 Z-0.3514
N13545 X0.1464 Y2.7462 Z-0.3516
N13550 X0.1471 Y2.7439 Z-0.3517
N13555 X0.1479 Y2.7415 Z-0.3518
N13560 X0.1488 Y2.7392 Z-0.3519
N13565 X0.1498 Y2.737
N13570 X0.1508 Y2.7347 Z-0.352
N13575 X0.152 Y2.7325 Z-0.3521
N13580 X0.1545 Y2.7283 Z-0.3523
N13585 X0.1559 Y2.7263 Z-0.3524
N13590 X0.1574 Y2.7243 Z-0.3525
N13595 X0.1589 Y2.7224
N13600 X0.1605 Y2.7206 Z-0.3526
N13605 X0.1622 Y2.7188 Z-0.3527
N13610 X0.164 Y2.7171 Z-0.3528
N13615 X0.1677 Y2.7138 Z-0.353
N13620 X0.1696 Y2.7123 Z-0.3531
N13625 X0.1716 Y2.7109
N13630 X0.1737 Y2.7096 Z-0.3532
N13635 X0.1758 Y2.7083 Z-0.3533
N13640 X0.1779 Y2.7071 Z-0.3534
N13645 X0.1801 Y2.706 Z-0.3535
N13650 X0.1846 Y2.7041 Z-0.3537
N13655 X0.187 Y2.7033
N13660 X0.1893 Y2.7026 Z-0.3538
N13665 X0.1917 Y2.7019 Z-0.3539
N13670 X0.1941 Y2.7014 Z-0.354
N13675 X0.1963 Y2.7009 Z-0.3541
N13680 X0.1986 Y2.7006 Z-0.3542
N13685 X0.2032 Y2.7002 Z-0.3543
N13690 X0.2034
N13695 X0.2041 Y2.7001 Z-0.3544
N13700 X0.2047
N13705 X0.206
N13710 X0.2086 Z-0.3545
N13715 X0.2112 Y2.7002 Z-0.3546
N13720 X0.2138 Y2.7005 Z-0.3547
N13725 X0.2164 Y2.7008 Z-0.3548
N13730 X0.2189 Y2.7012 Z-0.3549
N13735 X0.2214 Y2.7018 Z-0.355
N13740 X0.2239 Y2.7024 Z-0.3551
N13745 X0.2287 Y2.704 Z-0.3552
N13750 X0.2311 Y2.705 Z-0.3553
N13755 X0.2335 Y2.7061 Z-0.3554
N13760 X0.2358 Y2.7072 Z-0.3555
N13765 X0.238 Y2.7084 Z-0.3556
N13770 X0.2402 Y2.7098 Z-0.3557
N13775 X0.2424 Y2.7112 Z-0.3558
N13780 X0.2445 Y2.7127 Z-0.3559
N13785 X0.2465 Y2.7143
N13790 X0.2484 Y2.716 Z-0.356
N13795 X0.2503 Y2.7177 Z-0.3561
N13800 X0.2539 Y2.7215 Z-0.3563
N13805 X0.2555 Y2.7235 Z-0.3564
N13810 X0.2571 Y2.7255 Z-0.3565
N13815 X0.2586 Y2.7276 Z-0.3566
N13820 X0.26 Y2.7298 Z-0.3567
N13825 X0.2613 Y2.7321 Z-0.3568
N13830 X0.2625 Y2.7343
N13835 X0.2636 Y2.7366 Z-0.3569
N13840 X0.2646 Y2.739 Z-0.357
N13845 X0.2655 Y2.7414 Z-0.3571
N13850 X0.2663 Y2.7438 Z-0.3572
N13855 X0.267 Y2.7463 Z-0.3573
N13860 X0.2677 Y2.7488 Z-0.3574
N13865 X0.2686 Y2.7539 Z-0.3576
N13870 X0.2689 Y2.7565 Z-0.3577
N13875 X0.269 Y2.759
N13880 X0.2691 Y2.7616 Z-0.3578
N13885 Y2.7641 Z-0.3579
N13890 X0.2687 Y2.7692 Z-0.3581
N13895 X0.2679 Y2.7743 Z-0.3583
N13900 X0.2674 Y2.7769 Z-0.3584
N13905 X0.2667 Y2.7794 Z-0.3585
N13910 X0.2651 Y2.7843 Z-0.3586
N13915 X0.2631 Y2.7889 Z-0.3588
N13920 X0.2607 Y2.7934 Z-0.359
N13925 X0.2594 Y2.7956 Z-0.3591
N13930 X0.258 Y2.7978 Z-0.3592
N13935 X0.2565 Y2.7998 Z-0.3593
N13940 X0.2549 Y2.8018 Z-0.3594
N13945 X0.2532 Y2.8038
N13950 X0.2514 Y2.8057 Z-0.3595
N13955 X0.2496 Y2.8075 Z-0.3596
N13960 X0.2477 Y2.8092 Z-0.3597
N13965 X0.2438 Y2.8124 Z-0.3599
N13970 X0.2417 Y2.8138 Z-0.36
N13975 X0.2396 Y2.8152 Z-0.3601
N13980 X0.2373 Y2.8165 Z-0.3602
N13985 X0.235 Y2.8177
N13990 X0.2327 Y2.8188 Z-0.3603
N13995 X0.2303 Y2.8198 Z-0.3604
N14000 X0.2279 Y2.8207 Z-0.3605
N14005 X0.2255 Y2.8215 Z-0.3606
N14010 X0.223 Y2.8222 Z-0.3607
N14015 X0.2206 Y2.8229 Z-0.3608
N14020 X0.2156 Y2.8237 Z-0.361
N14025 X0.2131 Y2.824 Z-0.3611
N14030 X0.2105 Y2.8242
N14035 X0.208 Y2.8243 Z-0.3612
N14040 X0.2054 Z-0.3613
N14045 X0.2028 Y2.8242 Z-0.3614
N14050 X0.2002 Y2.8239 Z-0.3615
N14055 X0.1977 Y2.8236 Z-0.3616
N14060 X0.1952 Y2.8231 Z-0.3617
N14065 X0.1927 Y2.8226 Z-0.3618
N14070 X0.1903 Y2.822 Z-0.3619
N14075 X0.1855 Y2.8204 Z-0.362
N14080 X0.1831 Y2.8194 Z-0.3621
N14085 X0.1808 Y2.8184 Z-0.3622
N14090 X0.1785 Y2.8172 Z-0.3623
N14095 X0.1762 Y2.816 Z-0.3624
N14100 X0.174 Y2.8147 Z-0.3625
N14105 X0.1719 Y2.8132 Z-0.3626
N14110 X0.1699 Y2.8117 Z-0.3627
N14115 X0.1679 Y2.8102
N14120 X0.166 Y2.8085 Z-0.3628
N14125 X0.1641 Y2.8068 Z-0.3629
N14130 X0.1623 Y2.805 Z-0.363
N14135 X0.1606 Y2.8031 Z-0.3631
N14140 X0.1574 Y2.7991 Z-0.3633
N14145 X0.1559 Y2.797 Z-0.3634
N14150 X0.1546 Y2.7948 Z-0.3635
N14155 X0.1533 Y2.7926
N14160 X0.1521 Y2.7904 Z-0.3636
N14165 X0.151 Y2.7881 Z-0.3637
N14170 X0.15 Y2.7858 Z-0.3638
N14175 X0.1491 Y2.7834 Z-0.3639
N14180 X0.1483 Y2.781 Z-0.364
N14185 X0.1476 Y2.7785 Z-0.3641
N14190 X0.147 Y2.776 Z-0.3642
N14195 X0.1461 Y2.771 Z-0.3643
N14200 X0.1458 Y2.7685 Z-0.3644
N14205 X0.1456 Y2.7659 Z-0.3645
N14210 X0.1455 Y2.7634 Z-0.3646
N14215 Y2.7609 Z-0.3647
N14220 X0.1457 Y2.7584 Z-0.3648
N14225 X0.1459 Y2.7558 Z-0.3649
N14230 X0.1462 Y2.7533 Z-0.365
N14235 X0.1467 Y2.7509
N14240 X0.1472 Y2.7484 Z-0.3651
N14245 X0.1479 Y2.7459 Z-0.3652
N14250 X0.1495 Y2.741 Z-0.3654
N14255 X0.1504 Y2.7387 Z-0.3655
N14260 X0.1514 Y2.7364 Z-0.3656
N14265 X0.1526 Y2.7341 Z-0.3657
N14270 X0.1538 Y2.7319 Z-0.3658
N14275 X0.1551 Y2.7297
N14280 X0.1565 Y2.7276 Z-0.3659
N14285 X0.158 Y2.7255 Z-0.366
N14290 X0.1596 Y2.7236 Z-0.3661
N14295 X0.1613 Y2.7216 Z-0.3662
N14300 X0.163 Y2.7198 Z-0.3663
N14305 X0.1648 Y2.718 Z-0.3664
N14310 X0.1667 Y2.7163 Z-0.3665
N14315 X0.1707 Y2.7131 Z-0.3666
N14320 X0.1728 Y2.7117 Z-0.3667
N14325 X0.1749 Y2.7103 Z-0.3668
N14330 X0.1771 Y2.7091 Z-0.3669
N14335 X0.1793 Y2.7079 Z-0.367
N14340 X0.1815 Y2.7068 Z-0.3671
N14345 X0.1838 Y2.7058 Z-0.3672
N14350 X0.1862 Y2.7049 Z-0.3673
N14355 X0.1886 Y2.7041 Z-0.3674
N14360 X0.1911 Y2.7034
N14365 X0.1935 Y2.7028 Z-0.3675
N14370 X0.1985 Y2.7019 Z-0.3677
N14375 X0.201 Y2.7016 Z-0.3678
N14380 X0.2035 Y2.7014 Z-0.3679
N14385 X0.206 Z-0.368
N14390 X0.2086 Z-0.3681
N14395 X0.2111 Y2.7015
N14400 X0.2137 Y2.7017 Z-0.3682
N14405 X0.2162 Y2.7021 Z-0.3683
N14410 X0.2186 Y2.7025 Z-0.3684
N14415 X0.2211 Y2.703 Z-0.3685
N14420 X0.2235 Y2.7037 Z-0.3686
N14425 X0.2283 Y2.7053 Z-0.3688
N14430 X0.2307 Y2.7062
N14435 X0.233 Y2.7072 Z-0.3689
N14440 X0.2352 Y2.7084 Z-0.369
N14445 X0.2374 Y2.7096 Z-0.3691
N14450 X0.2396 Y2.7109 Z-0.3692
N14455 X0.2417 Y2.7123 Z-0.3693
N14460 X0.2437 Y2.7138 Z-0.3694
N14465 X0.2457 Y2.7153 Z-0.3695
N14470 X0.2476 Y2.717 Z-0.3696
N14475 X0.2494 Y2.7187
N14480 X0.2529 Y2.7223 Z-0.3698
N14485 X0.2545 Y2.7243 Z-0.3699
N14490 X0.256 Y2.7263 Z-0.37
N14495 X0.2575 Y2.7284 Z-0.3701
N14500 X0.2589 Y2.7305 Z-0.3702
N14505 X0.2601 Y2.7327 Z-0.3703
N14510 X0.2613 Y2.7349
N14515 X0.2624 Y2.7372 Z-0.3704
N14520 X0.2634 Y2.7395 Z-0.3705
N14525 X0.2643 Y2.7418 Z-0.3706
N14530 X0.2651 Y2.7442 Z-0.3707
N14535 X0.2658 Y2.7466 Z-0.3708
N14540 X0.2664 Y2.7491 Z-0.3709
N14545 X0.2673 Y2.7541 Z-0.371
N14550 X0.2676 Y2.7566 Z-0.3711
N14555 X0.2677 Y2.7591 Z-0.3712
N14560 X0.2678 Y2.7616 Z-0.3713
N14565 Y2.7641 Z-0.3714
N14570 X0.2674 Y2.7691 Z-0.3716
N14575 X0.2666 Y2.7741 Z-0.3717
N14580 X0.2661 Y2.7765 Z-0.3718
N14585 X0.2655 Y2.779 Z-0.3719
N14590 X0.2639 Y2.7838 Z-0.3721
N14595 X0.2619 Y2.7884 Z-0.3723
N14600 X0.2596 Y2.7928 Z-0.3724
N14605 X0.2583 Y2.7949 Z-0.3725
N14610 X0.2569 Y2.797 Z-0.3726
N14615 X0.2554 Y2.799 Z-0.3727
N14620 X0.2539 Y2.801 Z-0.3728
N14625 X0.2522 Y2.8029 Z-0.3729
N14630 X0.2505 Y2.8048 Z-0.373
N14635 X0.2487 Y2.8065 Z-0.3731
N14640 X0.2469 Y2.8082 Z-0.3732
N14645 X0.243 Y2.8113 Z-0.3733
N14650 X0.2409 Y2.8127 Z-0.3734
N14655 X0.2389 Y2.8141 Z-0.3735
N14660 X0.2367 Y2.8153 Z-0.3736
N14665 X0.2344 Y2.8165 Z-0.3737
N14670 X0.2321 Y2.8176 Z-0.3738
N14675 X0.2298 Y2.8186 Z-0.3739
N14680 X0.2275 Y2.8195
N14685 X0.2251 Y2.8203 Z-0.374
N14690 X0.2227 Y2.821 Z-0.3741
N14695 X0.2203 Y2.8216 Z-0.3742
N14700 X0.2154 Y2.8224 Z-0.3744
N14705 X0.2129 Y2.8227 Z-0.3745
N14710 X0.2104 Y2.8229
N14715 X0.2079 Y2.823 Z-0.3746
N14720 X0.2054 Z-0.3747
N14725 X0.2029 Y2.8228 Z-0.3748
N14730 X0.2004 Y2.8226 Z-0.3749
N14735 X0.1979 Y2.8223 Z-0.375
N14740 X0.1955 Y2.8218 Z-0.3751
N14745 X0.193 Y2.8213 Z-0.3752
N14750 X0.1906 Y2.8207
N14755 X0.1859 Y2.8191 Z-0.3754
N14760 X0.1836 Y2.8182 Z-0.3755
N14765 X0.1813 Y2.8172 Z-0.3756
N14770 X0.1791 Y2.816 Z-0.3757
N14775 X0.1769 Y2.8148 Z-0.3758
N14780 X0.1747 Y2.8135 Z-0.3759
N14785 X0.1727 Y2.8121
N14790 X0.1707 Y2.8107 Z-0.376
N14795 X0.1687 Y2.8091 Z-0.3761
N14800 X0.1668 Y2.8075 Z-0.3762
N14805 X0.165 Y2.8058 Z-0.3763
N14810 X0.1633 Y2.804 Z-0.3764
N14815 X0.1616 Y2.8022 Z-0.3765
N14820 X0.1585 Y2.7983 Z-0.3766
N14825 X0.157 Y2.7962 Z-0.3767
N14830 X0.1557 Y2.7941 Z-0.3768
N14835 X0.1544 Y2.792 Z-0.3769
N14840 X0.1533 Y2.7898 Z-0.377
N14845 X0.1522 Y2.7875 Z-0.3771
N14850 X0.1512 Y2.7853 Z-0.3772
N14855 X0.1503 Y2.7829
N14860 X0.1495 Y2.7806 Z-0.3773
N14865 X0.1489 Y2.7782 Z-0.3774
N14870 X0.1483 Y2.7757 Z-0.3775
N14875 X0.1474 Y2.7708 Z-0.3777
N14880 X0.1471 Y2.7683 Z-0.3778
N14885 X0.1469 Y2.7659 Z-0.3779
N14890 X0.1468 Y2.7634
N14895 X0.1469 Y2.7609 Z-0.378
N14900 X0.147 Y2.7584 Z-0.3781
N14905 X0.1472 Y2.756 Z-0.3782
N14910 X0.1475 Y2.7535 Z-0.3783
N14915 X0.148 Y2.7511 Z-0.3784
N14920 X0.1485 Y2.7486 Z-0.3785
N14925 X0.1491 Y2.7462
N14930 X0.1507 Y2.7415 Z-0.3787
N14935 X0.1516 Y2.7392 Z-0.3788
N14940 X0.1526 Y2.7369 Z-0.3789
N14945 X0.1538 Y2.7347 Z-0.379
N14950 X0.155 Y2.7325 Z-0.3791
N14955 X0.1562 Y2.7304 Z-0.3792
N14960 X0.1576 Y2.7284
N14965 X0.1591 Y2.7263 Z-0.3793
N14970 X0.1606 Y2.7244 Z-0.3794
N14975 X0.1622 Y2.7225 Z-0.3795
N14980 X0.1639 Y2.7207 Z-0.3796
N14985 X0.1657 Y2.719 Z-0.3797
N14990 X0.1676 Y2.7173 Z-0.3798
N14995 X0.1714 Y2.7142 Z-0.3799
N15000 X0.1735 Y2.7128 Z-0.38
N15005 X0.1756 Y2.7115 Z-0.3801
N15010 X0.1777 Y2.7102 Z-0.3802
N15015 X0.1799 Y2.7091 Z-0.3803
N15020 X0.1821 Y2.708 Z-0.3804
N15025 X0.1844 Y2.707 Z-0.3805
N15030 X0.1867 Y2.7061
N15035 X0.189 Y2.7054 Z-0.3806
N15040 X0.1914 Y2.7047 Z-0.3807
N15045 X0.1938 Y2.7041 Z-0.3808
N15050 X0.1987 Y2.7032 Z-0.381
N15055 X0.2011 Y2.7029 Z-0.3811
N15060 X0.2036 Y2.7027
N15065 X0.2061 Z-0.3812
N15070 X0.2086 Z-0.3813
N15075 X0.211 Y2.7028 Z-0.3814
N15080 X0.2135 Y2.703 Z-0.3815
N15085 X0.216 Y2.7034 Z-0.3816
N15090 X0.2184 Y2.7038 Z-0.3817
N15095 X0.2208 Y2.7043
N15100 X0.2232 Y2.7049 Z-0.3818
N15105 X0.2279 Y2.7065 Z-0.382
N15110 X0.2302 Y2.7074 Z-0.3821
N15115 X0.2324 Y2.7084 Z-0.3822
N15120 X0.2346 Y2.7095 Z-0.3823
N15125 X0.2368 Y2.7107
N15130 X0.2389 Y2.712 Z-0.3824
N15135 X0.2409 Y2.7134 Z-0.3825
N15140 X0.2429 Y2.7148 Z-0.3826
N15145 X0.2449 Y2.7164 Z-0.3827
N15150 X0.2467 Y2.718 Z-0.3828
N15155 X0.2485 Y2.7196 Z-0.3829
N15160 X0.2503 Y2.7214 Z-0.383
N15165 X0.2519 Y2.7232
N15170 X0.255 Y2.7271 Z-0.3832
N15175 X0.2564 Y2.7291 Z-0.3833
N15180 X0.2577 Y2.7312 Z-0.3834
N15185 X0.259 Y2.7333 Z-0.3835
N15190 X0.2601 Y2.7355 Z-0.3836
N15195 X0.2612 Y2.7377
N15200 X0.2622 Y2.74 Z-0.3837
N15205 X0.263 Y2.7423 Z-0.3838
N15210 X0.2638 Y2.7446 Z-0.3839
N15215 X0.2645 Y2.747 Z-0.384
N15220 X0.2651 Y2.7494 Z-0.3841
N15225 X0.266 Y2.7543 Z-0.3842
N15230 X0.2663 Y2.7567 Z-0.3843
N15235 X0.2664 Y2.7591 Z-0.3844
N15240 X0.2665 Y2.7616 Z-0.3845
N15245 X0.2664 Y2.7641 Z-0.3846
N15250 X0.2661 Y2.769 Z-0.3848
N15255 X0.2654 Y2.7738 Z-0.3849
N15260 X0.2648 Y2.7762 Z-0.385
N15265 X0.2642 Y2.7786 Z-0.3851
N15270 X0.2626 Y2.7833 Z-0.3853
N15275 X0.2607 Y2.7878 Z-0.3854
N15280 X0.2585 Y2.7921 Z-0.3856
N15285 X0.2572 Y2.7942 Z-0.3857
N15290 X0.2558 Y2.7963 Z-0.3858
N15295 X0.2544 Y2.7983 Z-0.3859
N15300 X0.2529 Y2.8002 Z-0.386
N15305 X0.2513 Y2.8021
N15310 X0.2496 Y2.8038 Z-0.3861
N15315 X0.2478 Y2.8056 Z-0.3862
N15320 X0.246 Y2.8072 Z-0.3863
N15325 X0.2422 Y2.8103 Z-0.3865
N15330 X0.2402 Y2.8117 Z-0.3866
N15335 X0.2381 Y2.813
N15340 X0.236 Y2.8142 Z-0.3867
N15345 X0.2338 Y2.8154 Z-0.3868
N15350 X0.2316 Y2.8164 Z-0.3869
N15355 X0.2293 Y2.8174 Z-0.387
N15360 X0.2271 Y2.8183 Z-0.3871
N15365 X0.2247 Y2.819 Z-0.3872
N15370 X0.2224 Y2.8197
N15375 X0.22 Y2.8203 Z-0.3873
N15380 X0.2152 Y2.8211 Z-0.3875
N15385 X0.2128 Y2.8214 Z-0.3876
N15390 X0.2103 Y2.8216 Z-0.3877
N15395 X0.2079 Y2.8217
N15400 X0.2054 Y2.8216 Z-0.3878
N15405 X0.203 Y2.8215 Z-0.3879
N15410 X0.2006 Y2.8213 Z-0.388
N15415 X0.1981 Y2.821 Z-0.3881
N15420 X0.1957 Y2.8206 Z-0.3882
N15425 X0.1933 Y2.82 Z-0.3883
N15430 X0.191 Y2.8194
N15435 X0.1863 Y2.8179 Z-0.3885
N15440 X0.1841 Y2.817 Z-0.3886
N15445 X0.1819 Y2.816 Z-0.3887
N15450 X0.1797 Y2.8149 Z-0.3888
N15455 X0.1775 Y2.8137 Z-0.3889
N15460 X0.1754 Y2.8124
N15465 X0.1734 Y2.8111 Z-0.389
N15470 X0.1714 Y2.8096 Z-0.3891
N15475 X0.1695 Y2.8081 Z-0.3892
N15480 X0.1677 Y2.8065 Z-0.3893
N15485 X0.1659 Y2.8049 Z-0.3894
N15490 X0.1642 Y2.8031 Z-0.3895
N15495 X0.1626 Y2.8013
N15500 X0.1595 Y2.7975 Z-0.3897
N15505 X0.1581 Y2.7955 Z-0.3898
N15510 X0.1568 Y2.7934 Z-0.3899
N15515 X0.1556 Y2.7913 Z-0.39
N15520 X0.1545 Y2.7892
N15525 X0.1534 Y2.787 Z-0.3901
N15530 X0.1524 Y2.7847 Z-0.3902
N15535 X0.1516 Y2.7825 Z-0.3903
N15540 X0.1508 Y2.7802 Z-0.3904
N15545 X0.1501 Y2.7778 Z-0.3905
N15550 X0.1496 Y2.7754 Z-0.3906
N15555 X0.1487 Y2.7707 Z-0.3907
N15560 X0.1484 Y2.7682 Z-0.3908
N15565 X0.1482 Y2.7658 Z-0.3909
N15570 Y2.7634 Z-0.391
N15575 Y2.761 Z-0.3911
N15580 X0.1483 Y2.7585 Z-0.3912
N15585 X0.1485 Y2.7561
N15590 X0.1489 Y2.7537 Z-0.3913
N15595 X0.1493 Y2.7513 Z-0.3914
N15600 X0.1498 Y2.7489 Z-0.3915
N15605 X0.1504 Y2.7466 Z-0.3916
N15610 X0.1519 Y2.742 Z-0.3917
N15615 X0.1528 Y2.7397 Z-0.3918
N15620 X0.1538 Y2.7375 Z-0.3919
N15625 X0.1549 Y2.7353 Z-0.392
N15630 X0.1561 Y2.7332 Z-0.3921
N15635 X0.1574 Y2.7311 Z-0.3922
N15640 X0.1587 Y2.7291 Z-0.3923
N15645 X0.1601 Y2.7272
N15650 X0.1617 Y2.7253 Z-0.3924
N15655 X0.1632 Y2.7234 Z-0.3925
N15660 X0.1649 Y2.7216 Z-0.3926
N15665 X0.1666 Y2.7199 Z-0.3927
N15670 X0.1684 Y2.7183 Z-0.3928
N15675 X0.1722 Y2.7153 Z-0.3929
N15680 X0.1742 Y2.7139 Z-0.393
N15685 X0.1762 Y2.7126 Z-0.3931
N15690 X0.1783 Y2.7114 Z-0.3932
N15695 X0.1805 Y2.7103 Z-0.3933
N15700 X0.1827 Y2.7092 Z-0.3934
N15705 X0.1849 Y2.7083
N15710 X0.1884 Y2.707 Z-0.3936
N15715 X0.1901 Y2.7064
N15720 X0.1919 Y2.7059 Z-0.3937
N15725 X0.1921
N15730 X0.1934 Y2.7056
N15735 X0.1946 Y2.7053 Z-0.3938
N15740 X0.1972 Y2.7048 Z-0.3939
N15745 X0.1997 Y2.7044 Z-0.394
N15750 X0.2023 Y2.7042 Z-0.3941
N15755 X0.2049 Y2.704 Z-0.3942
N15760 X0.2075
N15765 X0.2101 Y2.7041 Z-0.3943
N15770 X0.2127 Y2.7043 Z-0.3944
N15775 X0.2153 Y2.7046 Z-0.3945
N15780 X0.2179 Y2.7051 Z-0.3946
N15785 X0.2205 Y2.7056 Z-0.3947
N15790 X0.2231 Y2.7063 Z-0.3948
N15795 X0.2256 Y2.7071 Z-0.3949
N15800 X0.228 Y2.708 Z-0.395
N15805 X0.2304 Y2.709 Z-0.3951
N15810 X0.2328 Y2.7101 Z-0.3952
N15815 X0.2351 Y2.7113
N15820 X0.2374 Y2.7126 Z-0.3953
N15825 X0.2396 Y2.7141 Z-0.3954
N15830 X0.2417 Y2.7156 Z-0.3955
N15835 X0.2437 Y2.7172 Z-0.3956
N15840 X0.2457 Y2.7189 Z-0.3957
N15845 X0.2477 Y2.7207 Z-0.3958
N15850 X0.2495 Y2.7226 Z-0.3959
N15855 X0.2512 Y2.7245 Z-0.396
N15860 X0.2529 Y2.7266 Z-0.3961
N15865 X0.2545 Y2.7287 Z-0.3962
N15870 X0.2559 Y2.7308 Z-0.3963
N15875 X0.2573 Y2.7331
N15880 X0.2585 Y2.7353 Z-0.3964
N15885 X0.2597 Y2.7377 Z-0.3965
N15890 X0.2607 Y2.7401 Z-0.3966
N15895 X0.2617 Y2.7425 Z-0.3967
N15900 X0.2625 Y2.745 Z-0.3968
N15905 X0.2632 Y2.7475 Z-0.3969
N15910 X0.2638 Y2.75 Z-0.397
N15915 X0.2643 Y2.7526 Z-0.3971
N15920 X0.2647 Y2.7552 Z-0.3972
N15925 X0.265 Y2.7579 Z-0.3973
N15930 X0.2651 Y2.7605 Z-0.3974
N15935 X0.265 Y2.7657 Z-0.3975
N15940 X0.2648 Y2.7682 Z-0.3976
N15945 X0.2645 Y2.7708 Z-0.3977
N15950 X0.2635 Y2.7759 Z-0.3979
N15955 X0.262 Y2.781 Z-0.3981
N15960 X0.2611 Y2.7835 Z-0.3982
N15965 X0.2601 Y2.7859 Z-0.3983
N15970 X0.2578 Y2.7905 Z-0.3984
N15975 X0.2565 Y2.7927 Z-0.3985
N15980 X0.2551 Y2.7949 Z-0.3986
N15985 X0.2536 Y2.797 Z-0.3987
N15990 X0.252 Y2.799 Z-0.3988
N15995 X0.2503 Y2.801 Z-0.3989
N16000 X0.2486 Y2.8029 Z-0.399
N16005 X0.2467 Y2.8048 Z-0.3991
N16010 X0.2447 Y2.8065 Z-0.3992
N16015 X0.2427 Y2.8081 Z-0.3993
N16020 X0.2406 Y2.8097
N16025 X0.2385 Y2.8111 Z-0.3994
N16030 X0.2362 Y2.8125 Z-0.3995
N16035 X0.234 Y2.8138 Z-0.3996
N16040 X0.2316 Y2.8149 Z-0.3997
N16045 X0.2293 Y2.8159 Z-0.3998
N16050 X0.2268 Y2.8169 Z-0.3999
N16055 X0.2244 Y2.8177 Z-0.4
N16060 X0.2219 Y2.8184 Z-0.4001
N16065 X0.2194 Y2.819 Z-0.4002
N16070 X0.2168 Y2.8195 Z-0.4003
N16075 X0.2142 Y2.8199
N16080 X0.2116 Y2.8201 Z-0.4004
N16085 X0.209 Y2.8203 Z-0.4005
N16090 X0.2064 Z-0.4006
N16095 X0.2038 Y2.8202 Z-0.4007
N16100 X0.2013 Y2.82 Z-0.4008
N16105 X0.1987 Y2.8197 Z-0.4009
N16110 X0.1962 Y2.8192 Z-0.401
N16115 X0.1937 Y2.8187 Z-0.4011
N16120 X0.1912 Y2.818 Z-0.4012
N16125 X0.1887 Y2.8173
N16130 X0.1863 Y2.8164 Z-0.4013
N16135 X0.1839 Y2.8154 Z-0.4014
N16140 X0.1815 Y2.8143 Z-0.4015
N16145 X0.1792 Y2.8131 Z-0.4016
N16150 X0.177 Y2.8118 Z-0.4017
N16155 X0.1748 Y2.8104 Z-0.4018
N16160 X0.1727 Y2.8089 Z-0.4019
N16165 X0.1707 Y2.8073 Z-0.402
N16170 X0.1687 Y2.8056 Z-0.4021
N16175 X0.1668 Y2.8038
N16180 X0.165 Y2.802 Z-0.4022
N16185 X0.1633 Y2.8 Z-0.4023
N16190 X0.1616 Y2.798 Z-0.4024
N16195 X0.1601 Y2.7959 Z-0.4025
N16200 X0.1586 Y2.7938 Z-0.4026
N16205 X0.1573 Y2.7916 Z-0.4027
N16210 X0.156 Y2.7893 Z-0.4028
N16215 X0.1549 Y2.787 Z-0.4029
N16220 X0.1538 Y2.7846 Z-0.403
N16225 X0.1529 Y2.7822 Z-0.4031
N16230 X0.1521 Y2.7797
N16235 X0.1514 Y2.7772 Z-0.4032
N16240 X0.1508 Y2.7747 Z-0.4033
N16245 X0.1503 Y2.7722 Z-0.4034
N16250 X0.15 Y2.7697 Z-0.4035
N16255 X0.1497 Y2.7671 Z-0.4036
N16260 X0.1496 Y2.7645 Z-0.4037
N16265 X0.1495 Y2.7619 Z-0.4038
N16270 X0.1496 Y2.7593 Z-0.4039
N16275 X0.1498 Y2.7568 Z-0.404
N16280 X0.1502 Y2.7542
N16285 X0.1506 Y2.7517 Z-0.4041
N16290 X0.1511 Y2.7492 Z-0.4042
N16295 X0.1518 Y2.7467 Z-0.4043
N16300 X0.1526 Y2.7443 Z-0.4044
N16305 X0.1534 Y2.7419 Z-0.4045
N16310 X0.1544 Y2.7395 Z-0.4046
N16315 X0.1555 Y2.7372 Z-0.4047
N16320 X0.1567 Y2.7349 Z-0.4048
N16325 X0.158 Y2.7327
N16330 X0.1594 Y2.7305 Z-0.4049
N16335 X0.1609 Y2.7284 Z-0.405
N16340 X0.1625 Y2.7264 Z-0.4051
N16345 X0.1642 Y2.7244 Z-0.4052
N16350 X0.1659 Y2.7225 Z-0.4053
N16355 X0.1678 Y2.7207 Z-0.4054
N16360 X0.1697 Y2.719 Z-0.4055
N16365 X0.1717 Y2.7174 Z-0.4056
N16370 X0.1738 Y2.7159 Z-0.4057
N16375 X0.1759 Y2.7144
N16380 X0.1781 Y2.7131 Z-0.4058
N16385 X0.1803 Y2.7119 Z-0.4059
N16390 X0.1826 Y2.7107 Z-0.406
N16395 X0.185 Y2.7097 Z-0.4061
N16400 X0.1874 Y2.7087 Z-0.4062
N16405 X0.1899 Y2.7079 Z-0.4063
N16410 X0.1924 Y2.7072 Z-0.4064
N16415 X0.1949 Y2.7066 Z-0.4065
N16420 X0.1974 Y2.7061 Z-0.4066
N16425 X0.1999 Y2.7058
N16430 X0.2024 Y2.7055 Z-0.4067
N16435 X0.205 Y2.7054 Z-0.4068
N16440 X0.2075 Z-0.4069
N16445 X0.21 Y2.7055 Z-0.407
N16450 X0.2126 Y2.7057 Z-0.4071
N16455 X0.2151 Y2.706 Z-0.4072
N16460 X0.2177 Y2.7064 Z-0.4073
N16465 X0.2202 Y2.707 Z-0.4074
N16470 X0.2227 Y2.7076
N16475 X0.2251 Y2.7084 Z-0.4075
N16480 X0.2275 Y2.7093 Z-0.4076
N16485 X0.2299 Y2.7102 Z-0.4077
N16490 X0.2322 Y2.7113 Z-0.4078
N16495 X0.2345 Y2.7125 Z-0.4079
N16500 X0.2367 Y2.7138 Z-0.408
N16505 X0.2388 Y2.7152 Z-0.4081
N16510 X0.2409 Y2.7167 Z-0.4082
N16515 X0.2429 Y2.7182
N16520 X0.2449 Y2.7199 Z-0.4083
N16525 X0.2467 Y2.7217 Z-0.4084
N16530 X0.2485 Y2.7235 Z-0.4085
N16535 X0.2502 Y2.7254 Z-0.4086
N16540 X0.2518 Y2.7274 Z-0.4087
N16545 X0.2534 Y2.7294 Z-0.4088
N16550 X0.2548 Y2.7316 Z-0.4089
N16555 X0.2561 Y2.7337 Z-0.409
N16560 X0.2574 Y2.736 Z-0.4091
N16565 X0.2585 Y2.7383
N16570 X0.2595 Y2.7406 Z-0.4092
N16575 X0.2604 Y2.743 Z-0.4093
N16580 X0.2612 Y2.7454 Z-0.4094
N16585 X0.2619 Y2.7478 Z-0.4095
N16590 X0.2625 Y2.7503 Z-0.4096
N16595 X0.263 Y2.7528 Z-0.4097
N16600 X0.2634 Y2.7554 Z-0.4098
N16605 X0.2636 Y2.758 Z-0.4099
N16610 X0.2638 Y2.7605
N16615 X0.2637 Y2.7656 Z-0.4101
N16620 X0.2635 Y2.7681 Z-0.4102
N16625 X0.2632 Y2.7706 Z-0.4103
N16630 X0.2622 Y2.7756 Z-0.4105
N16635 X0.2607 Y2.7806 Z-0.4107
N16640 X0.2599 Y2.783
N16645 X0.2589 Y2.7853 Z-0.4108
N16650 X0.2566 Y2.7898 Z-0.411
N16655 X0.2554 Y2.792 Z-0.4111
N16660 X0.254 Y2.7942 Z-0.4112
